(G-CODE GENERATED BY FLATCAM v8.994 - www.flatcam.org - Version Date: 2020/11/7)

(Name: OptoIsolation.drl_cnc)
(Type: G-code from Geometry)
(Units: MM)

(Created on Středa, 17 srpna 2022 at 21:00)

(This preprocessor is the default preprocessor used by FlatCAM.)
(It is made to work with MACH3 compatible motion controllers.)


(TOOLS DIAMETER: )
(Tool: 1 -> Dia: 0.8)
(Tool: 2 -> Dia: 1.0)
(Tool: 3 -> Dia: 1.19)
(Tool: 4 -> Dia: 3.2)
(Tool: 5 -> Dia: 5.3)

(FEEDRATE Z: )
(Tool: 1 -> Feedrate: 100.0)
(Tool: 2 -> Feedrate: 100.0)
(Tool: 3 -> Feedrate: 100.0)
(Tool: 4 -> Feedrate: 100.0)
(Tool: 5 -> Feedrate: 100.0)

(FEEDRATE RAPIDS: )
(Tool: 1 -> Feedrate Rapids: 1500)
(Tool: 2 -> Feedrate Rapids: 1500)
(Tool: 3 -> Feedrate Rapids: 1500)
(Tool: 4 -> Feedrate Rapids: 1500)
(Tool: 5 -> Feedrate Rapids: 1500)

(Z_CUT: )
(Tool: 1 -> Z_Cut: -1.7)
(Tool: 2 -> Z_Cut: -1.7)
(Tool: 3 -> Z_Cut: -1.7)
(Tool: 4 -> Z_Cut: -1.7)
(Tool: 5 -> Z_Cut: -1.7)

(Tools Offset: )
(Tool: 1 -> Offset Z: 0.0)

(Z_MOVE: )
(Tool: 1 -> Z_Move: 2)
(Tool: 2 -> Z_Move: 2)
(Tool: 3 -> Z_Move: 2)
(Tool: 4 -> Z_Move: 2)
(Tool: 5 -> Z_Move: 2)

(Z Toolchange: 10.0 mm)
(X,Y Toolchange: 0.0000, 0.0000 mm)
(Z Start: None mm)
(Z End: 5.0 mm)
(X,Y End: None mm)
(Steps per circle: 64)
(Preprocessor Excellon: default)

(X range:    4.5800 ...   56.8200  mm)
(Y range:  -88.6290 ...   -7.3830  mm)

(Spindle Speed: 10000 RPM)
G21
G90
G94

G01 F100.00

M5
G00 Z10.0000
T1
G00 X0.0000 Y0.0000                
M6
(MSG, Change to Tool Dia = 0.8000 ||| Total drills for tool T1 = 36)
M0
G00 Z10.0000

G01 F100.00
M03 S10000
G4 P1
G00 X10.1600 Y-58.4200
G01 Z-1.7000
G01 Z0
G00 Z2.0000
G00 X15.2400 Y-55.8800
G01 Z-1.7000
G01 Z0
G00 Z2.0000
G00 X22.8600 Y-58.4200
G01 Z-1.7000
G01 Z0
G00 Z2.0000
G00 X22.8600 Y-53.3400
G01 Z-1.7000
G01 Z0
G00 Z2.0000
G00 X27.9400 Y-55.8800
G01 Z-1.7000
G01 Z0
G00 Z2.0000
G00 X33.0200 Y-53.3400
G01 Z-1.7000
G01 Z0
G00 Z2.0000
G00 X40.6400 Y-52.0700
G01 Z-1.7000
G01 Z0
G00 Z2.0000
G00 X43.1800 Y-52.0700
G01 Z-1.7000
G01 Z0
G00 Z2.0000
G00 X45.7200 Y-52.0700
G01 Z-1.7000
G01 Z0
G00 Z2.0000
G00 X41.9100 Y-64.1350
G01 Z-1.7000
G01 Z0
G00 Z2.0000
G00 X54.6100 Y-64.1350
G01 Z-1.7000
G01 Z0
G00 Z2.0000
G00 X49.5300 Y-52.0700
G01 Z-1.7000
G01 Z0
G00 Z2.0000
G00 X52.0700 Y-52.0700
G01 Z-1.7000
G01 Z0
G00 Z2.0000
G00 X54.6100 Y-52.0700
G01 Z-1.7000
G01 Z0
G00 Z2.0000
G00 X54.6100 Y-44.4500
G01 Z-1.7000
G01 Z0
G00 Z2.0000
G00 X52.0700 Y-44.4500
G01 Z-1.7000
G01 Z0
G00 Z2.0000
G00 X49.5300 Y-44.4500
G01 Z-1.7000
G01 Z0
G00 Z2.0000
G00 X45.7200 Y-44.4500
G01 Z-1.7000
G01 Z0
G00 Z2.0000
G00 X43.1800 Y-44.4500
G01 Z-1.7000
G01 Z0
G00 Z2.0000
G00 X40.6400 Y-44.4500
G01 Z-1.7000
G01 Z0
G00 Z2.0000
G00 X30.4800 Y-44.4500
G01 Z-1.7000
G01 Z0
G00 Z2.0000
G00 X27.9400 Y-44.4500
G01 Z-1.7000
G01 Z0
G00 Z2.0000
G00 X25.4000 Y-44.4500
G01 Z-1.7000
G01 Z0
G00 Z2.0000
G00 X22.8600 Y-44.4500
G01 Z-1.7000
G01 Z0
G00 Z2.0000
G00 X20.3200 Y-44.4500
G01 Z-1.7000
G01 Z0
G00 Z2.0000
G00 X30.4800 Y-36.8300
G01 Z-1.7000
G01 Z0
G00 Z2.0000
G00 X27.9400 Y-36.8300
G01 Z-1.7000
G01 Z0
G00 Z2.0000
G00 X25.4000 Y-36.8300
G01 Z-1.7000
G01 Z0
G00 Z2.0000
G00 X22.8600 Y-36.8300
G01 Z-1.7000
G01 Z0
G00 Z2.0000
G00 X20.3200 Y-36.8300
G01 Z-1.7000
G01 Z0
G00 Z2.0000
G00 X17.7800 Y-36.8300
G01 Z-1.7000
G01 Z0
G00 Z2.0000
G00 X15.2400 Y-36.8300
G01 Z-1.7000
G01 Z0
G00 Z2.0000
G00 X12.7000 Y-36.8300
G01 Z-1.7000
G01 Z0
G00 Z2.0000
G00 X12.7000 Y-44.4500
G01 Z-1.7000
G01 Z0
G00 Z2.0000
G00 X15.2400 Y-44.4500
G01 Z-1.7000
G01 Z0
G00 Z2.0000
G00 X17.7800 Y-44.4500
G01 Z-1.7000
G01 Z0
G00 Z2.0000
M05
G00 Z5.00


