(G-CODE GENERATED BY FLATCAM v8.994 - www.flatcam.org - Version Date: 2020/11/7)

(Name: slots_cnc)
(Type: G-code from Geometry)
(Units: MM)

(Created on Středa, 17 srpna 2022 at 22:17)

(This preprocessor is the default preprocessor used by FlatCAM.)
(It is made to work with MACH3 compatible motion controllers.)

(TOOL DIAMETER: 1.0 mm)
(Feedrate_XY: 40.0 mm/min)
(Feedrate_Z: 10.0 mm/min)
(Feedrate rapids 1000.0 mm/min)

(Z_Cut: -1.6 mm)
(Z_Move: 2.0 mm)
(Z Start: None mm)
(Z End: 10.0 mm)
(X,Y End: None mm)
(Steps per circle: 64)
(Preprocessor Geometry: default)

(X range:    5.6000 ...   55.4000  mm)
(Y range:  -73.8000 ...  -20.8000  mm)

(Spindle Speed: 10000.0 RPM)
G21
G90
G94

G01 F40.00

M5
G00 Z15.0000
G00 X0.0000 Y0.0000
T3
M6    
(MSG, Change to Tool Dia = 1.0000)
M0
G00 Z15.0000

M03 S10000.0
G4 P1.0
G01 F40.00
G00 X5.6000 Y-20.8000
G01 F10.00
G01 Z-1.6000
G01 F40.00
G01 X18.5000 Y-20.8000
G00 Z2.0000
G00 X23.4000 Y-20.8000
G01 F10.00
G01 Z-1.6000
G01 F40.00
G01 X36.3000 Y-20.8000
G00 Z2.0000
G00 X41.2000 Y-20.8000
G01 F10.00
G01 Z-1.6000
G01 F40.00
G01 X54.1000 Y-20.8000
G00 Z2.0000
G00 X40.5000 Y-48.1000
G01 F10.00
G01 Z-1.6000
G01 F40.00
G01 X55.4000 Y-48.1000
G00 Z2.0000
G00 X41.2000 Y-73.8000
G01 F10.00
G01 Z-1.6000
G01 F40.00
G01 X54.1000 Y-73.8000
G00 Z2.0000
G00 X36.3000 Y-73.8000
G01 F10.00
G01 Z-1.6000
G01 F40.00
G01 X23.4000 Y-73.8000
G00 Z2.0000
G00 X18.5000 Y-73.8000
G01 F10.00
G01 Z-1.6000
G01 F40.00
G01 X5.6000 Y-73.8000
G00 Z2.0000
M05
G00 Z2.0000
G00 Z10.00


