(G-CODE GENERATED BY FLATCAM v8.994 - www.flatcam.org - Version Date: 2020/11/7)

(Name: OptoIsolation-B_Cu.gbr_iso_combined_cnc)
(Type: G-code from Geometry)
(Units: MM)

(Created on Čtvrtek, 18 srpna 2022 at 12:42)

(This preprocessor is the default preprocessor used by FlatCAM.)
(It is made to work with MACH3 compatible motion controllers.)

(TOOL DIAMETER: 0.3995 mm)
(Feedrate_XY: 240.0 mm/min)
(Feedrate_Z: 100.0 mm/min)
(Feedrate rapids 1500.0 mm/min)

(Z_Cut: -0.1017 mm)
(Z_Move: 2.0 mm)
(Z Start: None mm)
(Z End: 10.0 mm)
(X,Y End: None mm)
(Steps per circle: 64)
(Preprocessor Geometry: default)

(X range:    1.8603 ...   58.6200  mm)
(Y range:  -70.8997 ...  -21.6300  mm)

(Spindle Speed: 10000.0 RPM)
G21
G90
G94

G01 F240.00

M5
G00 Z15.0000
G00 X0.0000 Y0.0000
T2
M6    
(MSG, Change to Tool Dia = 0.3995)
M0
G00 Z15.0000

M03 S10000.0
G4 P1.0
G01 F240.00
G00 X6.5703 Y-30.0600
G01 F100.00
G01 Z-0.1017
G01 F240.00
G01 X6.5708 Y-30.0747
G01 X6.5732 Y-30.0941
G01 X6.5775 Y-30.1133
G01 X6.5836 Y-30.1319
G01 X6.5916 Y-30.1498
G01 X6.6012 Y-30.1669
G01 X6.6125 Y-30.1829
G01 X6.6220 Y-30.1941
G01 X6.6359 Y-30.2080
G01 X6.6471 Y-30.2175
G01 X6.6631 Y-30.2288
G01 X6.6802 Y-30.2384
G01 X6.6981 Y-30.2464
G01 X6.7167 Y-30.2525
G01 X6.7310 Y-30.2559
G01 X6.7504 Y-30.2588
G01 X6.7700 Y-30.2597
G01 X8.4749 Y-30.2597
G01 X8.4896 Y-30.2588
G01 X8.5041 Y-30.2568
G01 X8.5185 Y-30.2538
G01 X8.5327 Y-30.2497
G01 X8.5419 Y-30.2464
G01 X8.5554 Y-30.2406
G01 X8.5685 Y-30.2338
G01 X8.5810 Y-30.2261
G01 X8.5929 Y-30.2175
G01 X8.6041 Y-30.2080
G01 X8.6147 Y-30.1977
G01 X8.6213 Y-30.1905
G01 X8.6304 Y-30.1790
G01 X8.6388 Y-30.1669
G01 X8.6462 Y-30.1542
G01 X8.6526 Y-30.1409
G01 X8.6597 Y-30.1227
G01 X8.6649 Y-30.1038
G01 X8.6682 Y-30.0845
G01 X8.6695 Y-30.0698
G01 X8.6697 Y-29.8100
G01 X20.0715 Y-29.8099
G01 X25.9158 Y-35.6542
G01 X25.9594 Y-35.6938
G01 X25.9987 Y-35.7232
G01 X26.0108 Y-35.7315
G01 X26.0572 Y-35.7591
G01 X26.1014 Y-35.7803
G01 X26.1196 Y-35.7878
G01 X26.1658 Y-35.8041
G01 X26.2134 Y-35.8163
G01 X26.2326 Y-35.8201
G01 X26.2812 Y-35.8271
G01 X26.3302 Y-35.8297
G01 X28.4595 Y-35.8299
G01 X29.4811 Y-36.8515
G01 X29.4851 Y-36.9280
G01 X29.4995 Y-37.0250
G01 X29.5233 Y-37.1202
G01 X29.5545 Y-37.2080
G01 X29.5603 Y-37.2216
G01 X29.5983 Y-37.3013
G01 X29.6435 Y-37.3771
G01 X29.6544 Y-37.3934
G01 X29.7012 Y-37.4565
G01 X29.7136 Y-37.4717
G01 X29.7731 Y-37.5369
G01 X29.8383 Y-37.5964
G01 X29.8535 Y-37.6088
G01 X29.9246 Y-37.6613
G01 X30.0087 Y-37.7117
G01 X30.0884 Y-37.7497
G01 X30.1066 Y-37.7572
G01 X30.1805 Y-37.7836
G01 X30.1992 Y-37.7893
G01 X30.2850 Y-37.8105
G01 X30.3820 Y-37.8249
G01 X30.4800 Y-37.8297
G01 X30.5780 Y-37.8249
G01 X30.6750 Y-37.8105
G01 X30.7702 Y-37.7867
G01 X30.8626 Y-37.7536
G01 X30.9513 Y-37.7117
G01 X31.0354 Y-37.6613
G01 X31.1142 Y-37.6028
G01 X31.1869 Y-37.5369
G01 X31.2528 Y-37.4642
G01 X31.3113 Y-37.3854
G01 X31.3617 Y-37.3013
G01 X31.4036 Y-37.2126
G01 X31.4336 Y-37.1295
G01 X31.4381 Y-37.1155
G01 X31.4605 Y-37.0250
G01 X31.4737 Y-36.9377
G01 X31.4757 Y-36.9182
G01 X31.4797 Y-36.8300
G01 X31.4757 Y-36.7418
G01 X31.4737 Y-36.7223
G01 X31.4605 Y-36.6350
G01 X31.4393 Y-36.5492
G01 X31.4336 Y-36.5305
G01 X31.4036 Y-36.4474
G01 X31.3661 Y-36.3675
G01 X31.3569 Y-36.3502
G01 X31.3113 Y-36.2746
G01 X31.2588 Y-36.2035
G01 X31.2464 Y-36.1883
G01 X31.1869 Y-36.1231
G01 X31.1217 Y-36.0636
G01 X31.1065 Y-36.0512
G01 X31.0354 Y-35.9987
G01 X30.9598 Y-35.9531
G01 X30.9425 Y-35.9439
G01 X30.8626 Y-35.9064
G01 X30.7795 Y-35.8764
G01 X30.7608 Y-35.8707
G01 X30.6750 Y-35.8495
G01 X30.5877 Y-35.8363
G01 X30.5682 Y-35.8343
G01 X30.4800 Y-35.8303
G01 X30.3918 Y-35.8343
G01 X30.3723 Y-35.8363
G01 X30.2850 Y-35.8495
G01 X30.1976 Y-35.8711
G01 X29.1287 Y-34.8023
G01 X29.0886 Y-34.7662
G01 X29.0493 Y-34.7368
G01 X29.0330 Y-34.7259
G01 X28.9993 Y-34.7057
G01 X28.9865 Y-34.6986
G01 X28.9421 Y-34.6776
G01 X28.9284 Y-34.6722
G01 X28.8822 Y-34.6559
G01 X28.8346 Y-34.6437
G01 X28.8202 Y-34.6407
G01 X28.7717 Y-34.6335
G01 X28.7570 Y-34.6322
G01 X28.7129 Y-34.6301
G01 X26.5885 Y-34.6300
G01 X20.7442 Y-28.7858
G01 X20.7080 Y-28.7526
G01 X20.6929 Y-28.7402
G01 X20.6533 Y-28.7112
G01 X20.6113 Y-28.6857
G01 X20.5941 Y-28.6765
G01 X20.5496 Y-28.6557
G01 X20.5035 Y-28.6390
G01 X20.4894 Y-28.6345
G01 X20.4370 Y-28.6216
G01 X20.3885 Y-28.6141
G01 X20.3690 Y-28.6122
G01 X20.3200 Y-28.6101
G01 X8.6697 Y-28.6101
G01 X8.6697 Y-28.3551
G01 X8.6688 Y-28.3404
G01 X8.6668 Y-28.3259
G01 X8.6638 Y-28.3115
G01 X8.6581 Y-28.2927
G01 X8.6526 Y-28.2791
G01 X8.6462 Y-28.2658
G01 X8.6388 Y-28.2531
G01 X8.6333 Y-28.2450
G01 X8.6244 Y-28.2333
G01 X8.6180 Y-28.2259
G01 X8.6077 Y-28.2153
G01 X8.6005 Y-28.2087
G01 X8.5890 Y-28.1996
G01 X8.5810 Y-28.1939
G01 X8.5727 Y-28.1887
G01 X8.5598 Y-28.1816
G01 X8.5509 Y-28.1774
G01 X8.5373 Y-28.1719
G01 X8.5233 Y-28.1675
G01 X8.5138 Y-28.1651
G01 X8.4945 Y-28.1618
G01 X8.4847 Y-28.1608
G01 X8.4700 Y-28.1603
G01 X6.7700 Y-28.1603
G01 X6.7504 Y-28.1612
G01 X6.7359 Y-28.1632
G01 X6.7167 Y-28.1675
G01 X6.7027 Y-28.1719
G01 X6.6846 Y-28.1794
G01 X6.6715 Y-28.1862
G01 X6.6550 Y-28.1967
G01 X6.6395 Y-28.2087
G01 X6.6288 Y-28.2188
G01 X6.6156 Y-28.2333
G01 X6.6067 Y-28.2450
G01 X6.5987 Y-28.2573
G01 X6.5894 Y-28.2746
G01 X6.5836 Y-28.2881
G01 X6.5775 Y-28.3067
G01 X6.5741 Y-28.3210
G01 X6.5712 Y-28.3404
G01 X6.5703 Y-28.3600
G01 X6.5703 Y-30.0600
G00 Z2.0000
G00 X7.6298 Y-30.7005
G01 F100.00
G01 Z-0.1017
G01 F240.00
G01 X7.6102 Y-30.7005
G01 X7.5269 Y-30.7046
G01 X7.5074 Y-30.7065
G01 X7.4152 Y-30.7204
G01 X7.3247 Y-30.7428
G01 X7.3060 Y-30.7485
G01 X7.2183 Y-30.7802
G01 X7.1252 Y-30.8242
G01 X7.0368 Y-30.8772
G01 X6.9618 Y-30.9325
G01 X6.9466 Y-30.9449
G01 X6.8777 Y-31.0077
G01 X6.8085 Y-31.0840
G01 X6.7472 Y-31.1668
G01 X6.6942 Y-31.2552
G01 X6.6502 Y-31.3483
G01 X6.6155 Y-31.4453
G01 X6.5904 Y-31.5452
G01 X6.5765 Y-31.6374
G01 X6.5746 Y-31.6569
G01 X6.5703 Y-31.7500
G01 X6.5753 Y-31.8529
G01 X6.5904 Y-31.9548
G01 X6.6155 Y-32.0547
G01 X6.6502 Y-32.1517
G01 X6.6942 Y-32.2448
G01 X6.7472 Y-32.3332
G01 X6.8085 Y-32.4160
G01 X6.8777 Y-32.4923
G01 X6.9540 Y-32.5615
G01 X7.0368 Y-32.6228
G01 X7.1252 Y-32.6758
G01 X7.2183 Y-32.7198
G01 X7.3153 Y-32.7545
G01 X7.4152 Y-32.7796
G01 X7.5122 Y-32.7942
G01 X7.5269 Y-32.7954
G01 X7.6102 Y-32.7995
G01 X7.6298 Y-32.7995
G01 X7.7229 Y-32.7947
G01 X7.8151 Y-32.7813
G01 X7.8344 Y-32.7774
G01 X7.9247 Y-32.7545
G01 X8.0126 Y-32.7234
G01 X8.0307 Y-32.7159
G01 X8.1148 Y-32.6758
G01 X8.1949 Y-32.6281
G01 X8.2112 Y-32.6172
G01 X8.2860 Y-32.5615
G01 X8.3552 Y-32.4990
G01 X8.3690 Y-32.4852
G01 X8.4315 Y-32.4160
G01 X8.4804 Y-32.3504
G01 X20.0715 Y-32.3500
G01 X24.4111 Y-36.6896
G01 X24.4063 Y-36.7223
G01 X24.4046 Y-36.7369
G01 X24.4003 Y-36.8251
G01 X24.4005 Y-36.8398
G01 X24.4043 Y-36.9182
G01 X24.4056 Y-36.9329
G01 X24.4195 Y-37.0250
G01 X24.4407 Y-37.1108
G01 X24.4464 Y-37.1295
G01 X24.4745 Y-37.2080
G01 X24.4803 Y-37.2216
G01 X24.5139 Y-37.2925
G01 X24.5231 Y-37.3098
G01 X24.5687 Y-37.3854
G01 X24.6212 Y-37.4565
G01 X24.6336 Y-37.4717
G01 X24.6931 Y-37.5369
G01 X24.7583 Y-37.5964
G01 X24.7735 Y-37.6088
G01 X24.8446 Y-37.6613
G01 X24.9202 Y-37.7069
G01 X24.9375 Y-37.7161
G01 X25.0084 Y-37.7497
G01 X25.0266 Y-37.7572
G01 X25.1098 Y-37.7867
G01 X25.2050 Y-37.8105
G01 X25.3020 Y-37.8249
G01 X25.3902 Y-37.8295
G01 X25.4098 Y-37.8295
G01 X25.4980 Y-37.8249
G01 X25.5854 Y-37.8122
G01 X25.6046 Y-37.8084
G01 X25.6902 Y-37.7867
G01 X25.7826 Y-37.7536
G01 X25.8625 Y-37.7161
G01 X25.8798 Y-37.7069
G01 X25.9554 Y-37.6613
G01 X26.0265 Y-37.6088
G01 X26.0417 Y-37.5964
G01 X26.1069 Y-37.5369
G01 X26.1728 Y-37.4642
G01 X26.2256 Y-37.3934
G01 X26.2365 Y-37.3771
G01 X26.2817 Y-37.3013
G01 X26.3197 Y-37.2216
G01 X26.3272 Y-37.2034
G01 X26.3552 Y-37.1249
G01 X26.3593 Y-37.1108
G01 X26.3784 Y-37.0346
G01 X26.3822 Y-37.0154
G01 X26.3949 Y-36.9280
G01 X26.3995 Y-36.8398
G01 X26.3995 Y-36.8202
G01 X26.3949 Y-36.7320
G01 X26.3822 Y-36.6446
G01 X26.3784 Y-36.6254
G01 X26.3567 Y-36.5398
G01 X26.3272 Y-36.4566
G01 X26.3197 Y-36.4384
G01 X26.2817 Y-36.3587
G01 X26.2313 Y-36.2746
G01 X26.1788 Y-36.2035
G01 X26.1664 Y-36.1883
G01 X26.1069 Y-36.1231
G01 X26.0342 Y-36.0572
G01 X25.9634 Y-36.0044
G01 X25.9471 Y-35.9935
G01 X25.8713 Y-35.9483
G01 X25.7916 Y-35.9103
G01 X25.7734 Y-35.9028
G01 X25.6949 Y-35.8748
G01 X25.6808 Y-35.8707
G01 X25.5950 Y-35.8495
G01 X25.5077 Y-35.8363
G01 X25.4931 Y-35.8346
G01 X25.4098 Y-35.8305
G01 X25.3951 Y-35.8303
G01 X25.3069 Y-35.8346
G01 X25.2923 Y-35.8363
G01 X25.2596 Y-35.8411
G01 X20.7442 Y-31.3258
G01 X20.7006 Y-31.2862
G01 X20.6613 Y-31.2568
G01 X20.6450 Y-31.2459
G01 X20.6028 Y-31.2209
G01 X20.5586 Y-31.1997
G01 X20.5450 Y-31.1939
G01 X20.4988 Y-31.1774
G01 X20.4847 Y-31.1733
G01 X20.4466 Y-31.1637
G01 X20.4274 Y-31.1599
G01 X20.3788 Y-31.1529
G01 X20.3200 Y-31.1501
G01 X8.4807 Y-31.1501
G01 X8.4315 Y-31.0840
G01 X8.3690 Y-31.0148
G01 X8.3552 Y-31.0010
G01 X8.2934 Y-30.9449
G01 X8.2782 Y-30.9325
G01 X8.2032 Y-30.8772
G01 X8.1148 Y-30.8242
G01 X8.0217 Y-30.7802
G01 X7.9340 Y-30.7485
G01 X7.9153 Y-30.7428
G01 X7.8248 Y-30.7204
G01 X7.7326 Y-30.7065
G01 X7.7131 Y-30.7046
G01 X7.6298 Y-30.7005
G00 Z2.0000
G00 X7.6298 Y-33.2405
G01 F100.00
G01 Z-0.1017
G01 F240.00
G01 X7.6102 Y-33.2405
G01 X7.5269 Y-33.2446
G01 X7.5074 Y-33.2465
G01 X7.4152 Y-33.2604
G01 X7.3247 Y-33.2828
G01 X7.3060 Y-33.2885
G01 X7.2183 Y-33.3202
G01 X7.1252 Y-33.3642
G01 X7.0368 Y-33.4172
G01 X6.9540 Y-33.4785
G01 X6.8777 Y-33.5477
G01 X6.8085 Y-33.6240
G01 X6.7472 Y-33.7068
G01 X6.6990 Y-33.7866
G01 X6.6898 Y-33.8039
G01 X6.6502 Y-33.8883
G01 X6.6185 Y-33.9760
G01 X6.6128 Y-33.9947
G01 X6.5926 Y-34.0756
G01 X6.5887 Y-34.0949
G01 X6.5753 Y-34.1871
G01 X6.5703 Y-34.2900
G01 X6.5753 Y-34.3929
G01 X6.5904 Y-34.4948
G01 X6.6155 Y-34.5947
G01 X6.6502 Y-34.6917
G01 X6.6942 Y-34.7848
G01 X6.7419 Y-34.8649
G01 X6.7528 Y-34.8812
G01 X6.8025 Y-34.9482
G01 X6.8149 Y-34.9634
G01 X6.8777 Y-35.0323
G01 X6.9466 Y-35.0951
G01 X6.9618 Y-35.1075
G01 X7.0368 Y-35.1628
G01 X7.1252 Y-35.2158
G01 X7.2183 Y-35.2598
G01 X7.3060 Y-35.2915
G01 X7.3200 Y-35.2959
G01 X7.4056 Y-35.3174
G01 X7.4249 Y-35.3213
G01 X7.5171 Y-35.3347
G01 X7.6102 Y-35.3395
G01 X7.6298 Y-35.3395
G01 X7.7229 Y-35.3347
G01 X7.8248 Y-35.3196
G01 X7.9153 Y-35.2972
G01 X7.9340 Y-35.2915
G01 X8.0217 Y-35.2598
G01 X8.1061 Y-35.2202
G01 X8.1234 Y-35.2110
G01 X8.2032 Y-35.1628
G01 X8.2782 Y-35.1075
G01 X8.2934 Y-35.0951
G01 X8.3552 Y-35.0390
G01 X8.3690 Y-35.0252
G01 X8.4315 Y-34.9560
G01 X8.4872 Y-34.8812
G01 X8.4981 Y-34.8649
G01 X8.5458 Y-34.7848
G01 X8.5898 Y-34.6917
G01 X8.6215 Y-34.6040
G01 X8.6272 Y-34.5853
G01 X8.6496 Y-34.4948
G01 X8.6647 Y-34.3929
G01 X8.6695 Y-34.2998
G01 X8.6695 Y-34.2802
G01 X8.6647 Y-34.1871
G01 X8.6529 Y-34.1060
G01 X8.7187 Y-34.0400
G01 X17.9515 Y-34.0400
G01 X19.7200 Y-35.8085
G01 X19.7201 Y-36.0315
G01 X19.6935 Y-36.0512
G01 X19.6820 Y-36.0603
G01 X19.6166 Y-36.1196
G01 X19.6063 Y-36.1302
G01 X19.5503 Y-36.1920
G01 X19.5412 Y-36.2035
G01 X19.4887 Y-36.2746
G01 X19.4407 Y-36.3544
G01 X19.4339 Y-36.3675
G01 X19.3964 Y-36.4474
G01 X19.3633 Y-36.5398
G01 X19.3395 Y-36.6350
G01 X19.3263 Y-36.7223
G01 X19.3243 Y-36.7418
G01 X19.3203 Y-36.8300
G01 X19.3243 Y-36.9182
G01 X19.3263 Y-36.9377
G01 X19.3395 Y-37.0250
G01 X19.3607 Y-37.1108
G01 X19.3664 Y-37.1295
G01 X19.3928 Y-37.2034
G01 X19.4003 Y-37.2216
G01 X19.4383 Y-37.3013
G01 X19.4887 Y-37.3854
G01 X19.5472 Y-37.4642
G01 X19.6063 Y-37.5298
G01 X19.6202 Y-37.5437
G01 X19.6783 Y-37.5964
G01 X19.6935 Y-37.6088
G01 X19.7646 Y-37.6613
G01 X19.8402 Y-37.7069
G01 X19.8575 Y-37.7161
G01 X19.9374 Y-37.7536
G01 X20.0205 Y-37.7836
G01 X20.0392 Y-37.7893
G01 X20.1250 Y-37.8105
G01 X20.2123 Y-37.8237
G01 X20.2318 Y-37.8257
G01 X20.3200 Y-37.8297
G01 X20.4082 Y-37.8257
G01 X20.4277 Y-37.8237
G01 X20.5150 Y-37.8105
G01 X20.6008 Y-37.7893
G01 X20.6195 Y-37.7836
G01 X20.7026 Y-37.7536
G01 X20.7825 Y-37.7161
G01 X20.7998 Y-37.7069
G01 X20.8754 Y-37.6613
G01 X20.9465 Y-37.6088
G01 X20.9617 Y-37.5964
G01 X21.0269 Y-37.5369
G01 X21.0864 Y-37.4717
G01 X21.0988 Y-37.4565
G01 X21.1513 Y-37.3854
G01 X21.1969 Y-37.3098
G01 X21.2061 Y-37.2925
G01 X21.2436 Y-37.2126
G01 X21.2736 Y-37.1295
G01 X21.2781 Y-37.1155
G01 X21.2984 Y-37.0346
G01 X21.3022 Y-37.0154
G01 X21.3149 Y-36.9280
G01 X21.3195 Y-36.8398
G01 X21.3195 Y-36.8202
G01 X21.3149 Y-36.7320
G01 X21.3022 Y-36.6446
G01 X21.2984 Y-36.6254
G01 X21.2767 Y-36.5398
G01 X21.2436 Y-36.4474
G01 X21.2017 Y-36.3587
G01 X21.1539 Y-36.2787
G01 X21.1456 Y-36.2666
G01 X21.0928 Y-36.1958
G01 X21.0304 Y-36.1266
G01 X21.0198 Y-36.1163
G01 X20.9580 Y-36.0603
G01 X20.9465 Y-36.0512
G01 X20.9200 Y-36.0315
G01 X20.9199 Y-35.5600
G01 X20.9178 Y-35.5110
G01 X20.9165 Y-35.4963
G01 X20.9093 Y-35.4478
G01 X20.9063 Y-35.4334
G01 X20.8941 Y-35.3858
G01 X20.8778 Y-35.3396
G01 X20.8703 Y-35.3214
G01 X20.8491 Y-35.2772
G01 X20.8188 Y-35.2267
G01 X20.7838 Y-35.1794
G01 X20.7442 Y-35.1358
G01 X18.6207 Y-33.0123
G01 X18.5844 Y-32.9794
G01 X18.5729 Y-32.9702
G01 X18.5333 Y-32.9412
G01 X18.4913 Y-32.9157
G01 X18.4741 Y-32.9065
G01 X18.4296 Y-32.8857
G01 X18.3835 Y-32.8690
G01 X18.3694 Y-32.8645
G01 X18.3170 Y-32.8516
G01 X18.2685 Y-32.8441
G01 X18.2490 Y-32.8422
G01 X18.2000 Y-32.8401
G01 X8.4651 Y-32.8401
G01 X8.4112 Y-32.8429
G01 X8.3626 Y-32.8499
G01 X8.3434 Y-32.8537
G01 X8.2958 Y-32.8659
G01 X8.2496 Y-32.8822
G01 X8.2314 Y-32.8897
G01 X8.1872 Y-32.9109
G01 X8.1408 Y-32.9385
G01 X8.1287 Y-32.9468
G01 X8.0894 Y-32.9762
G01 X8.0493 Y-33.0123
G01 X7.8044 Y-33.2572
G01 X7.7229 Y-33.2453
G01 X7.6298 Y-33.2405
G00 Z2.0000
G00 X7.6298 Y-35.7805
G01 F100.00
G01 Z-0.1017
G01 F240.00
G01 X7.6102 Y-35.7805
G01 X7.5269 Y-35.7846
G01 X7.5074 Y-35.7865
G01 X7.4152 Y-35.8004
G01 X7.3247 Y-35.8228
G01 X7.3060 Y-35.8285
G01 X7.2183 Y-35.8602
G01 X7.1252 Y-35.9042
G01 X7.0368 Y-35.9572
G01 X6.9618 Y-36.0125
G01 X6.9466 Y-36.0249
G01 X6.8777 Y-36.0877
G01 X6.8085 Y-36.1640
G01 X6.7472 Y-36.2468
G01 X6.6942 Y-36.3352
G01 X6.6502 Y-36.4283
G01 X6.6155 Y-36.5253
G01 X6.5904 Y-36.6252
G01 X6.5765 Y-36.7174
G01 X6.5746 Y-36.7369
G01 X6.5703 Y-36.8300
G01 X6.5753 Y-36.9329
G01 X6.5904 Y-37.0348
G01 X6.6155 Y-37.1347
G01 X6.6502 Y-37.2317
G01 X6.6942 Y-37.3248
G01 X6.7472 Y-37.4132
G01 X6.8085 Y-37.4960
G01 X6.8777 Y-37.5723
G01 X6.9540 Y-37.6415
G01 X7.0368 Y-37.7028
G01 X7.1252 Y-37.7558
G01 X7.2183 Y-37.7998
G01 X7.3153 Y-37.8345
G01 X7.4152 Y-37.8596
G01 X7.5122 Y-37.8742
G01 X7.5269 Y-37.8754
G01 X7.6200 Y-37.8797
G01 X7.7229 Y-37.8747
G01 X7.8248 Y-37.8596
G01 X7.9153 Y-37.8372
G01 X7.9340 Y-37.8315
G01 X8.0217 Y-37.7998
G01 X8.1061 Y-37.7602
G01 X8.1234 Y-37.7510
G01 X8.1949 Y-37.7081
G01 X8.2112 Y-37.6972
G01 X8.2860 Y-37.6415
G01 X8.3552 Y-37.5790
G01 X8.3657 Y-37.5688
G01 X8.4251 Y-37.5034
G01 X8.4375 Y-37.4882
G01 X8.4928 Y-37.4132
G01 X8.5410 Y-37.3334
G01 X8.5502 Y-37.3161
G01 X8.5898 Y-37.2317
G01 X8.6245 Y-37.1347
G01 X8.6496 Y-37.0348
G01 X8.6635 Y-36.9426
G01 X8.6654 Y-36.9231
G01 X8.6695 Y-36.8398
G01 X8.6695 Y-36.8202
G01 X8.6647 Y-36.7271
G01 X8.6529 Y-36.6462
G01 X9.4686 Y-35.8299
G01 X14.6400 Y-35.8299
G01 X14.6401 Y-36.0315
G01 X14.6135 Y-36.0512
G01 X14.6020 Y-36.0603
G01 X14.5402 Y-36.1163
G01 X14.5296 Y-36.1266
G01 X14.4672 Y-36.1958
G01 X14.4115 Y-36.2705
G01 X14.4035 Y-36.2829
G01 X14.3631 Y-36.3502
G01 X14.3539 Y-36.3675
G01 X14.3164 Y-36.4474
G01 X14.2848 Y-36.5351
G01 X14.2807 Y-36.5492
G01 X14.2595 Y-36.6350
G01 X14.2463 Y-36.7223
G01 X14.2443 Y-36.7418
G01 X14.2403 Y-36.8300
G01 X14.2443 Y-36.9182
G01 X14.2463 Y-36.9377
G01 X14.2595 Y-37.0250
G01 X14.2807 Y-37.1108
G01 X14.2864 Y-37.1295
G01 X14.3164 Y-37.2126
G01 X14.3583 Y-37.3013
G01 X14.4087 Y-37.3854
G01 X14.4612 Y-37.4565
G01 X14.4736 Y-37.4717
G01 X14.5331 Y-37.5369
G01 X14.5983 Y-37.5964
G01 X14.6135 Y-37.6088
G01 X14.6846 Y-37.6613
G01 X14.7687 Y-37.7117
G01 X14.8574 Y-37.7536
G01 X14.9405 Y-37.7836
G01 X14.9592 Y-37.7893
G01 X15.0354 Y-37.8084
G01 X15.0498 Y-37.8114
G01 X15.1420 Y-37.8249
G01 X15.2400 Y-37.8297
G01 X15.3380 Y-37.8249
G01 X15.4254 Y-37.8122
G01 X15.4446 Y-37.8084
G01 X15.5208 Y-37.7893
G01 X15.5395 Y-37.7836
G01 X15.6226 Y-37.7536
G01 X15.7025 Y-37.7161
G01 X15.7198 Y-37.7069
G01 X15.7954 Y-37.6613
G01 X15.8665 Y-37.6088
G01 X15.8817 Y-37.5964
G01 X15.9469 Y-37.5369
G01 X16.0128 Y-37.4642
G01 X16.0713 Y-37.3854
G01 X16.1217 Y-37.3013
G01 X16.1636 Y-37.2126
G01 X16.1967 Y-37.1202
G01 X16.2205 Y-37.0250
G01 X16.2344 Y-36.9329
G01 X16.2357 Y-36.9182
G01 X16.2397 Y-36.8300
G01 X16.2357 Y-36.7418
G01 X16.2337 Y-36.7223
G01 X16.2205 Y-36.6350
G01 X16.1993 Y-36.5492
G01 X16.1936 Y-36.5305
G01 X16.1672 Y-36.4566
G01 X16.1617 Y-36.4429
G01 X16.1261 Y-36.3675
G01 X16.1169 Y-36.3502
G01 X16.0713 Y-36.2746
G01 X16.0159 Y-36.1996
G01 X16.0064 Y-36.1883
G01 X15.9537 Y-36.1302
G01 X15.9434 Y-36.1196
G01 X15.8780 Y-36.0603
G01 X15.8665 Y-36.0512
G01 X15.8400 Y-36.0315
G01 X15.8399 Y-35.5600
G01 X15.8371 Y-35.5012
G01 X15.8284 Y-35.4430
G01 X15.8141 Y-35.3858
G01 X15.7943 Y-35.3304
G01 X15.7691 Y-35.2772
G01 X15.7441 Y-35.2350
G01 X15.7332 Y-35.2187
G01 X15.7038 Y-35.1794
G01 X15.6677 Y-35.1393
G01 X15.3342 Y-34.8058
G01 X15.2906 Y-34.7662
G01 X15.2433 Y-34.7312
G01 X15.2013 Y-34.7057
G01 X15.1841 Y-34.6965
G01 X15.1396 Y-34.6757
G01 X15.0935 Y-34.6590
G01 X15.0747 Y-34.6533
G01 X15.0270 Y-34.6416
G01 X14.9737 Y-34.6335
G01 X14.9590 Y-34.6322
G01 X14.9100 Y-34.6300
G01 X9.2200 Y-34.6300
G01 X9.1612 Y-34.6329
G01 X9.1126 Y-34.6399
G01 X9.0934 Y-34.6437
G01 X9.0458 Y-34.6559
G01 X8.9996 Y-34.6722
G01 X8.9814 Y-34.6797
G01 X8.9372 Y-34.7009
G01 X8.8908 Y-34.7285
G01 X8.8787 Y-34.7368
G01 X8.8471 Y-34.7602
G01 X8.8320 Y-34.7726
G01 X8.7958 Y-34.8058
G01 X7.8044 Y-35.7972
G01 X7.7229 Y-35.7853
G01 X7.6298 Y-35.7805
G00 Z2.0000
G00 X6.5703 Y-45.3000
G01 F100.00
G01 Z-0.1017
G01 F240.00
G01 X6.5705 Y-45.3098
G01 X6.5718 Y-45.3245
G01 X6.5741 Y-45.3390
G01 X6.5775 Y-45.3533
G01 X6.5819 Y-45.3673
G01 X6.5855 Y-45.3764
G01 X6.5894 Y-45.3854
G01 X6.5962 Y-45.3985
G01 X6.6039 Y-45.4110
G01 X6.6125 Y-45.4229
G01 X6.6220 Y-45.4341
G01 X6.6288 Y-45.4412
G01 X6.6395 Y-45.4513
G01 X6.6471 Y-45.4575
G01 X6.6590 Y-45.4661
G01 X6.6699 Y-45.4728
G01 X6.6699 Y-46.5460
G01 X6.6541 Y-46.5793
G01 X6.6483 Y-46.5928
G01 X6.6169 Y-46.6806
G01 X6.6128 Y-46.6947
G01 X6.5914 Y-46.7804
G01 X6.5887 Y-46.7949
G01 X6.5753 Y-46.8871
G01 X6.5703 Y-46.9900
G01 X6.5753 Y-47.0929
G01 X6.5887 Y-47.1851
G01 X6.5914 Y-47.1996
G01 X6.6128 Y-47.2853
G01 X6.6169 Y-47.2994
G01 X6.6483 Y-47.3872
G01 X6.6541 Y-47.4007
G01 X6.6699 Y-47.4340
G01 X6.6699 Y-49.0860
G01 X6.6541 Y-49.1193
G01 X6.6483 Y-49.1328
G01 X6.6169 Y-49.2206
G01 X6.6128 Y-49.2347
G01 X6.5914 Y-49.3204
G01 X6.5887 Y-49.3349
G01 X6.5753 Y-49.4271
G01 X6.5703 Y-49.5300
G01 X6.5753 Y-49.6329
G01 X6.5887 Y-49.7251
G01 X6.5914 Y-49.7396
G01 X6.6128 Y-49.8253
G01 X6.6169 Y-49.8394
G01 X6.6483 Y-49.9272
G01 X6.6541 Y-49.9407
G01 X6.6699 Y-49.9740
G01 X6.6699 Y-51.6260
G01 X6.6541 Y-51.6593
G01 X6.6483 Y-51.6728
G01 X6.6169 Y-51.7606
G01 X6.6128 Y-51.7747
G01 X6.5926 Y-51.8556
G01 X6.5895 Y-51.8700
G01 X6.5753 Y-51.9671
G01 X6.5705 Y-52.0602
G01 X6.5705 Y-52.0798
G01 X6.5746 Y-52.1631
G01 X6.5758 Y-52.1778
G01 X6.5904 Y-52.2748
G01 X6.6155 Y-52.3747
G01 X6.6502 Y-52.4717
G01 X6.6898 Y-52.5561
G01 X6.6990 Y-52.5734
G01 X6.7419 Y-52.6449
G01 X6.7528 Y-52.6612
G01 X6.8085 Y-52.7360
G01 X6.8710 Y-52.8052
G01 X6.8848 Y-52.8190
G01 X6.9540 Y-52.8815
G01 X7.0368 Y-52.9428
G01 X7.1252 Y-52.9958
G01 X7.2183 Y-53.0398
G01 X7.3153 Y-53.0745
G01 X7.4152 Y-53.0996
G01 X7.5171 Y-53.1147
G01 X7.6102 Y-53.1195
G01 X7.6298 Y-53.1195
G01 X7.7131 Y-53.1154
G01 X7.7326 Y-53.1135
G01 X7.8248 Y-53.0996
G01 X7.9153 Y-53.0772
G01 X7.9340 Y-53.0715
G01 X8.0217 Y-53.0398
G01 X8.1148 Y-52.9958
G01 X8.2032 Y-52.9428
G01 X8.2782 Y-52.8875
G01 X8.2934 Y-52.8751
G01 X8.3623 Y-52.8123
G01 X8.4315 Y-52.7360
G01 X8.4928 Y-52.6532
G01 X8.5458 Y-52.5648
G01 X8.5898 Y-52.4717
G01 X8.6245 Y-52.3747
G01 X8.6496 Y-52.2748
G01 X8.6647 Y-52.1729
G01 X8.6695 Y-52.0798
G01 X8.6695 Y-52.0602
G01 X8.6647 Y-51.9671
G01 X8.6505 Y-51.8700
G01 X8.6474 Y-51.8556
G01 X8.6272 Y-51.7747
G01 X8.6231 Y-51.7606
G01 X8.5917 Y-51.6728
G01 X8.5859 Y-51.6593
G01 X8.5701 Y-51.6260
G01 X8.5701 Y-49.9740
G01 X8.5859 Y-49.9407
G01 X8.5917 Y-49.9272
G01 X8.6231 Y-49.8394
G01 X8.6272 Y-49.8253
G01 X8.6486 Y-49.7396
G01 X8.6513 Y-49.7251
G01 X8.6647 Y-49.6329
G01 X8.6697 Y-49.5300
G01 X8.6647 Y-49.4271
G01 X8.6513 Y-49.3349
G01 X8.6486 Y-49.3204
G01 X8.6272 Y-49.2347
G01 X8.6231 Y-49.2206
G01 X8.5917 Y-49.1328
G01 X8.5859 Y-49.1193
G01 X8.5701 Y-49.0860
G01 X8.5701 Y-47.4340
G01 X8.5859 Y-47.4007
G01 X8.5917 Y-47.3872
G01 X8.6231 Y-47.2994
G01 X8.6272 Y-47.2853
G01 X8.6486 Y-47.1996
G01 X8.6513 Y-47.1851
G01 X8.6647 Y-47.0929
G01 X8.6697 Y-46.9900
G01 X8.6647 Y-46.8871
G01 X8.6513 Y-46.7949
G01 X8.6486 Y-46.7804
G01 X8.6272 Y-46.6947
G01 X8.6231 Y-46.6806
G01 X8.5917 Y-46.5928
G01 X8.5859 Y-46.5793
G01 X8.5701 Y-46.5460
G01 X8.5701 Y-45.4728
G01 X8.5810 Y-45.4661
G01 X8.5929 Y-45.4575
G01 X8.6005 Y-45.4513
G01 X8.6112 Y-45.4412
G01 X8.6213 Y-45.4305
G01 X8.6275 Y-45.4229
G01 X8.6361 Y-45.4110
G01 X8.6413 Y-45.4027
G01 X8.6484 Y-45.3898
G01 X8.6526 Y-45.3809
G01 X8.6581 Y-45.3673
G01 X8.6625 Y-45.3533
G01 X8.6649 Y-45.3438
G01 X8.6676 Y-45.3293
G01 X8.6692 Y-45.3147
G01 X8.6697 Y-45.3049
G01 X8.6697 Y-43.5951
G01 X8.6688 Y-43.5804
G01 X8.6668 Y-43.5659
G01 X8.6625 Y-43.5467
G01 X8.6581 Y-43.5327
G01 X8.6506 Y-43.5146
G01 X8.6438 Y-43.5015
G01 X8.6361 Y-43.4890
G01 X8.6271 Y-43.4766
G01 X9.0939 Y-43.0097
G01 X10.6098 Y-43.0095
G01 X10.6293 Y-43.0076
G01 X10.6485 Y-43.0038
G01 X10.6673 Y-42.9981
G01 X10.6854 Y-42.9906
G01 X10.7027 Y-42.9813
G01 X10.7110 Y-42.9761
G01 X10.7229 Y-42.9675
G01 X10.7377 Y-42.9547
G01 X10.7513 Y-42.9405
G01 X10.7633 Y-42.9250
G01 X10.7713 Y-42.9127
G01 X10.7806 Y-42.8954
G01 X10.7864 Y-42.8819
G01 X10.7911 Y-42.8680
G01 X10.7959 Y-42.8490
G01 X10.7982 Y-42.8345
G01 X10.7997 Y-42.8149
G01 X10.7997 Y-41.0100
G01 X10.7992 Y-40.9953
G01 X10.7982 Y-40.9855
G01 X10.7959 Y-40.9710
G01 X10.7927 Y-40.9573
G01 X11.1199 Y-40.6300
G01 X37.9600 Y-40.6300
G01 X37.9603 Y-42.4798
G01 X37.9630 Y-42.5337
G01 X37.9646 Y-42.5484
G01 X37.9735 Y-42.6066
G01 X37.9875 Y-42.6638
G01 X37.9932 Y-42.6825
G01 X38.0133 Y-42.7379
G01 X38.0404 Y-42.7956
G01 X38.0475 Y-42.8085
G01 X38.0727 Y-42.8506
G01 X38.0836 Y-42.8669
G01 X38.1189 Y-42.9141
G01 X38.1616 Y-42.9615
G01 X39.6403 Y-44.4402
G01 X39.6403 Y-45.6549
G01 X39.6412 Y-45.6696
G01 X39.6441 Y-45.6890
G01 X39.6475 Y-45.7033
G01 X39.6519 Y-45.7173
G01 X39.6574 Y-45.7309
G01 X39.6638 Y-45.7442
G01 X39.6712 Y-45.7569
G01 X39.6796 Y-45.7690
G01 X39.6887 Y-45.7805
G01 X39.6988 Y-45.7912
G01 X39.7133 Y-45.8044
G01 X39.7250 Y-45.8133
G01 X39.7415 Y-45.8238
G01 X39.7546 Y-45.8306
G01 X39.7681 Y-45.8364
G01 X39.7820 Y-45.8411
G01 X39.7962 Y-45.8449
G01 X39.8059 Y-45.8468
G01 X39.8155 Y-45.8482
G01 X39.8302 Y-45.8495
G01 X39.9522 Y-45.8497
G01 X39.9556 Y-45.8661
G01 X39.9675 Y-45.9138
G01 X39.9732 Y-45.9325
G01 X39.9933 Y-45.9879
G01 X40.0227 Y-46.0500
G01 X40.0527 Y-46.1006
G01 X40.0636 Y-46.1169
G01 X40.0989 Y-46.1641
G01 X40.1416 Y-46.2115
G01 X41.1035 Y-47.1734
G01 X41.1509 Y-47.2161
G01 X41.2061 Y-47.2570
G01 X41.2650 Y-47.2923
G01 X41.3271 Y-47.3217
G01 X41.3918 Y-47.3448
G01 X41.4584 Y-47.3615
G01 X41.5264 Y-47.3716
G01 X41.5950 Y-47.3750
G01 X53.6550 Y-47.3750
G01 X53.7138 Y-47.3723
G01 X53.7285 Y-47.3711
G01 X53.7916 Y-47.3615
G01 X53.8488 Y-47.3475
G01 X53.8675 Y-47.3418
G01 X53.9229 Y-47.3217
G01 X53.9850 Y-47.2923
G01 X54.0356 Y-47.2623
G01 X54.0480 Y-47.2542
G01 X54.0914 Y-47.2221
G01 X54.1065 Y-47.2097
G01 X54.1500 Y-47.1700
G01 X55.1084 Y-46.2115
G01 X55.1511 Y-46.1641
G01 X55.1920 Y-46.1089
G01 X55.2273 Y-46.0500
G01 X55.2567 Y-45.9879
G01 X55.2768 Y-45.9325
G01 X55.2825 Y-45.9138
G01 X55.2965 Y-45.8566
G01 X55.3061 Y-45.7935
G01 X55.3074 Y-45.7788
G01 X55.3099 Y-45.7249
G01 X55.3100 Y-45.5635
G01 X55.3237 Y-45.5498
G01 X55.3828 Y-45.4842
G01 X55.4356 Y-45.4134
G01 X55.4465 Y-45.3971
G01 X55.4869 Y-45.3298
G01 X55.4961 Y-45.3125
G01 X55.5336 Y-45.2326
G01 X55.5667 Y-45.1402
G01 X55.5905 Y-45.0450
G01 X55.6037 Y-44.9577
G01 X55.6057 Y-44.9382
G01 X55.6097 Y-44.8500
G01 X55.6097 Y-44.0500
G01 X55.6049 Y-43.9520
G01 X55.5922 Y-43.8646
G01 X55.5900 Y-43.8524
G01 X55.5900 Y-42.8697
G01 X55.6045 Y-42.8564
G01 X55.6114 Y-42.8495
G01 X55.6313 Y-42.8277
G01 X55.6407 Y-42.8165
G01 X55.6640 Y-42.7849
G01 X55.6843 Y-42.7513
G01 X55.6911 Y-42.7383
G01 X55.7036 Y-42.7116
G01 X55.7073 Y-42.7026
G01 X55.7173 Y-42.6749
G01 X55.7217 Y-42.6608
G01 X55.7290 Y-42.6323
G01 X55.7311 Y-42.6227
G01 X55.7332 Y-42.6100
G01 X57.1549 Y-42.6099
G01 X57.2186 Y-42.6066
G01 X57.2769 Y-42.5982
G01 X57.2961 Y-42.5944
G01 X57.3485 Y-42.5812
G01 X57.3625 Y-42.5768
G01 X57.4179 Y-42.5567
G01 X57.4800 Y-42.5273
G01 X57.5389 Y-42.4920
G01 X57.5863 Y-42.4571
G01 X57.6015 Y-42.4447
G01 X57.6450 Y-42.4050
G01 X57.9442 Y-42.1054
G01 X57.9836 Y-42.0616
G01 X58.0189 Y-42.0144
G01 X58.0298 Y-41.9981
G01 X58.0598 Y-41.9475
G01 X58.0892 Y-41.8854
G01 X58.1124 Y-41.8207
G01 X58.1290 Y-41.7541
G01 X58.1379 Y-41.6958
G01 X58.1399 Y-41.6763
G01 X58.1425 Y-41.6175
G01 X58.1425 Y-40.3658
G01 X58.1730 Y-40.3380
G01 X58.2027 Y-40.3053
G01 X58.2290 Y-40.2699
G01 X58.2516 Y-40.2320
G01 X58.2705 Y-40.1921
G01 X58.2854 Y-40.1506
G01 X58.2961 Y-40.1077
G01 X58.3014 Y-40.0738
G01 X58.3030 Y-40.0592
G01 X58.3047 Y-40.0200
G01 X58.3047 Y-38.7200
G01 X58.3033 Y-38.6857
G01 X58.3020 Y-38.6710
G01 X58.2961 Y-38.6323
G01 X58.2854 Y-38.5894
G01 X58.2705 Y-38.5479
G01 X58.2561 Y-38.5167
G01 X58.2493 Y-38.5037
G01 X58.2342 Y-38.4784
G01 X58.2233 Y-38.4621
G01 X58.2027 Y-38.4347
G01 X58.1730 Y-38.4020
G01 X58.1403 Y-38.3723
G01 X58.1129 Y-38.3517
G01 X58.0966 Y-38.3408
G01 X58.0713 Y-38.3257
G01 X58.0583 Y-38.3189
G01 X58.0271 Y-38.3045
G01 X57.9856 Y-38.2896
G01 X57.9427 Y-38.2789
G01 X57.9040 Y-38.2730
G01 X57.8893 Y-38.2717
G01 X57.8550 Y-38.2703
G01 X57.0300 Y-38.2703
G01 X56.9859 Y-38.2724
G01 X56.9471 Y-38.2780
G01 X56.9327 Y-38.2810
G01 X56.8994 Y-38.2896
G01 X56.8579 Y-38.3045
G01 X56.8180 Y-38.3234
G01 X56.7801 Y-38.3460
G01 X56.7447 Y-38.3723
G01 X56.7120 Y-38.4020
G01 X56.6823 Y-38.4347
G01 X56.6588 Y-38.4661
G01 X56.6508 Y-38.4784
G01 X56.6334 Y-38.5080
G01 X56.6185 Y-38.5389
G01 X56.6127 Y-38.5524
G01 X56.5996 Y-38.5894
G01 X56.5899 Y-38.6275
G01 X56.5872 Y-38.6419
G01 X56.5824 Y-38.6759
G01 X56.5805 Y-38.7102
G01 X56.5803 Y-40.0249
G01 X56.5817 Y-40.0543
G01 X56.5830 Y-40.0690
G01 X56.5880 Y-40.1029
G01 X56.5910 Y-40.1173
G01 X56.5996 Y-40.1506
G01 X56.6110 Y-40.1830
G01 X56.6164 Y-40.1966
G01 X56.6289 Y-40.2233
G01 X56.6357 Y-40.2363
G01 X56.6534 Y-40.2658
G01 X56.6617 Y-40.2779
G01 X56.6793 Y-40.3015
G01 X56.6887 Y-40.3127
G01 X56.7120 Y-40.3380
G01 X56.7425 Y-40.3658
G01 X56.7425 Y-41.2100
G01 X55.7332 Y-41.2100
G01 X55.7311 Y-41.1973
G01 X55.7290 Y-41.1877
G01 X55.7217 Y-41.1592
G01 X55.7189 Y-41.1498
G01 X55.7055 Y-41.1129
G01 X55.6866 Y-41.0730
G01 X55.6640 Y-41.0351
G01 X55.6437 Y-41.0074
G01 X55.6345 Y-40.9959
G01 X55.6148 Y-40.9741
G01 X55.6009 Y-40.9602
G01 X55.5753 Y-40.9373
G01 X55.5399 Y-40.9110
G01 X55.5020 Y-40.8884
G01 X55.4666 Y-40.8714
G01 X55.4530 Y-40.8660
G01 X55.4252 Y-40.8561
G01 X55.4158 Y-40.8533
G01 X55.3873 Y-40.8460
G01 X55.3681 Y-40.8422
G01 X55.3390 Y-40.8380
G01 X55.3292 Y-40.8370
G01 X55.2900 Y-40.8353
G01 X54.4900 Y-40.8353
G01 X54.4459 Y-40.8374
G01 X54.4071 Y-40.8430
G01 X54.3927 Y-40.8460
G01 X54.3594 Y-40.8546
G01 X54.3179 Y-40.8695
G01 X54.2780 Y-40.8884
G01 X54.2401 Y-40.9110
G01 X54.2047 Y-40.9373
G01 X54.1720 Y-40.9670
G01 X54.1423 Y-40.9997
G01 X54.1160 Y-41.0351
G01 X54.0957 Y-41.0687
G01 X54.0889 Y-41.0817
G01 X54.0745 Y-41.1129
G01 X54.0627 Y-41.1451
G01 X54.0583 Y-41.1592
G01 X54.0489 Y-41.1973
G01 X54.0430 Y-41.2360
G01 X54.0417 Y-41.2507
G01 X54.0403 Y-41.2850
G01 X54.0403 Y-42.5399
G01 X54.0424 Y-42.5791
G01 X54.0489 Y-42.6227
G01 X54.0596 Y-42.6656
G01 X54.0710 Y-42.6980
G01 X54.0764 Y-42.7116
G01 X54.0934 Y-42.7470
G01 X54.1108 Y-42.7766
G01 X54.1188 Y-42.7889
G01 X54.1363 Y-42.8126
G01 X54.1455 Y-42.8241
G01 X54.1720 Y-42.8530
G01 X54.1900 Y-42.8697
G01 X54.1900 Y-43.1438
G01 X54.1475 Y-43.1639
G01 X54.1344 Y-43.1707
G01 X54.0587 Y-43.2161
G01 X54.0466 Y-43.2244
G01 X53.9835 Y-43.2712
G01 X53.9720 Y-43.2803
G01 X53.9031 Y-43.3431
G01 X53.8436 Y-43.4083
G01 X53.8312 Y-43.4235
G01 X53.7815 Y-43.4905
G01 X53.7735 Y-43.5029
G01 X53.7331 Y-43.5702
G01 X53.7239 Y-43.5875
G01 X53.6864 Y-43.6674
G01 X53.6564 Y-43.7505
G01 X53.6507 Y-43.7692
G01 X53.6295 Y-43.8550
G01 X53.6163 Y-43.9423
G01 X53.6143 Y-43.9618
G01 X53.6103 Y-44.0500
G01 X53.6103 Y-44.8549
G01 X53.6151 Y-44.9480
G01 X53.6278 Y-45.0354
G01 X53.6316 Y-45.0546
G01 X53.6507 Y-45.1308
G01 X53.6564 Y-45.1495
G01 X53.6864 Y-45.2326
G01 X53.7239 Y-45.3125
G01 X53.7331 Y-45.3298
G01 X53.7787 Y-45.4054
G01 X53.8312 Y-45.4765
G01 X53.8372 Y-45.4842
G01 X53.8459 Y-45.4942
G01 X53.3651 Y-45.9750
G01 X41.8849 Y-45.9750
G01 X41.6278 Y-45.7179
G01 X41.6325 Y-45.7033
G01 X41.6368 Y-45.6841
G01 X41.6388 Y-45.6696
G01 X41.6397 Y-45.6500
G01 X41.6397 Y-43.2500
G01 X41.6395 Y-43.2402
G01 X41.6382 Y-43.2255
G01 X41.6349 Y-43.2062
G01 X41.6311 Y-43.1920
G01 X41.6281 Y-43.1827
G01 X41.6206 Y-43.1646
G01 X41.6138 Y-43.1515
G01 X41.6061 Y-43.1390
G01 X41.6004 Y-43.1310
G01 X41.5913 Y-43.1195
G01 X41.5812 Y-43.1088
G01 X41.5741 Y-43.1020
G01 X41.5629 Y-43.0925
G01 X41.5510 Y-43.0839
G01 X41.5385 Y-43.0762
G01 X41.5298 Y-43.0716
G01 X41.5164 Y-43.0655
G01 X41.5073 Y-43.0619
G01 X41.4933 Y-43.0575
G01 X41.4838 Y-43.0551
G01 X41.4693 Y-43.0524
G01 X41.4547 Y-43.0508
G01 X41.4400 Y-43.0503
G01 X40.2302 Y-43.0503
G01 X39.3600 Y-42.1801
G01 X39.3600 Y-40.6300
G01 X40.7899 Y-40.6300
G01 X40.8585 Y-40.6266
G01 X40.9168 Y-40.6182
G01 X40.9360 Y-40.6144
G01 X40.9931 Y-40.5999
G01 X41.0486 Y-40.5803
G01 X41.0623 Y-40.5748
G01 X41.1111 Y-40.5518
G01 X41.1284 Y-40.5425
G01 X41.1788 Y-40.5120
G01 X41.2301 Y-40.4742
G01 X41.2414 Y-40.4647
G01 X41.2849 Y-40.4250
G01 X41.6399 Y-40.0700
G01 X42.3991 Y-40.0700
G01 X42.4310 Y-40.1052
G01 X42.4412 Y-40.1157
G01 X42.5066 Y-40.1751
G01 X42.5179 Y-40.1845
G01 X42.5968 Y-40.2428
G01 X42.6766 Y-40.2910
G01 X42.6895 Y-40.2981
G01 X42.7783 Y-40.3398
G01 X42.8753 Y-40.3745
G01 X42.9752 Y-40.3996
G01 X43.0674 Y-40.4135
G01 X43.0820 Y-40.4151
G01 X43.1800 Y-40.4197
G01 X43.2731 Y-40.4154
G01 X43.2926 Y-40.4135
G01 X43.3751 Y-40.4013
G01 X43.3944 Y-40.3974
G01 X43.4847 Y-40.3745
G01 X43.5817 Y-40.3398
G01 X43.6748 Y-40.2958
G01 X43.7549 Y-40.2481
G01 X43.7712 Y-40.2372
G01 X43.8382 Y-40.1875
G01 X43.8534 Y-40.1751
G01 X43.9223 Y-40.1123
G01 X43.9915 Y-40.0360
G01 X44.0528 Y-39.9532
G01 X44.1010 Y-39.8734
G01 X44.1102 Y-39.8561
G01 X44.1459 Y-39.7807
G01 X44.1534 Y-39.7626
G01 X44.1845 Y-39.6747
G01 X44.2096 Y-39.5748
G01 X44.2247 Y-39.4729
G01 X44.2295 Y-39.3798
G01 X44.2295 Y-39.3602
G01 X44.2254 Y-39.2769
G01 X44.2235 Y-39.2574
G01 X44.2096 Y-39.1652
G01 X44.1845 Y-39.0653
G01 X44.1498 Y-38.9683
G01 X44.1102 Y-38.8839
G01 X44.1010 Y-38.8666
G01 X44.0528 Y-38.7868
G01 X43.9915 Y-38.7040
G01 X43.9290 Y-38.6348
G01 X43.9152 Y-38.6210
G01 X43.8534 Y-38.5649
G01 X43.8382 Y-38.5525
G01 X43.7632 Y-38.4972
G01 X43.6748 Y-38.4442
G01 X43.5817 Y-38.4002
G01 X43.4940 Y-38.3685
G01 X43.4753 Y-38.3628
G01 X43.3944 Y-38.3426
G01 X43.3751 Y-38.3387
G01 X43.2829 Y-38.3253
G01 X43.1849 Y-38.3203
G01 X43.1702 Y-38.3205
G01 X43.0771 Y-38.3253
G01 X42.9752 Y-38.3404
G01 X42.8753 Y-38.3655
G01 X42.7874 Y-38.3966
G01 X42.7738 Y-38.4021
G01 X42.6852 Y-38.4442
G01 X42.6051 Y-38.4919
G01 X42.5927 Y-38.4999
G01 X42.5218 Y-38.5525
G01 X42.5103 Y-38.5617
G01 X42.4412 Y-38.6243
G01 X42.4310 Y-38.6348
G01 X42.3991 Y-38.6700
G01 X41.3450 Y-38.6701
G01 X41.2813 Y-38.6734
G01 X41.2230 Y-38.6818
G01 X41.2038 Y-38.6856
G01 X41.1562 Y-38.6975
G01 X41.1420 Y-38.7016
G01 X41.0820 Y-38.7233
G01 X41.0199 Y-38.7527
G01 X40.9610 Y-38.7880
G01 X40.9058 Y-38.8289
G01 X40.8549 Y-38.8750
G01 X40.5000 Y-39.2300
G01 X10.8300 Y-39.2300
G01 X10.7614 Y-39.2334
G01 X10.6934 Y-39.2435
G01 X10.6362 Y-39.2575
G01 X10.6175 Y-39.2632
G01 X10.5621 Y-39.2833
G01 X10.5088 Y-39.3083
G01 X10.4915 Y-39.3175
G01 X10.4411 Y-39.3480
G01 X10.3936 Y-39.3829
G01 X10.3785 Y-39.3953
G01 X10.3350 Y-39.4350
G01 X8.9598 Y-40.8103
G01 X7.0902 Y-40.8105
G01 X7.0804 Y-40.8112
G01 X7.0659 Y-40.8132
G01 X7.0515 Y-40.8162
G01 X7.0420 Y-40.8189
G01 X7.0281 Y-40.8236
G01 X7.0191 Y-40.8274
G01 X7.0015 Y-40.8362
G01 X6.9850 Y-40.8467
G01 X6.9733 Y-40.8556
G01 X6.9659 Y-40.8620
G01 X6.9588 Y-40.8688
G01 X6.9487 Y-40.8795
G01 X6.9425 Y-40.8871
G01 X6.9339 Y-40.8990
G01 X6.9262 Y-40.9115
G01 X6.9194 Y-40.9246
G01 X6.9136 Y-40.9381
G01 X6.9089 Y-40.9520
G01 X6.9051 Y-40.9662
G01 X6.9032 Y-40.9759
G01 X6.9012 Y-40.9904
G01 X6.9003 Y-41.0051
G01 X6.9003 Y-42.5207
G01 X6.8887 Y-42.5335
G01 X6.8825 Y-42.5411
G01 X6.8328 Y-42.6081
G01 X6.8248 Y-42.6204
G01 X6.7844 Y-42.6878
G01 X6.7777 Y-42.7009
G01 X6.7422 Y-42.7764
G01 X6.7108 Y-42.8642
G01 X6.6881 Y-42.9546
G01 X6.6757 Y-43.0371
G01 X6.6740 Y-43.0518
G01 X6.6699 Y-43.1400
G01 X6.6699 Y-43.4272
G01 X6.6590 Y-43.4339
G01 X6.6510 Y-43.4396
G01 X6.6395 Y-43.4487
G01 X6.6323 Y-43.4553
G01 X6.6253 Y-43.4623
G01 X6.6156 Y-43.4733
G01 X6.6096 Y-43.4810
G01 X6.6012 Y-43.4931
G01 X6.5962 Y-43.5015
G01 X6.5894 Y-43.5146
G01 X6.5836 Y-43.5281
G01 X6.5803 Y-43.5373
G01 X6.5762 Y-43.5515
G01 X6.5741 Y-43.5610
G01 X6.5724 Y-43.5707
G01 X6.5708 Y-43.5853
G01 X6.5703 Y-43.6000
G01 X6.5703 Y-45.3000
G00 Z2.0000
G00 X14.8200 Y-45.3562
G01 F100.00
G01 Z-0.1017
G01 F240.00
G01 X14.8200 Y-46.0303
G01 X14.8055 Y-46.0436
G01 X14.7986 Y-46.0505
G01 X14.7787 Y-46.0723
G01 X14.7693 Y-46.0835
G01 X14.7460 Y-46.1151
G01 X14.7282 Y-46.1445
G01 X14.7211 Y-46.1573
G01 X14.7045 Y-46.1929
G01 X14.6896 Y-46.2344
G01 X14.6789 Y-46.2773
G01 X14.6736 Y-46.3112
G01 X14.6720 Y-46.3258
G01 X14.6703 Y-46.3650
G01 X14.6703 Y-47.6150
G01 X14.6724 Y-47.6591
G01 X14.6789 Y-47.7027
G01 X14.6896 Y-47.7456
G01 X14.7010 Y-47.7780
G01 X14.7064 Y-47.7916
G01 X14.7234 Y-47.8270
G01 X14.7408 Y-47.8566
G01 X14.7488 Y-47.8689
G01 X14.7663 Y-47.8926
G01 X14.7755 Y-47.9041
G01 X14.8020 Y-47.9330
G01 X14.8200 Y-47.9497
G01 X14.8200 Y-48.4003
G01 X14.6150 Y-48.4003
G01 X14.5709 Y-48.4024
G01 X14.5273 Y-48.4089
G01 X14.4939 Y-48.4170
G01 X14.4751 Y-48.4227
G01 X14.4474 Y-48.4327
G01 X14.4384 Y-48.4364
G01 X14.4030 Y-48.4534
G01 X14.3651 Y-48.4760
G01 X14.3297 Y-48.5023
G01 X14.2970 Y-48.5320
G01 X14.2673 Y-48.5647
G01 X14.2410 Y-48.6001
G01 X14.2184 Y-48.6380
G01 X14.2014 Y-48.6734
G01 X14.1960 Y-48.6870
G01 X14.1846 Y-48.7194
G01 X14.1739 Y-48.7623
G01 X14.1674 Y-48.8059
G01 X14.1653 Y-48.8451
G01 X14.1653 Y-49.7750
G01 X14.1674 Y-49.8191
G01 X14.1722 Y-49.8531
G01 X14.1749 Y-49.8675
G01 X14.1846 Y-49.9056
G01 X14.1960 Y-49.9380
G01 X14.2014 Y-49.9516
G01 X14.2184 Y-49.9870
G01 X14.2384 Y-50.0208
G01 X14.2467 Y-50.0329
G01 X14.2673 Y-50.0603
G01 X14.2970 Y-50.0930
G01 X14.3297 Y-50.1227
G01 X14.3571 Y-50.1433
G01 X14.3692 Y-50.1516
G01 X14.4030 Y-50.1716
G01 X14.4429 Y-50.1905
G01 X14.4751 Y-50.2023
G01 X14.4892 Y-50.2067
G01 X14.5273 Y-50.2161
G01 X14.5709 Y-50.2226
G01 X14.6150 Y-50.2247
G01 X15.8650 Y-50.2247
G01 X15.9091 Y-50.2226
G01 X15.9431 Y-50.2178
G01 X15.9575 Y-50.2151
G01 X15.9956 Y-50.2054
G01 X16.0326 Y-50.1923
G01 X16.0416 Y-50.1886
G01 X16.0683 Y-50.1761
G01 X16.0855 Y-50.1668
G01 X16.1149 Y-50.1490
G01 X16.1503 Y-50.1227
G01 X16.1830 Y-50.0930
G01 X16.2063 Y-50.0677
G01 X16.2157 Y-50.0565
G01 X16.2333 Y-50.0329
G01 X16.2442 Y-50.0166
G01 X16.2616 Y-49.9870
G01 X16.2805 Y-49.9471
G01 X16.2954 Y-49.9056
G01 X16.3040 Y-49.8723
G01 X16.3070 Y-49.8579
G01 X16.3126 Y-49.8191
G01 X16.3147 Y-49.7750
G01 X16.3147 Y-48.8500
G01 X16.3133 Y-48.8157
G01 X16.3114 Y-48.7962
G01 X16.3070 Y-48.7671
G01 X16.3051 Y-48.7575
G01 X16.2954 Y-48.7194
G01 X16.2823 Y-48.6824
G01 X16.2765 Y-48.6689
G01 X16.2639 Y-48.6423
G01 X16.2593 Y-48.6337
G01 X16.2390 Y-48.6001
G01 X16.2200 Y-48.5742
G01 X16.2200 Y-47.9497
G01 X16.2345 Y-47.9364
G01 X16.2414 Y-47.9295
G01 X16.2613 Y-47.9077
G01 X16.2707 Y-47.8965
G01 X16.2940 Y-47.8649
G01 X16.3118 Y-47.8355
G01 X16.3189 Y-47.8227
G01 X16.3355 Y-47.7871
G01 X16.3504 Y-47.7456
G01 X16.3611 Y-47.7027
G01 X16.3676 Y-47.6591
G01 X16.3697 Y-47.6150
G01 X16.3697 Y-46.3650
G01 X16.3683 Y-46.3307
G01 X16.3670 Y-46.3160
G01 X16.3620 Y-46.2821
G01 X16.3590 Y-46.2677
G01 X16.3517 Y-46.2392
G01 X16.3473 Y-46.2251
G01 X16.3355 Y-46.1929
G01 X16.3189 Y-46.1573
G01 X16.3118 Y-46.1445
G01 X16.2940 Y-46.1151
G01 X16.2707 Y-46.0835
G01 X16.2613 Y-46.0723
G01 X16.2414 Y-46.0505
G01 X16.2345 Y-46.0436
G01 X16.2200 Y-46.0303
G01 X16.2200 Y-44.7300
G01 X16.2166 Y-44.6616
G01 X16.2214 Y-44.6402
G01 X16.2349 Y-44.5480
G01 X16.2397 Y-44.4500
G01 X16.2357 Y-44.3618
G01 X16.2337 Y-44.3423
G01 X16.2205 Y-44.2550
G01 X16.1981 Y-44.1645
G01 X16.1936 Y-44.1505
G01 X16.1636 Y-44.0674
G01 X16.1217 Y-43.9787
G01 X16.0713 Y-43.8946
G01 X16.0188 Y-43.8235
G01 X16.0064 Y-43.8083
G01 X15.9469 Y-43.7431
G01 X15.8817 Y-43.6836
G01 X15.8665 Y-43.6712
G01 X15.8034 Y-43.6244
G01 X15.7871 Y-43.6135
G01 X15.7113 Y-43.5683
G01 X15.6271 Y-43.5283
G01 X15.6134 Y-43.5228
G01 X15.5302 Y-43.4933
G01 X15.4350 Y-43.4695
G01 X15.3380 Y-43.4551
G01 X15.2400 Y-43.4503
G01 X15.1420 Y-43.4551
G01 X15.0450 Y-43.4695
G01 X14.9498 Y-43.4933
G01 X14.8574 Y-43.5264
G01 X14.7687 Y-43.5683
G01 X14.6846 Y-43.6187
G01 X14.6058 Y-43.6772
G01 X14.5331 Y-43.7431
G01 X14.4672 Y-43.8158
G01 X14.4087 Y-43.8946
G01 X14.3583 Y-43.9787
G01 X14.3183 Y-44.0629
G01 X14.3128 Y-44.0766
G01 X14.2833 Y-44.1598
G01 X14.2595 Y-44.2550
G01 X14.2451 Y-44.3520
G01 X14.2403 Y-44.4500
G01 X14.2451 Y-44.5480
G01 X14.2595 Y-44.6450
G01 X14.2833 Y-44.7402
G01 X14.3145 Y-44.8280
G01 X14.3203 Y-44.8416
G01 X14.3583 Y-44.9213
G01 X14.4087 Y-45.0054
G01 X14.4672 Y-45.0842
G01 X14.5296 Y-45.1534
G01 X14.5402 Y-45.1637
G01 X14.6058 Y-45.2228
G01 X14.6805 Y-45.2785
G01 X14.6929 Y-45.2865
G01 X14.7644 Y-45.3293
G01 X14.7775 Y-45.3361
G01 X14.8200 Y-45.3562
G00 Z2.0000
G00 X19.9000 Y-45.3562
G01 F100.00
G01 Z-0.1017
G01 F240.00
G01 X19.9000 Y-46.0303
G01 X19.8855 Y-46.0436
G01 X19.8786 Y-46.0505
G01 X19.8587 Y-46.0723
G01 X19.8493 Y-46.0835
G01 X19.8260 Y-46.1151
G01 X19.8082 Y-46.1445
G01 X19.8011 Y-46.1573
G01 X19.7845 Y-46.1929
G01 X19.7696 Y-46.2344
G01 X19.7589 Y-46.2773
G01 X19.7536 Y-46.3112
G01 X19.7520 Y-46.3258
G01 X19.7503 Y-46.3650
G01 X19.7503 Y-47.6150
G01 X19.7524 Y-47.6591
G01 X19.7589 Y-47.7027
G01 X19.7696 Y-47.7456
G01 X19.7810 Y-47.7780
G01 X19.7864 Y-47.7916
G01 X19.8034 Y-47.8270
G01 X19.8208 Y-47.8566
G01 X19.8288 Y-47.8689
G01 X19.8463 Y-47.8926
G01 X19.8555 Y-47.9041
G01 X19.8820 Y-47.9330
G01 X19.9000 Y-47.9497
G01 X19.9000 Y-48.4003
G01 X19.6950 Y-48.4003
G01 X19.6509 Y-48.4024
G01 X19.6073 Y-48.4089
G01 X19.5739 Y-48.4170
G01 X19.5551 Y-48.4227
G01 X19.5274 Y-48.4327
G01 X19.5184 Y-48.4364
G01 X19.4830 Y-48.4534
G01 X19.4451 Y-48.4760
G01 X19.4097 Y-48.5023
G01 X19.3770 Y-48.5320
G01 X19.3473 Y-48.5647
G01 X19.3210 Y-48.6001
G01 X19.2984 Y-48.6380
G01 X19.2814 Y-48.6734
G01 X19.2760 Y-48.6870
G01 X19.2646 Y-48.7194
G01 X19.2539 Y-48.7623
G01 X19.2474 Y-48.8059
G01 X19.2453 Y-48.8451
G01 X19.2453 Y-49.7750
G01 X19.2474 Y-49.8191
G01 X19.2522 Y-49.8531
G01 X19.2549 Y-49.8675
G01 X19.2646 Y-49.9056
G01 X19.2760 Y-49.9380
G01 X19.2814 Y-49.9516
G01 X19.2984 Y-49.9870
G01 X19.3184 Y-50.0208
G01 X19.3267 Y-50.0329
G01 X19.3473 Y-50.0603
G01 X19.3770 Y-50.0930
G01 X19.4097 Y-50.1227
G01 X19.4371 Y-50.1433
G01 X19.4492 Y-50.1516
G01 X19.4830 Y-50.1716
G01 X19.5229 Y-50.1905
G01 X19.5551 Y-50.2023
G01 X19.5692 Y-50.2067
G01 X19.6073 Y-50.2161
G01 X19.6509 Y-50.2226
G01 X19.6950 Y-50.2247
G01 X20.9450 Y-50.2247
G01 X20.9891 Y-50.2226
G01 X21.0231 Y-50.2178
G01 X21.0375 Y-50.2151
G01 X21.0756 Y-50.2054
G01 X21.1126 Y-50.1923
G01 X21.1216 Y-50.1886
G01 X21.1483 Y-50.1761
G01 X21.1655 Y-50.1668
G01 X21.1949 Y-50.1490
G01 X21.2303 Y-50.1227
G01 X21.2630 Y-50.0930
G01 X21.2863 Y-50.0677
G01 X21.2957 Y-50.0565
G01 X21.3133 Y-50.0329
G01 X21.3242 Y-50.0166
G01 X21.3416 Y-49.9870
G01 X21.3605 Y-49.9471
G01 X21.3754 Y-49.9056
G01 X21.3840 Y-49.8723
G01 X21.3870 Y-49.8579
G01 X21.3926 Y-49.8191
G01 X21.3947 Y-49.7750
G01 X21.3947 Y-48.8500
G01 X21.3933 Y-48.8157
G01 X21.3914 Y-48.7962
G01 X21.3870 Y-48.7671
G01 X21.3851 Y-48.7575
G01 X21.3754 Y-48.7194
G01 X21.3623 Y-48.6824
G01 X21.3565 Y-48.6689
G01 X21.3439 Y-48.6423
G01 X21.3393 Y-48.6337
G01 X21.3190 Y-48.6001
G01 X21.3000 Y-48.5742
G01 X21.3000 Y-47.9497
G01 X21.3145 Y-47.9364
G01 X21.3214 Y-47.9295
G01 X21.3413 Y-47.9077
G01 X21.3507 Y-47.8965
G01 X21.3740 Y-47.8649
G01 X21.3918 Y-47.8355
G01 X21.3989 Y-47.8227
G01 X21.4155 Y-47.7871
G01 X21.4304 Y-47.7456
G01 X21.4411 Y-47.7027
G01 X21.4476 Y-47.6591
G01 X21.4497 Y-47.6150
G01 X21.4497 Y-46.3650
G01 X21.4485 Y-46.3327
G01 X21.4474 Y-46.3189
G01 X21.4421 Y-46.2824
G01 X21.4326 Y-46.2419
G01 X21.4194 Y-46.2025
G01 X21.4026 Y-46.1645
G01 X21.3824 Y-46.1282
G01 X21.3589 Y-46.0940
G01 X21.3324 Y-46.0620
G01 X21.3097 Y-46.0390
G01 X21.3000 Y-46.0300
G01 X21.3000 Y-44.7300
G01 X21.2966 Y-44.6616
G01 X21.3014 Y-44.6402
G01 X21.3149 Y-44.5480
G01 X21.3197 Y-44.4500
G01 X21.3157 Y-44.3618
G01 X21.3137 Y-44.3423
G01 X21.3005 Y-44.2550
G01 X21.2781 Y-44.1645
G01 X21.2736 Y-44.1505
G01 X21.2436 Y-44.0674
G01 X21.2017 Y-43.9787
G01 X21.1513 Y-43.8946
G01 X21.0988 Y-43.8235
G01 X21.0864 Y-43.8083
G01 X21.0269 Y-43.7431
G01 X20.9617 Y-43.6836
G01 X20.9465 Y-43.6712
G01 X20.8834 Y-43.6244
G01 X20.8671 Y-43.6135
G01 X20.7913 Y-43.5683
G01 X20.7071 Y-43.5283
G01 X20.6934 Y-43.5228
G01 X20.6102 Y-43.4933
G01 X20.5150 Y-43.4695
G01 X20.4180 Y-43.4551
G01 X20.3200 Y-43.4503
G01 X20.2220 Y-43.4551
G01 X20.1250 Y-43.4695
G01 X20.0298 Y-43.4933
G01 X19.9374 Y-43.5264
G01 X19.8487 Y-43.5683
G01 X19.7646 Y-43.6187
G01 X19.6858 Y-43.6772
G01 X19.6131 Y-43.7431
G01 X19.5472 Y-43.8158
G01 X19.4887 Y-43.8946
G01 X19.4383 Y-43.9787
G01 X19.3983 Y-44.0629
G01 X19.3928 Y-44.0766
G01 X19.3633 Y-44.1598
G01 X19.3395 Y-44.2550
G01 X19.3251 Y-44.3520
G01 X19.3203 Y-44.4500
G01 X19.3251 Y-44.5480
G01 X19.3395 Y-44.6450
G01 X19.3633 Y-44.7402
G01 X19.3945 Y-44.8280
G01 X19.4003 Y-44.8416
G01 X19.4383 Y-44.9213
G01 X19.4887 Y-45.0054
G01 X19.5472 Y-45.0842
G01 X19.6096 Y-45.1534
G01 X19.6202 Y-45.1637
G01 X19.6858 Y-45.2228
G01 X19.7605 Y-45.2785
G01 X19.7729 Y-45.2865
G01 X19.8444 Y-45.3293
G01 X19.8575 Y-45.3361
G01 X19.9000 Y-45.3562
G00 Z2.0000
G00 X21.8800 Y-46.0303
G01 F100.00
G01 Z-0.1017
G01 F240.00
G01 X21.8655 Y-46.0436
G01 X21.8586 Y-46.0505
G01 X21.8387 Y-46.0723
G01 X21.8293 Y-46.0835
G01 X21.8060 Y-46.1151
G01 X21.7882 Y-46.1445
G01 X21.7811 Y-46.1573
G01 X21.7645 Y-46.1929
G01 X21.7496 Y-46.2344
G01 X21.7389 Y-46.2773
G01 X21.7324 Y-46.3209
G01 X21.7303 Y-46.3650
G01 X21.7303 Y-47.6150
G01 X21.7320 Y-47.6542
G01 X21.7336 Y-47.6688
G01 X21.7389 Y-47.7027
G01 X21.7496 Y-47.7456
G01 X21.7645 Y-47.7871
G01 X21.7811 Y-47.8227
G01 X21.7882 Y-47.8355
G01 X21.8034 Y-47.8608
G01 X21.8088 Y-47.8689
G01 X21.8263 Y-47.8926
G01 X21.8355 Y-47.9041
G01 X21.8552 Y-47.9259
G01 X21.8691 Y-47.9398
G01 X21.8947 Y-47.9627
G01 X21.9301 Y-47.9890
G01 X21.9680 Y-48.0116
G01 X22.0079 Y-48.0305
G01 X22.0494 Y-48.0454
G01 X22.0875 Y-48.0551
G01 X22.1019 Y-48.0578
G01 X22.1310 Y-48.0620
G01 X22.1408 Y-48.0630
G01 X22.1600 Y-48.0640
G01 X22.1600 Y-52.6994
G01 X22.1322 Y-52.7301
G01 X22.1228 Y-52.7413
G01 X22.0731 Y-52.8083
G01 X22.0651 Y-52.8206
G01 X22.0248 Y-52.8880
G01 X22.0180 Y-52.9010
G01 X21.9825 Y-52.9765
G01 X21.9526 Y-53.0596
G01 X21.9485 Y-53.0738
G01 X21.9285 Y-53.1547
G01 X21.9148 Y-53.2469
G01 X21.9103 Y-53.3400
G01 X21.9141 Y-53.4233
G01 X21.9154 Y-53.4380
G01 X21.9285 Y-53.5253
G01 X21.9511 Y-53.6157
G01 X21.9825 Y-53.7035
G01 X22.0224 Y-53.7877
G01 X22.0703 Y-53.8677
G01 X22.1258 Y-53.9425
G01 X22.1884 Y-54.0116
G01 X22.2575 Y-54.0742
G01 X22.3323 Y-54.1297
G01 X22.4123 Y-54.1776
G01 X22.4965 Y-54.2175
G01 X22.5843 Y-54.2489
G01 X22.6747 Y-54.2715
G01 X22.7669 Y-54.2852
G01 X22.8600 Y-54.2897
G01 X22.9433 Y-54.2859
G01 X22.9580 Y-54.2846
G01 X23.0453 Y-54.2715
G01 X23.1357 Y-54.2489
G01 X23.2235 Y-54.2175
G01 X23.2990 Y-54.1820
G01 X23.3162 Y-54.1728
G01 X23.3794 Y-54.1349
G01 X23.3957 Y-54.1240
G01 X23.4625 Y-54.0742
G01 X23.5245 Y-54.0183
G01 X23.5383 Y-54.0045
G01 X23.5942 Y-53.9425
G01 X23.6497 Y-53.8677
G01 X23.6976 Y-53.7877
G01 X23.7375 Y-53.7035
G01 X23.7689 Y-53.6157
G01 X23.7915 Y-53.5253
G01 X23.8052 Y-53.4331
G01 X23.8095 Y-53.3498
G01 X23.8095 Y-53.3302
G01 X23.8052 Y-53.2469
G01 X23.7915 Y-53.1547
G01 X23.7689 Y-53.0643
G01 X23.7393 Y-52.9811
G01 X23.7335 Y-52.9676
G01 X23.6976 Y-52.8923
G01 X23.6524 Y-52.8165
G01 X23.6440 Y-52.8043
G01 X23.5972 Y-52.7413
G01 X23.5878 Y-52.7301
G01 X23.5600 Y-52.6994
G01 X23.5598 Y-47.2602
G01 X23.5566 Y-47.2014
G01 X23.5482 Y-47.1431
G01 X23.5444 Y-47.1239
G01 X23.5325 Y-47.0762
G01 X23.5284 Y-47.0621
G01 X23.5067 Y-47.0021
G01 X23.4796 Y-46.9444
G01 X23.4725 Y-46.9315
G01 X23.4447 Y-46.8852
G01 X23.4393 Y-46.8771
G01 X23.4297 Y-46.8641
G01 X23.4297 Y-46.3604
G01 X23.4285 Y-46.3327
G01 X23.4274 Y-46.3189
G01 X23.4229 Y-46.2869
G01 X23.4202 Y-46.2733
G01 X23.4126 Y-46.2419
G01 X23.3994 Y-46.2025
G01 X23.3826 Y-46.1645
G01 X23.3648 Y-46.1322
G01 X23.3599 Y-46.1243
G01 X23.3443 Y-46.1015
G01 X23.3332 Y-46.0867
G01 X23.3154 Y-46.0655
G01 X23.3092 Y-46.0586
G01 X23.2897 Y-46.0390
G01 X23.2800 Y-46.0300
G01 X23.2800 Y-45.3562
G01 X23.3225 Y-45.3361
G01 X23.3356 Y-45.3293
G01 X23.4113 Y-45.2839
G01 X23.4234 Y-45.2756
G01 X23.4865 Y-45.2288
G01 X23.4980 Y-45.2197
G01 X23.5669 Y-45.1569
G01 X23.6264 Y-45.0917
G01 X23.6388 Y-45.0765
G01 X23.6856 Y-45.0134
G01 X23.6939 Y-45.0013
G01 X23.7417 Y-44.9213
G01 X23.7797 Y-44.8416
G01 X23.7872 Y-44.8234
G01 X23.8167 Y-44.7402
G01 X23.8405 Y-44.6450
G01 X23.8537 Y-44.5577
G01 X23.8557 Y-44.5382
G01 X23.8595 Y-44.4598
G01 X23.8595 Y-44.4402
G01 X23.8549 Y-44.3520
G01 X23.8422 Y-44.2646
G01 X23.8384 Y-44.2454
G01 X23.8193 Y-44.1692
G01 X23.8136 Y-44.1505
G01 X23.7836 Y-44.0674
G01 X23.7417 Y-43.9787
G01 X23.6965 Y-43.9029
G01 X23.6856 Y-43.8866
G01 X23.6328 Y-43.8158
G01 X23.5737 Y-43.7502
G01 X23.5598 Y-43.7363
G01 X23.4942 Y-43.6772
G01 X23.4234 Y-43.6244
G01 X23.4113 Y-43.6161
G01 X23.3313 Y-43.5683
G01 X23.2426 Y-43.5264
G01 X23.1502 Y-43.4933
G01 X23.0550 Y-43.4695
G01 X22.9580 Y-43.4551
G01 X22.8600 Y-43.4503
G01 X22.7620 Y-43.4551
G01 X22.6650 Y-43.4695
G01 X22.5698 Y-43.4933
G01 X22.4774 Y-43.5264
G01 X22.3887 Y-43.5683
G01 X22.3046 Y-43.6187
G01 X22.2258 Y-43.6772
G01 X22.1531 Y-43.7431
G01 X22.0872 Y-43.8158
G01 X22.0344 Y-43.8866
G01 X22.0261 Y-43.8987
G01 X21.9831 Y-43.9702
G01 X21.9739 Y-43.9875
G01 X21.9364 Y-44.0674
G01 X21.9064 Y-44.1505
G01 X21.9007 Y-44.1692
G01 X21.8795 Y-44.2550
G01 X21.8663 Y-44.3423
G01 X21.8646 Y-44.3569
G01 X21.8603 Y-44.4500
G01 X21.8643 Y-44.5382
G01 X21.8663 Y-44.5577
G01 X21.8778 Y-44.6354
G01 X21.8805 Y-44.6498
G01 X21.8834 Y-44.6616
G01 X21.8800 Y-44.7300
G01 X21.8800 Y-46.0303
G00 Z2.0000
G00 X24.8575 Y-47.7688
G01 F100.00
G01 Z-0.1017
G01 F240.00
G01 X24.8623 Y-47.7818
G01 X24.8774 Y-47.8155
G01 X24.8952 Y-47.8478
G01 X24.9027 Y-47.8595
G01 X24.9211 Y-47.8860
G01 X24.9446 Y-47.9145
G01 X24.9540 Y-47.9247
G01 X24.9736 Y-47.9442
G01 X24.9800 Y-47.9500
G01 X24.9800 Y-48.4003
G01 X24.7750 Y-48.4003
G01 X24.7407 Y-48.4017
G01 X24.7260 Y-48.4030
G01 X24.6873 Y-48.4089
G01 X24.6444 Y-48.4196
G01 X24.6029 Y-48.4345
G01 X24.5717 Y-48.4489
G01 X24.5587 Y-48.4557
G01 X24.5334 Y-48.4708
G01 X24.5211 Y-48.4788
G01 X24.4935 Y-48.4993
G01 X24.4823 Y-48.5087
G01 X24.4605 Y-48.5286
G01 X24.4502 Y-48.5391
G01 X24.4273 Y-48.5647
G01 X24.4067 Y-48.5921
G01 X24.3984 Y-48.6042
G01 X24.3807 Y-48.6337
G01 X24.3739 Y-48.6467
G01 X24.3614 Y-48.6734
G01 X24.3560 Y-48.6870
G01 X24.3446 Y-48.7194
G01 X24.3349 Y-48.7575
G01 X24.3322 Y-48.7719
G01 X24.3274 Y-48.8059
G01 X24.3253 Y-48.8500
G01 X24.3255 Y-49.7848
G01 X24.3274 Y-49.8191
G01 X24.3322 Y-49.8531
G01 X24.3349 Y-49.8675
G01 X24.3433 Y-49.9008
G01 X24.3477 Y-49.9149
G01 X24.3595 Y-49.9471
G01 X24.3739 Y-49.9783
G01 X24.3807 Y-49.9913
G01 X24.3984 Y-50.0208
G01 X24.4067 Y-50.0329
G01 X24.4273 Y-50.0603
G01 X24.4502 Y-50.0859
G01 X24.4605 Y-50.0964
G01 X24.4897 Y-50.1227
G01 X24.5251 Y-50.1490
G01 X24.5630 Y-50.1716
G01 X24.5984 Y-50.1886
G01 X24.6120 Y-50.1940
G01 X24.6444 Y-50.2054
G01 X24.6777 Y-50.2140
G01 X24.6921 Y-50.2170
G01 X24.7309 Y-50.2226
G01 X24.7750 Y-50.2247
G01 X26.0299 Y-50.2247
G01 X26.0642 Y-50.2230
G01 X26.0788 Y-50.2214
G01 X26.1127 Y-50.2161
G01 X26.1461 Y-50.2080
G01 X26.1602 Y-50.2039
G01 X26.1971 Y-50.1905
G01 X26.2283 Y-50.1761
G01 X26.2413 Y-50.1693
G01 X26.2749 Y-50.1490
G01 X26.3026 Y-50.1287
G01 X26.3141 Y-50.1195
G01 X26.3430 Y-50.0930
G01 X26.3695 Y-50.0641
G01 X26.3787 Y-50.0526
G01 X26.3990 Y-50.0249
G01 X26.4168 Y-49.9955
G01 X26.4239 Y-49.9827
G01 X26.4405 Y-49.9471
G01 X26.4523 Y-49.9149
G01 X26.4567 Y-49.9008
G01 X26.4661 Y-49.8627
G01 X26.4714 Y-49.8288
G01 X26.4730 Y-49.8142
G01 X26.4747 Y-49.7799
G01 X26.4747 Y-48.8500
G01 X26.4733 Y-48.8157
G01 X26.4714 Y-48.7962
G01 X26.4670 Y-48.7671
G01 X26.4651 Y-48.7575
G01 X26.4554 Y-48.7194
G01 X26.4423 Y-48.6824
G01 X26.4365 Y-48.6689
G01 X26.4239 Y-48.6423
G01 X26.4193 Y-48.6337
G01 X26.3990 Y-48.6001
G01 X26.3800 Y-48.5742
G01 X26.3800 Y-47.9497
G01 X26.3945 Y-47.9364
G01 X26.4014 Y-47.9295
G01 X26.4213 Y-47.9077
G01 X26.4307 Y-47.8965
G01 X26.4540 Y-47.8649
G01 X26.4718 Y-47.8355
G01 X26.4789 Y-47.8227
G01 X26.4955 Y-47.7871
G01 X26.5104 Y-47.7456
G01 X26.5211 Y-47.7027
G01 X26.5276 Y-47.6591
G01 X26.5297 Y-47.6150
G01 X26.5297 Y-46.3601
G01 X26.5276 Y-46.3209
G01 X26.5211 Y-46.2773
G01 X26.5104 Y-46.2344
G01 X26.4990 Y-46.2020
G01 X26.4936 Y-46.1884
G01 X26.4766 Y-46.1530
G01 X26.4592 Y-46.1234
G01 X26.4512 Y-46.1111
G01 X26.4337 Y-46.0874
G01 X26.4245 Y-46.0759
G01 X26.3980 Y-46.0470
G01 X26.3800 Y-46.0303
G01 X26.3800 Y-44.7300
G01 X26.3766 Y-44.6616
G01 X26.3795 Y-44.6498
G01 X26.3822 Y-44.6354
G01 X26.3937 Y-44.5577
G01 X26.3957 Y-44.5382
G01 X26.3997 Y-44.4500
G01 X26.3949 Y-44.3520
G01 X26.3805 Y-44.2550
G01 X26.3593 Y-44.1692
G01 X26.3536 Y-44.1505
G01 X26.3272 Y-44.0766
G01 X26.3197 Y-44.0584
G01 X26.2817 Y-43.9787
G01 X26.2313 Y-43.8946
G01 X26.1728 Y-43.8158
G01 X26.1137 Y-43.7502
G01 X26.0998 Y-43.7363
G01 X26.0417 Y-43.6836
G01 X26.0265 Y-43.6712
G01 X25.9554 Y-43.6187
G01 X25.8713 Y-43.5683
G01 X25.7826 Y-43.5264
G01 X25.6995 Y-43.4964
G01 X25.6808 Y-43.4907
G01 X25.6046 Y-43.4716
G01 X25.5902 Y-43.4686
G01 X25.4980 Y-43.4551
G01 X25.4000 Y-43.4503
G01 X25.3020 Y-43.4551
G01 X25.2050 Y-43.4695
G01 X25.1098 Y-43.4933
G01 X25.0174 Y-43.5264
G01 X24.9287 Y-43.5683
G01 X24.8446 Y-43.6187
G01 X24.7658 Y-43.6772
G01 X24.6931 Y-43.7431
G01 X24.6272 Y-43.8158
G01 X24.5687 Y-43.8946
G01 X24.5183 Y-43.9787
G01 X24.4764 Y-44.0674
G01 X24.4433 Y-44.1598
G01 X24.4216 Y-44.2454
G01 X24.4186 Y-44.2598
G01 X24.4051 Y-44.3520
G01 X24.4003 Y-44.4500
G01 X24.4051 Y-44.5480
G01 X24.4178 Y-44.6354
G01 X24.4216 Y-44.6546
G01 X24.4407 Y-44.7308
G01 X24.4464 Y-44.7495
G01 X24.4764 Y-44.8326
G01 X24.5160 Y-44.9169
G01 X24.5231 Y-44.9298
G01 X24.5687 Y-45.0054
G01 X24.6212 Y-45.0765
G01 X24.6336 Y-45.0917
G01 X24.6863 Y-45.1498
G01 X24.6966 Y-45.1604
G01 X24.7658 Y-45.2228
G01 X24.8405 Y-45.2785
G01 X24.8529 Y-45.2865
G01 X24.9244 Y-45.3293
G01 X24.9375 Y-45.3361
G01 X24.9800 Y-45.3562
G01 X24.9800 Y-46.0303
G01 X24.9655 Y-46.0436
G01 X24.9586 Y-46.0505
G01 X24.9387 Y-46.0723
G01 X24.9293 Y-46.0835
G01 X24.9060 Y-46.1151
G01 X24.8882 Y-46.1445
G01 X24.8811 Y-46.1573
G01 X24.8645 Y-46.1929
G01 X24.8527 Y-46.2251
G01 X24.8483 Y-46.2392
G01 X24.8410 Y-46.2677
G01 X24.8380 Y-46.2821
G01 X24.8330 Y-46.3160
G01 X24.8317 Y-46.3307
G01 X24.8303 Y-46.3650
G01 X24.8303 Y-47.6196
G01 X24.8322 Y-47.6565
G01 X24.8379 Y-47.6976
G01 X24.8474 Y-47.7381
G01 X24.8575 Y-47.7688
G00 Z2.0000
G00 X26.8375 Y-47.7688
G01 F100.00
G01 Z-0.1017
G01 F240.00
G01 X26.8442 Y-47.7860
G01 X26.8554 Y-47.8113
G01 X26.8617 Y-47.8236
G01 X26.8776 Y-47.8518
G01 X26.9011 Y-47.8860
G01 X26.9276 Y-47.9180
G01 X26.9503 Y-47.9410
G01 X26.9640 Y-47.9534
G01 X26.9853 Y-47.9711
G01 X26.9927 Y-47.9766
G01 X27.0232 Y-47.9974
G01 X27.0595 Y-48.0176
G01 X27.0975 Y-48.0344
G01 X27.1281 Y-48.0449
G01 X27.1459 Y-48.0499
G01 X27.1728 Y-48.0562
G01 X27.1819 Y-48.0579
G01 X27.2185 Y-48.0628
G01 X27.2554 Y-48.0647
G01 X28.0600 Y-48.0647
G01 X28.1041 Y-48.0626
G01 X28.1381 Y-48.0578
G01 X28.1525 Y-48.0551
G01 X28.1858 Y-48.0467
G01 X28.1999 Y-48.0423
G01 X28.2321 Y-48.0305
G01 X28.2633 Y-48.0161
G01 X28.2763 Y-48.0093
G01 X28.3099 Y-47.9890
G01 X28.3453 Y-47.9627
G01 X28.3780 Y-47.9330
G01 X28.4045 Y-47.9041
G01 X28.4137 Y-47.8926
G01 X28.4340 Y-47.8649
G01 X28.4518 Y-47.8355
G01 X28.4589 Y-47.8227
G01 X28.4736 Y-47.7916
G01 X28.4790 Y-47.7780
G01 X28.4904 Y-47.7456
G01 X28.5011 Y-47.7027
G01 X28.5076 Y-47.6591
G01 X28.5097 Y-47.6199
G01 X28.5095 Y-46.3552
G01 X28.5080 Y-46.3258
G01 X28.5070 Y-46.3160
G01 X28.5028 Y-46.2869
G01 X28.5001 Y-46.2725
G01 X28.4930 Y-46.2439
G01 X28.4889 Y-46.2298
G01 X28.4773 Y-46.1974
G01 X28.4715 Y-46.1839
G01 X28.4589 Y-46.1573
G01 X28.4543 Y-46.1487
G01 X28.4366 Y-46.1192
G01 X28.4283 Y-46.1071
G01 X28.4107 Y-46.0835
G01 X28.4013 Y-46.0723
G01 X28.3780 Y-46.0470
G01 X28.3600 Y-46.0303
G01 X28.3600 Y-45.3562
G01 X28.4025 Y-45.3361
G01 X28.4156 Y-45.3293
G01 X28.4913 Y-45.2839
G01 X28.5034 Y-45.2756
G01 X28.5704 Y-45.2259
G01 X28.5817 Y-45.2164
G01 X28.6469 Y-45.1569
G01 X28.7064 Y-45.0917
G01 X28.7159 Y-45.0804
G01 X28.7713 Y-45.0054
G01 X28.8169 Y-44.9298
G01 X28.8261 Y-44.9125
G01 X28.8636 Y-44.8326
G01 X28.8936 Y-44.7495
G01 X28.8993 Y-44.7308
G01 X28.9195 Y-44.6498
G01 X28.9222 Y-44.6354
G01 X28.9349 Y-44.5480
G01 X28.9395 Y-44.4598
G01 X28.9395 Y-44.4402
G01 X28.9349 Y-44.3520
G01 X28.9222 Y-44.2646
G01 X28.9184 Y-44.2454
G01 X28.8967 Y-44.1598
G01 X28.8672 Y-44.0766
G01 X28.8597 Y-44.0584
G01 X28.8217 Y-43.9787
G01 X28.7765 Y-43.9029
G01 X28.7656 Y-43.8866
G01 X28.7128 Y-43.8158
G01 X28.6537 Y-43.7502
G01 X28.6400 Y-43.7365
G01 X28.6400 Y-43.6086
G01 X28.7986 Y-43.4500
G01 X31.7101 Y-43.4500
G01 X32.3200 Y-44.0599
G01 X32.3200 Y-50.8000
G01 X32.3234 Y-50.8686
G01 X32.3335 Y-50.9366
G01 X32.3501 Y-51.0032
G01 X32.3698 Y-51.0587
G01 X32.3773 Y-51.0768
G01 X32.4027 Y-51.1300
G01 X32.4327 Y-51.1806
G01 X32.4436 Y-51.1969
G01 X32.4789 Y-51.2441
G01 X32.5183 Y-51.2879
G01 X33.9700 Y-52.7400
G01 X33.9700 Y-62.8300
G01 X30.5372 Y-66.2628
G01 X30.4898 Y-66.2605
G01 X30.4751 Y-66.2603
G01 X30.3820 Y-66.2649
G01 X30.3674 Y-66.2665
G01 X30.2800 Y-66.2795
G01 X30.2656 Y-66.2826
G01 X30.1753 Y-66.3055
G01 X30.0783 Y-66.3402
G01 X29.9852 Y-66.3842
G01 X29.9051 Y-66.4319
G01 X29.8927 Y-66.4399
G01 X29.8218 Y-66.4925
G01 X29.8103 Y-66.5017
G01 X29.7412 Y-66.5643
G01 X29.7310 Y-66.5748
G01 X29.6991 Y-66.6100
G01 X28.7209 Y-66.6100
G01 X28.6890 Y-66.5748
G01 X28.6788 Y-66.5643
G01 X28.6097 Y-66.5017
G01 X28.5982 Y-66.4925
G01 X28.5312 Y-66.4428
G01 X28.5191 Y-66.4345
G01 X28.4348 Y-66.3842
G01 X28.3507 Y-66.3441
G01 X28.3326 Y-66.3366
G01 X28.2540 Y-66.3085
G01 X28.2400 Y-66.3041
G01 X28.1448 Y-66.2804
G01 X28.0526 Y-66.2665
G01 X28.0331 Y-66.2646
G01 X27.9400 Y-66.2603
G01 X27.8469 Y-66.2646
G01 X27.8274 Y-66.2665
G01 X27.7352 Y-66.2804
G01 X27.6447 Y-66.3028
G01 X27.6260 Y-66.3085
G01 X27.5474 Y-66.3366
G01 X27.5293 Y-66.3441
G01 X27.4452 Y-66.3842
G01 X27.3568 Y-66.4372
G01 X27.2818 Y-66.4925
G01 X27.2666 Y-66.5049
G01 X27.1977 Y-66.5677
G01 X27.1285 Y-66.6440
G01 X27.0728 Y-66.7188
G01 X27.0619 Y-66.7351
G01 X27.0142 Y-66.8152
G01 X26.9702 Y-66.9083
G01 X26.9355 Y-67.0053
G01 X26.9126 Y-67.0956
G01 X26.9087 Y-67.1149
G01 X26.8965 Y-67.1974
G01 X26.8949 Y-67.2120
G01 X26.8903 Y-67.3100
G01 X26.8953 Y-67.4129
G01 X26.9104 Y-67.5148
G01 X26.9328 Y-67.6053
G01 X26.9385 Y-67.6240
G01 X26.9666 Y-67.7026
G01 X26.9741 Y-67.7207
G01 X27.0142 Y-67.8048
G01 X27.0672 Y-67.8932
G01 X27.1285 Y-67.9760
G01 X27.1977 Y-68.0523
G01 X27.2740 Y-68.1215
G01 X27.3488 Y-68.1772
G01 X27.3651 Y-68.1881
G01 X27.4366 Y-68.2310
G01 X27.4539 Y-68.2402
G01 X27.5383 Y-68.2798
G01 X27.6353 Y-68.3145
G01 X27.7352 Y-68.3396
G01 X27.8274 Y-68.3535
G01 X27.8469 Y-68.3554
G01 X27.9400 Y-68.3597
G01 X28.0331 Y-68.3554
G01 X28.0526 Y-68.3535
G01 X28.1448 Y-68.3396
G01 X28.2400 Y-68.3159
G01 X28.2540 Y-68.3115
G01 X28.3326 Y-68.2834
G01 X28.3507 Y-68.2759
G01 X28.4348 Y-68.2358
G01 X28.5191 Y-68.1855
G01 X28.5312 Y-68.1772
G01 X28.5982 Y-68.1275
G01 X28.6097 Y-68.1183
G01 X28.6788 Y-68.0557
G01 X28.6890 Y-68.0452
G01 X28.7209 Y-68.0100
G01 X29.6991 Y-68.0100
G01 X29.7310 Y-68.0452
G01 X29.7412 Y-68.0557
G01 X29.8103 Y-68.1183
G01 X29.8218 Y-68.1275
G01 X29.8888 Y-68.1772
G01 X29.9009 Y-68.1855
G01 X29.9766 Y-68.2310
G01 X29.9939 Y-68.2402
G01 X30.0783 Y-68.2798
G01 X30.1706 Y-68.3131
G01 X30.1847 Y-68.3172
G01 X30.2752 Y-68.3396
G01 X30.3674 Y-68.3535
G01 X30.3869 Y-68.3554
G01 X30.4800 Y-68.3597
G01 X30.5731 Y-68.3554
G01 X30.5926 Y-68.3535
G01 X30.6848 Y-68.3396
G01 X30.7753 Y-68.3172
G01 X30.7940 Y-68.3115
G01 X30.8817 Y-68.2798
G01 X30.9748 Y-68.2358
G01 X31.0632 Y-68.1828
G01 X31.1382 Y-68.1275
G01 X31.1534 Y-68.1151
G01 X31.2152 Y-68.0590
G01 X31.2290 Y-68.0452
G01 X31.2915 Y-67.9760
G01 X31.3528 Y-67.8932
G01 X31.4058 Y-67.8048
G01 X31.4459 Y-67.7207
G01 X31.4517 Y-67.7072
G01 X31.4845 Y-67.6147
G01 X31.5074 Y-67.5244
G01 X31.5105 Y-67.5100
G01 X31.5235 Y-67.4226
G01 X31.5251 Y-67.4080
G01 X31.5297 Y-67.3149
G01 X31.5295 Y-67.3002
G01 X31.5272 Y-67.2528
G01 X35.1684 Y-63.6115
G01 X35.2111 Y-63.5641
G01 X35.2464 Y-63.5169
G01 X35.2547 Y-63.5048
G01 X35.2825 Y-63.4585
G01 X35.2918 Y-63.4412
G01 X35.3167 Y-63.3879
G01 X35.3399 Y-63.3232
G01 X35.3566 Y-63.2566
G01 X35.3661 Y-63.1935
G01 X35.3674 Y-63.1788
G01 X35.3700 Y-63.1200
G01 X35.3700 Y-52.4500
G01 X35.3666 Y-52.3814
G01 X35.3582 Y-52.3231
G01 X35.3544 Y-52.3039
G01 X35.3399 Y-52.2468
G01 X35.3167 Y-52.1821
G01 X35.2873 Y-52.1200
G01 X35.2573 Y-52.0694
G01 X35.2464 Y-52.0531
G01 X35.2171 Y-52.0137
G01 X35.2080 Y-52.0022
G01 X35.1650 Y-51.9550
G01 X33.7200 Y-50.5101
G01 X33.7199 Y-43.7651
G01 X33.7166 Y-43.7014
G01 X33.7082 Y-43.6431
G01 X33.7044 Y-43.6239
G01 X33.6899 Y-43.5668
G01 X33.6702 Y-43.5113
G01 X33.6627 Y-43.4932
G01 X33.6373 Y-43.4400
G01 X33.6047 Y-43.3852
G01 X33.5964 Y-43.3731
G01 X33.5611 Y-43.3259
G01 X33.5150 Y-43.2750
G01 X32.4950 Y-42.2550
G01 X32.4515 Y-42.2153
G01 X32.4363 Y-42.2029
G01 X32.3889 Y-42.1680
G01 X32.3385 Y-42.1375
G01 X32.3212 Y-42.1282
G01 X32.2679 Y-42.1033
G01 X32.2125 Y-42.0832
G01 X32.1938 Y-42.0775
G01 X32.1414 Y-42.0645
G01 X32.1269 Y-42.0618
G01 X32.0686 Y-42.0534
G01 X32.0000 Y-42.0500
G01 X28.5037 Y-42.0501
G01 X28.4400 Y-42.0534
G01 X28.3817 Y-42.0618
G01 X28.3625 Y-42.0656
G01 X28.3054 Y-42.0801
G01 X28.2499 Y-42.0998
G01 X28.2318 Y-42.1073
G01 X28.1787 Y-42.1327
G01 X28.1238 Y-42.1653
G01 X28.1117 Y-42.1736
G01 X28.0646 Y-42.2089
G01 X28.0172 Y-42.2516
G01 X27.4416 Y-42.8272
G01 X27.4053 Y-42.8671
G01 X27.3929 Y-42.8823
G01 X27.3580 Y-42.9297
G01 X27.3250 Y-42.9844
G01 X27.3182 Y-42.9974
G01 X27.2933 Y-43.0508
G01 X27.2701 Y-43.1154
G01 X27.2535 Y-43.1821
G01 X27.2439 Y-43.2451
G01 X27.2426 Y-43.2598
G01 X27.2400 Y-43.3186
G01 X27.2400 Y-43.7365
G01 X27.2263 Y-43.7502
G01 X27.1736 Y-43.8083
G01 X27.1612 Y-43.8235
G01 X27.1087 Y-43.8946
G01 X27.0583 Y-43.9787
G01 X27.0203 Y-44.0584
G01 X27.0128 Y-44.0766
G01 X26.9833 Y-44.1598
G01 X26.9605 Y-44.2502
G01 X26.9578 Y-44.2646
G01 X26.9451 Y-44.3520
G01 X26.9403 Y-44.4500
G01 X26.9451 Y-44.5480
G01 X26.9586 Y-44.6402
G01 X26.9634 Y-44.6616
G01 X26.9600 Y-44.7300
G01 X26.9600 Y-46.0303
G01 X26.9420 Y-46.0470
G01 X26.9155 Y-46.0759
G01 X26.9063 Y-46.0874
G01 X26.8888 Y-46.1111
G01 X26.8808 Y-46.1234
G01 X26.8634 Y-46.1530
G01 X26.8464 Y-46.1884
G01 X26.8410 Y-46.2020
G01 X26.8296 Y-46.2344
G01 X26.8189 Y-46.2773
G01 X26.8124 Y-46.3209
G01 X26.8103 Y-46.3601
G01 X26.8103 Y-47.6196
G01 X26.8122 Y-47.6565
G01 X26.8179 Y-47.6976
G01 X26.8274 Y-47.7381
G01 X26.8375 Y-47.7688
G00 Z2.0000
G00 X29.6800 Y-43.4503
G01 F100.00
G01 Z-0.1017
G01 F240.00
G01 X29.6653 Y-43.4508
G01 X29.6459 Y-43.4532
G01 X29.6267 Y-43.4575
G01 X29.6081 Y-43.4636
G01 X29.5902 Y-43.4716
G01 X29.5731 Y-43.4812
G01 X29.5571 Y-43.4925
G01 X29.5459 Y-43.5020
G01 X29.5320 Y-43.5159
G01 X29.5196 Y-43.5310
G01 X29.5087 Y-43.5473
G01 X29.5016 Y-43.5602
G01 X29.4936 Y-43.5781
G01 X29.4875 Y-43.5967
G01 X29.4841 Y-43.6110
G01 X29.4812 Y-43.6304
G01 X29.4803 Y-43.6500
G01 X29.4803 Y-45.2500
G01 X29.4808 Y-45.2647
G01 X29.4824 Y-45.2793
G01 X29.4851 Y-45.2938
G01 X29.4889 Y-45.3080
G01 X29.4936 Y-45.3219
G01 X29.4994 Y-45.3354
G01 X29.5062 Y-45.3485
G01 X29.5139 Y-45.3610
G01 X29.5225 Y-45.3729
G01 X29.5320 Y-45.3841
G01 X29.5423 Y-45.3947
G01 X29.5533 Y-45.4044
G01 X29.5650 Y-45.4133
G01 X29.5773 Y-45.4213
G01 X29.5902 Y-45.4284
G01 X29.6036 Y-45.4345
G01 X29.6173 Y-45.4397
G01 X29.6315 Y-45.4438
G01 X29.6459 Y-45.4468
G01 X29.6604 Y-45.4488
G01 X29.6751 Y-45.4497
G01 X30.0600 Y-45.4497
G01 X30.0600 Y-46.0303
G01 X30.0455 Y-46.0436
G01 X30.0386 Y-46.0505
G01 X30.0187 Y-46.0723
G01 X30.0093 Y-46.0835
G01 X29.9860 Y-46.1151
G01 X29.9682 Y-46.1445
G01 X29.9611 Y-46.1573
G01 X29.9445 Y-46.1929
G01 X29.9296 Y-46.2344
G01 X29.9189 Y-46.2773
G01 X29.9136 Y-46.3112
G01 X29.9120 Y-46.3258
G01 X29.9103 Y-46.3650
G01 X29.9103 Y-47.6150
G01 X29.9124 Y-47.6591
G01 X29.9189 Y-47.7027
G01 X29.9296 Y-47.7456
G01 X29.9410 Y-47.7780
G01 X29.9464 Y-47.7916
G01 X29.9634 Y-47.8270
G01 X29.9808 Y-47.8566
G01 X29.9888 Y-47.8689
G01 X30.0063 Y-47.8926
G01 X30.0155 Y-47.9041
G01 X30.0420 Y-47.9330
G01 X30.0600 Y-47.9497
G01 X30.0600 Y-48.4003
G01 X29.8550 Y-48.4003
G01 X29.8109 Y-48.4024
G01 X29.7673 Y-48.4089
G01 X29.7339 Y-48.4170
G01 X29.7151 Y-48.4227
G01 X29.6874 Y-48.4327
G01 X29.6784 Y-48.4364
G01 X29.6430 Y-48.4534
G01 X29.6051 Y-48.4760
G01 X29.5697 Y-48.5023
G01 X29.5370 Y-48.5320
G01 X29.5073 Y-48.5647
G01 X29.4810 Y-48.6001
G01 X29.4584 Y-48.6380
G01 X29.4414 Y-48.6734
G01 X29.4360 Y-48.6870
G01 X29.4246 Y-48.7194
G01 X29.4139 Y-48.7623
G01 X29.4074 Y-48.8059
G01 X29.4053 Y-48.8451
G01 X29.4053 Y-49.7750
G01 X29.4074 Y-49.8191
G01 X29.4122 Y-49.8531
G01 X29.4149 Y-49.8675
G01 X29.4246 Y-49.9056
G01 X29.4360 Y-49.9380
G01 X29.4414 Y-49.9516
G01 X29.4584 Y-49.9870
G01 X29.4784 Y-50.0208
G01 X29.4867 Y-50.0329
G01 X29.5073 Y-50.0603
G01 X29.5370 Y-50.0930
G01 X29.5697 Y-50.1227
G01 X29.5971 Y-50.1433
G01 X29.6092 Y-50.1516
G01 X29.6430 Y-50.1716
G01 X29.6829 Y-50.1905
G01 X29.7151 Y-50.2023
G01 X29.7292 Y-50.2067
G01 X29.7673 Y-50.2161
G01 X29.8109 Y-50.2226
G01 X29.8550 Y-50.2247
G01 X31.1050 Y-50.2247
G01 X31.1491 Y-50.2226
G01 X31.1831 Y-50.2178
G01 X31.1975 Y-50.2151
G01 X31.2356 Y-50.2054
G01 X31.2771 Y-50.1905
G01 X31.3170 Y-50.1716
G01 X31.3466 Y-50.1542
G01 X31.3629 Y-50.1433
G01 X31.3865 Y-50.1257
G01 X31.3977 Y-50.1163
G01 X31.4230 Y-50.0930
G01 X31.4527 Y-50.0603
G01 X31.4790 Y-50.0249
G01 X31.4968 Y-49.9955
G01 X31.5061 Y-49.9783
G01 X31.5186 Y-49.9516
G01 X31.5240 Y-49.9380
G01 X31.5354 Y-49.9056
G01 X31.5461 Y-49.8627
G01 X31.5526 Y-49.8191
G01 X31.5545 Y-49.7848
G01 X31.5547 Y-48.8500
G01 X31.5533 Y-48.8157
G01 X31.5514 Y-48.7962
G01 X31.5470 Y-48.7671
G01 X31.5451 Y-48.7575
G01 X31.5354 Y-48.7194
G01 X31.5223 Y-48.6824
G01 X31.5165 Y-48.6689
G01 X31.5039 Y-48.6423
G01 X31.4993 Y-48.6337
G01 X31.4790 Y-48.6001
G01 X31.4600 Y-48.5742
G01 X31.4600 Y-47.9497
G01 X31.4745 Y-47.9364
G01 X31.4814 Y-47.9295
G01 X31.5013 Y-47.9077
G01 X31.5107 Y-47.8965
G01 X31.5340 Y-47.8649
G01 X31.5518 Y-47.8355
G01 X31.5589 Y-47.8227
G01 X31.5755 Y-47.7871
G01 X31.5904 Y-47.7456
G01 X31.6011 Y-47.7027
G01 X31.6076 Y-47.6591
G01 X31.6097 Y-47.6150
G01 X31.6097 Y-46.3604
G01 X31.6085 Y-46.3327
G01 X31.6074 Y-46.3189
G01 X31.6029 Y-46.2869
G01 X31.6002 Y-46.2733
G01 X31.5938 Y-46.2464
G01 X31.5899 Y-46.2331
G01 X31.5794 Y-46.2025
G01 X31.5665 Y-46.1729
G01 X31.5605 Y-46.1604
G01 X31.5424 Y-46.1282
G01 X31.5189 Y-46.0940
G01 X31.4924 Y-46.0620
G01 X31.4697 Y-46.0390
G01 X31.4600 Y-46.0300
G01 X31.4600 Y-45.3366
G01 X31.4645 Y-45.3264
G01 X31.4681 Y-45.3173
G01 X31.4711 Y-45.3080
G01 X31.4749 Y-45.2938
G01 X31.4768 Y-45.2841
G01 X31.4788 Y-45.2696
G01 X31.4797 Y-45.2500
G01 X31.4797 Y-43.6500
G01 X31.4788 Y-43.6304
G01 X31.4776 Y-43.6207
G01 X31.4749 Y-43.6062
G01 X31.4711 Y-43.5920
G01 X31.4645 Y-43.5736
G01 X31.4584 Y-43.5602
G01 X31.4513 Y-43.5473
G01 X31.4404 Y-43.5310
G01 X31.4313 Y-43.5195
G01 X31.4212 Y-43.5088
G01 X31.4105 Y-43.4987
G01 X31.3990 Y-43.4896
G01 X31.3869 Y-43.4812
G01 X31.3742 Y-43.4738
G01 X31.3609 Y-43.4674
G01 X31.3427 Y-43.4603
G01 X31.3285 Y-43.4562
G01 X31.3141 Y-43.4532
G01 X31.2996 Y-43.4512
G01 X31.2800 Y-43.4503
G01 X29.6800 Y-43.4503
G00 Z2.0000
G00 X40.7805 Y-41.2752
G01 F100.00
G01 Z-0.1017
G01 F240.00
G01 X40.7803 Y-42.5350
G01 X40.7817 Y-42.5693
G01 X40.7830 Y-42.5840
G01 X40.7889 Y-42.6227
G01 X40.7983 Y-42.6608
G01 X40.8027 Y-42.6749
G01 X40.8145 Y-42.7071
G01 X40.8289 Y-42.7383
G01 X40.8357 Y-42.7513
G01 X40.8560 Y-42.7849
G01 X40.8823 Y-42.8203
G01 X40.9120 Y-42.8530
G01 X40.9447 Y-42.8827
G01 X40.9801 Y-42.9090
G01 X41.0180 Y-42.9316
G01 X41.0579 Y-42.9505
G01 X41.0994 Y-42.9654
G01 X41.1375 Y-42.9751
G01 X41.1519 Y-42.9778
G01 X41.1859 Y-42.9826
G01 X41.2251 Y-42.9847
G01 X41.7148 Y-42.9847
G01 X42.3021 Y-43.5720
G01 X42.2939 Y-43.5875
G01 X42.2564 Y-43.6674
G01 X42.2233 Y-43.7598
G01 X42.1995 Y-43.8550
G01 X42.1851 Y-43.9520
G01 X42.1803 Y-44.0500
G01 X42.1803 Y-44.8549
G01 X42.1851 Y-44.9480
G01 X42.1978 Y-45.0354
G01 X42.2016 Y-45.0546
G01 X42.2233 Y-45.1402
G01 X42.2564 Y-45.2326
G01 X42.2939 Y-45.3125
G01 X42.3031 Y-45.3298
G01 X42.3487 Y-45.4054
G01 X42.4072 Y-45.4842
G01 X42.4731 Y-45.5569
G01 X42.5458 Y-45.6228
G01 X42.6246 Y-45.6813
G01 X42.7087 Y-45.7317
G01 X42.7974 Y-45.7736
G01 X42.8898 Y-45.8067
G01 X42.9850 Y-45.8305
G01 X43.0820 Y-45.8449
G01 X43.1800 Y-45.8497
G01 X43.2780 Y-45.8449
G01 X43.3750 Y-45.8305
G01 X43.4702 Y-45.8067
G01 X43.5626 Y-45.7736
G01 X43.6513 Y-45.7317
G01 X43.7354 Y-45.6813
G01 X43.8142 Y-45.6228
G01 X43.8869 Y-45.5569
G01 X43.9528 Y-45.4842
G01 X44.0113 Y-45.4054
G01 X44.0617 Y-45.3213
G01 X44.1036 Y-45.2326
G01 X44.1367 Y-45.1402
G01 X44.1605 Y-45.0450
G01 X44.1749 Y-44.9480
G01 X44.1797 Y-44.8549
G01 X44.1797 Y-44.0451
G01 X44.1757 Y-43.9618
G01 X44.1737 Y-43.9423
G01 X44.1605 Y-43.8550
G01 X44.1381 Y-43.7645
G01 X44.1336 Y-43.7505
G01 X44.1036 Y-43.6674
G01 X44.0661 Y-43.5875
G01 X44.0593 Y-43.5744
G01 X44.0113 Y-43.4946
G01 X43.9559 Y-43.4196
G01 X43.9464 Y-43.4083
G01 X43.8904 Y-43.3466
G01 X43.8834 Y-43.3396
G01 X43.8667 Y-43.3244
G01 X43.8644 Y-43.3139
G01 X43.8499 Y-43.2568
G01 X43.8302 Y-43.2013
G01 X43.8227 Y-43.1832
G01 X43.7973 Y-43.1300
G01 X43.7673 Y-43.0794
G01 X43.7564 Y-43.0631
G01 X43.7211 Y-43.0159
G01 X43.6750 Y-42.9650
G01 X42.4797 Y-41.7698
G01 X42.4797 Y-41.2850
G01 X42.4776 Y-41.2409
G01 X42.4711 Y-41.1973
G01 X42.4617 Y-41.1592
G01 X42.4573 Y-41.1451
G01 X42.4455 Y-41.1129
G01 X42.4311 Y-41.0817
G01 X42.4243 Y-41.0687
G01 X42.4040 Y-41.0351
G01 X42.3777 Y-40.9997
G01 X42.3480 Y-40.9670
G01 X42.3153 Y-40.9373
G01 X42.2799 Y-40.9110
G01 X42.2420 Y-40.8884
G01 X42.2021 Y-40.8695
G01 X42.1606 Y-40.8546
G01 X42.1225 Y-40.8449
G01 X42.1081 Y-40.8422
G01 X42.0741 Y-40.8374
G01 X42.0300 Y-40.8353
G01 X41.2300 Y-40.8353
G01 X41.1908 Y-40.8370
G01 X41.1762 Y-40.8386
G01 X41.1423 Y-40.8439
G01 X41.0994 Y-40.8546
G01 X41.0579 Y-40.8695
G01 X41.0180 Y-40.8884
G01 X40.9801 Y-40.9110
G01 X40.9447 Y-40.9373
G01 X40.9120 Y-40.9670
G01 X40.8887 Y-40.9923
G01 X40.8793 Y-41.0035
G01 X40.8617 Y-41.0271
G01 X40.8508 Y-41.0434
G01 X40.8357 Y-41.0687
G01 X40.8311 Y-41.0773
G01 X40.8185 Y-41.1039
G01 X40.8127 Y-41.1174
G01 X40.7996 Y-41.1544
G01 X40.7889 Y-41.1973
G01 X40.7824 Y-41.2409
G01 X40.7805 Y-41.2752
G00 Z2.0000
G00 X43.8805 Y-41.2752
G01 F100.00
G01 Z-0.1017
G01 F240.00
G01 X43.8803 Y-42.5350
G01 X43.8820 Y-42.5742
G01 X43.8836 Y-42.5888
G01 X43.8880 Y-42.6179
G01 X43.8899 Y-42.6275
G01 X43.8970 Y-42.6561
G01 X43.9027 Y-42.6749
G01 X43.9127 Y-42.7026
G01 X43.9185 Y-42.7161
G01 X43.9334 Y-42.7470
G01 X43.9560 Y-42.7849
G01 X43.9823 Y-42.8203
G01 X44.0120 Y-42.8530
G01 X44.0447 Y-42.8827
G01 X44.0801 Y-42.9090
G01 X44.1180 Y-42.9316
G01 X44.1579 Y-42.9505
G01 X44.1994 Y-42.9654
G01 X44.2423 Y-42.9761
G01 X44.2859 Y-42.9826
G01 X44.3300 Y-42.9847
G01 X45.1300 Y-42.9847
G01 X45.1643 Y-42.9833
G01 X45.1790 Y-42.9820
G01 X45.2177 Y-42.9761
G01 X45.2606 Y-42.9654
G01 X45.3021 Y-42.9505
G01 X45.3333 Y-42.9361
G01 X45.3505 Y-42.9268
G01 X45.3758 Y-42.9116
G01 X45.3879 Y-42.9033
G01 X45.4153 Y-42.8827
G01 X45.4480 Y-42.8530
G01 X45.4777 Y-42.8203
G01 X45.5040 Y-42.7849
G01 X45.5266 Y-42.7470
G01 X45.5415 Y-42.7161
G01 X45.5473 Y-42.7026
G01 X45.5573 Y-42.6749
G01 X45.5630 Y-42.6561
G01 X45.5701 Y-42.6275
G01 X45.5720 Y-42.6179
G01 X45.5764 Y-42.5888
G01 X45.5780 Y-42.5742
G01 X45.5797 Y-42.5350
G01 X45.5797 Y-41.2850
G01 X45.5776 Y-41.2409
G01 X45.5711 Y-41.1973
G01 X45.5604 Y-41.1544
G01 X45.5490 Y-41.1220
G01 X45.5436 Y-41.1084
G01 X45.5266 Y-41.0730
G01 X45.5092 Y-41.0434
G01 X45.5012 Y-41.0311
G01 X45.4837 Y-41.0074
G01 X45.4745 Y-40.9959
G01 X45.4480 Y-40.9670
G01 X45.4300 Y-40.9503
G01 X45.4300 Y-40.6499
G01 X45.6628 Y-40.4172
G01 X45.7102 Y-40.4195
G01 X45.7249 Y-40.4197
G01 X45.8131 Y-40.4154
G01 X45.8278 Y-40.4142
G01 X45.9248 Y-40.3996
G01 X46.0200 Y-40.3759
G01 X46.0340 Y-40.3715
G01 X46.1126 Y-40.3434
G01 X46.1307 Y-40.3359
G01 X46.2148 Y-40.2958
G01 X46.2991 Y-40.2455
G01 X46.3112 Y-40.2372
G01 X46.3782 Y-40.1875
G01 X46.3934 Y-40.1751
G01 X46.4623 Y-40.1123
G01 X46.5251 Y-40.0434
G01 X46.5375 Y-40.0282
G01 X46.5928 Y-39.9532
G01 X46.6410 Y-39.8734
G01 X46.6481 Y-39.8605
G01 X46.6898 Y-39.7717
G01 X46.7215 Y-39.6840
G01 X46.7272 Y-39.6653
G01 X46.7474 Y-39.5844
G01 X46.7513 Y-39.5651
G01 X46.7647 Y-39.4729
G01 X46.7697 Y-39.3700
G01 X46.7647 Y-39.2671
G01 X46.7513 Y-39.1749
G01 X46.7474 Y-39.1556
G01 X46.7272 Y-39.0747
G01 X46.7215 Y-39.0560
G01 X46.6898 Y-38.9683
G01 X46.6458 Y-38.8752
G01 X46.5928 Y-38.7868
G01 X46.5375 Y-38.7118
G01 X46.5251 Y-38.6966
G01 X46.4690 Y-38.6348
G01 X46.4588 Y-38.6243
G01 X46.3860 Y-38.5585
G01 X46.3032 Y-38.4972
G01 X46.2148 Y-38.4442
G01 X46.1217 Y-38.4002
G01 X46.0247 Y-38.3655
G01 X45.9248 Y-38.3404
G01 X45.8229 Y-38.3253
G01 X45.7200 Y-38.3203
G01 X45.6171 Y-38.3253
G01 X45.5152 Y-38.3404
G01 X45.4153 Y-38.3655
G01 X45.3183 Y-38.4002
G01 X45.2252 Y-38.4442
G01 X45.1368 Y-38.4972
G01 X45.0540 Y-38.5585
G01 X44.9848 Y-38.6210
G01 X44.9743 Y-38.6312
G01 X44.9085 Y-38.7040
G01 X44.8472 Y-38.7868
G01 X44.7942 Y-38.8752
G01 X44.7541 Y-38.9593
G01 X44.7483 Y-38.9728
G01 X44.7155 Y-39.0653
G01 X44.6926 Y-39.1556
G01 X44.6895 Y-39.1700
G01 X44.6765 Y-39.2574
G01 X44.6749 Y-39.2720
G01 X44.6703 Y-39.3651
G01 X44.6705 Y-39.3798
G01 X44.6728 Y-39.4272
G01 X44.2350 Y-39.8650
G01 X44.1953 Y-39.9085
G01 X44.1829 Y-39.9237
G01 X44.1507 Y-39.9671
G01 X44.1427 Y-39.9794
G01 X44.1127 Y-40.0300
G01 X44.0833 Y-40.0921
G01 X44.0601 Y-40.1568
G01 X44.0456 Y-40.2139
G01 X44.0418 Y-40.2331
G01 X44.0346 Y-40.2817
G01 X44.0330 Y-40.2963
G01 X44.0300 Y-40.3600
G01 X44.0300 Y-40.9503
G01 X44.0120 Y-40.9670
G01 X43.9887 Y-40.9923
G01 X43.9793 Y-41.0035
G01 X43.9617 Y-41.0271
G01 X43.9534 Y-41.0392
G01 X43.9357 Y-41.0687
G01 X43.9311 Y-41.0773
G01 X43.9185 Y-41.1039
G01 X43.9127 Y-41.1174
G01 X43.9011 Y-41.1498
G01 X43.8970 Y-41.1639
G01 X43.8899 Y-41.1925
G01 X43.8872 Y-41.2069
G01 X43.8830 Y-41.2360
G01 X43.8820 Y-41.2458
G01 X43.8805 Y-41.2752
G00 Z2.0000
G00 X46.0100 Y-40.9503
G01 F100.00
G01 Z-0.1017
G01 F240.00
G01 X45.9920 Y-40.9670
G01 X45.9687 Y-40.9923
G01 X45.9593 Y-41.0035
G01 X45.9417 Y-41.0271
G01 X45.9334 Y-41.0392
G01 X45.9157 Y-41.0687
G01 X45.9111 Y-41.0773
G01 X45.8985 Y-41.1039
G01 X45.8927 Y-41.1174
G01 X45.8811 Y-41.1498
G01 X45.8770 Y-41.1639
G01 X45.8699 Y-41.1925
G01 X45.8672 Y-41.2069
G01 X45.8630 Y-41.2360
G01 X45.8620 Y-41.2458
G01 X45.8605 Y-41.2752
G01 X45.8603 Y-42.5350
G01 X45.8617 Y-42.5693
G01 X45.8630 Y-42.5840
G01 X45.8689 Y-42.6227
G01 X45.8783 Y-42.6608
G01 X45.8827 Y-42.6749
G01 X45.8945 Y-42.7071
G01 X45.9111 Y-42.7427
G01 X45.9182 Y-42.7555
G01 X45.9334 Y-42.7808
G01 X45.9388 Y-42.7889
G01 X45.9563 Y-42.8126
G01 X45.9655 Y-42.8241
G01 X45.9886 Y-42.8495
G01 X45.9991 Y-42.8598
G01 X46.0247 Y-42.8827
G01 X46.0521 Y-42.9033
G01 X46.0642 Y-42.9116
G01 X46.0895 Y-42.9268
G01 X46.1023 Y-42.9339
G01 X46.1379 Y-42.9505
G01 X46.1794 Y-42.9654
G01 X46.2223 Y-42.9761
G01 X46.2562 Y-42.9814
G01 X46.2708 Y-42.9830
G01 X46.3100 Y-42.9847
G01 X47.1100 Y-42.9847
G01 X47.1492 Y-42.9830
G01 X47.1638 Y-42.9814
G01 X47.1977 Y-42.9761
G01 X47.2358 Y-42.9667
G01 X47.2499 Y-42.9623
G01 X47.2821 Y-42.9505
G01 X47.3177 Y-42.9339
G01 X47.3305 Y-42.9268
G01 X47.3558 Y-42.9116
G01 X47.3639 Y-42.9062
G01 X47.3876 Y-42.8887
G01 X47.3991 Y-42.8795
G01 X47.4245 Y-42.8564
G01 X47.4348 Y-42.8459
G01 X47.4577 Y-42.8203
G01 X47.4783 Y-42.7929
G01 X47.4866 Y-42.7808
G01 X47.5018 Y-42.7555
G01 X47.5089 Y-42.7427
G01 X47.5255 Y-42.7071
G01 X47.5404 Y-42.6656
G01 X47.5511 Y-42.6227
G01 X47.5576 Y-42.5791
G01 X47.5597 Y-42.5350
G01 X47.5597 Y-41.2801
G01 X47.5576 Y-41.2409
G01 X47.5528 Y-41.2069
G01 X47.5501 Y-41.1925
G01 X47.5430 Y-41.1639
G01 X47.5389 Y-41.1498
G01 X47.5273 Y-41.1174
G01 X47.5198 Y-41.1002
G01 X48.2028 Y-40.4172
G01 X48.2502 Y-40.4195
G01 X48.2649 Y-40.4197
G01 X48.3580 Y-40.4151
G01 X48.3726 Y-40.4135
G01 X48.4551 Y-40.4013
G01 X48.4696 Y-40.3986
G01 X48.5553 Y-40.3772
G01 X48.5740 Y-40.3715
G01 X48.6617 Y-40.3398
G01 X48.7505 Y-40.2981
G01 X48.7634 Y-40.2910
G01 X48.8432 Y-40.2428
G01 X48.9182 Y-40.1875
G01 X48.9334 Y-40.1751
G01 X49.0023 Y-40.1123
G01 X49.0651 Y-40.0434
G01 X49.0775 Y-40.0282
G01 X49.1301 Y-39.9573
G01 X49.1381 Y-39.9449
G01 X49.1810 Y-39.8734
G01 X49.1902 Y-39.8561
G01 X49.2298 Y-39.7717
G01 X49.2645 Y-39.6747
G01 X49.2896 Y-39.5748
G01 X49.3035 Y-39.4826
G01 X49.3054 Y-39.4631
G01 X49.3097 Y-39.3700
G01 X49.3054 Y-39.2769
G01 X49.3035 Y-39.2574
G01 X49.2896 Y-39.1652
G01 X49.2645 Y-39.0653
G01 X49.2298 Y-38.9683
G01 X49.1902 Y-38.8839
G01 X49.1810 Y-38.8666
G01 X49.1381 Y-38.7951
G01 X49.1301 Y-38.7827
G01 X49.0715 Y-38.7040
G01 X49.0023 Y-38.6277
G01 X48.9260 Y-38.5585
G01 X48.8432 Y-38.4972
G01 X48.7548 Y-38.4442
G01 X48.6617 Y-38.4002
G01 X48.5647 Y-38.3655
G01 X48.4648 Y-38.3404
G01 X48.3629 Y-38.3253
G01 X48.2600 Y-38.3203
G01 X48.1571 Y-38.3253
G01 X48.0552 Y-38.3404
G01 X47.9553 Y-38.3655
G01 X47.8583 Y-38.4002
G01 X47.7652 Y-38.4442
G01 X47.6851 Y-38.4919
G01 X47.6727 Y-38.4999
G01 X47.6018 Y-38.5525
G01 X47.5866 Y-38.5649
G01 X47.5177 Y-38.6277
G01 X47.4549 Y-38.6966
G01 X47.4425 Y-38.7118
G01 X47.3872 Y-38.7868
G01 X47.3390 Y-38.8666
G01 X47.3319 Y-38.8795
G01 X47.2902 Y-38.9683
G01 X47.2585 Y-39.0560
G01 X47.2528 Y-39.0747
G01 X47.2314 Y-39.1604
G01 X47.2287 Y-39.1749
G01 X47.2165 Y-39.2574
G01 X47.2149 Y-39.2720
G01 X47.2103 Y-39.3651
G01 X47.2105 Y-39.3798
G01 X47.2128 Y-39.4272
G01 X46.2150 Y-40.4250
G01 X46.1753 Y-40.4685
G01 X46.1658 Y-40.4798
G01 X46.1280 Y-40.5311
G01 X46.0927 Y-40.5900
G01 X46.0633 Y-40.6521
G01 X46.0416 Y-40.7121
G01 X46.0375 Y-40.7262
G01 X46.0235 Y-40.7834
G01 X46.0139 Y-40.8465
G01 X46.0126 Y-40.8612
G01 X46.0102 Y-40.9102
G01 X46.0100 Y-40.9503
G00 Z2.0000
G00 X45.7298 Y-43.0505
G01 F100.00
G01 Z-0.1017
G01 F240.00
G01 X45.7102 Y-43.0505
G01 X45.6220 Y-43.0551
G01 X45.5250 Y-43.0695
G01 X45.4298 Y-43.0933
G01 X45.3374 Y-43.1264
G01 X45.2487 Y-43.1683
G01 X45.1646 Y-43.2187
G01 X45.0858 Y-43.2772
G01 X45.0131 Y-43.3431
G01 X44.9472 Y-43.4158
G01 X44.8887 Y-43.4946
G01 X44.8383 Y-43.5787
G01 X44.7964 Y-43.6674
G01 X44.7633 Y-43.7598
G01 X44.7395 Y-43.8550
G01 X44.7251 Y-43.9520
G01 X44.7203 Y-44.0500
G01 X44.7203 Y-44.8500
G01 X44.7251 Y-44.9480
G01 X44.7395 Y-45.0450
G01 X44.7633 Y-45.1402
G01 X44.7964 Y-45.2326
G01 X44.8339 Y-45.3125
G01 X44.8407 Y-45.3256
G01 X44.8887 Y-45.4054
G01 X44.9412 Y-45.4765
G01 X44.9536 Y-45.4917
G01 X45.0131 Y-45.5569
G01 X45.0783 Y-45.6164
G01 X45.0935 Y-45.6288
G01 X45.1646 Y-45.6813
G01 X45.2402 Y-45.7269
G01 X45.2575 Y-45.7361
G01 X45.3374 Y-45.7736
G01 X45.4205 Y-45.8036
G01 X45.4392 Y-45.8093
G01 X45.5250 Y-45.8305
G01 X45.6123 Y-45.8437
G01 X45.6318 Y-45.8457
G01 X45.7200 Y-45.8497
G01 X45.8180 Y-45.8449
G01 X45.9150 Y-45.8305
G01 X46.0102 Y-45.8067
G01 X46.1026 Y-45.7736
G01 X46.1913 Y-45.7317
G01 X46.2754 Y-45.6813
G01 X46.3542 Y-45.6228
G01 X46.4269 Y-45.5569
G01 X46.4928 Y-45.4842
G01 X46.5513 Y-45.4054
G01 X46.6017 Y-45.3213
G01 X46.6436 Y-45.2326
G01 X46.6767 Y-45.1402
G01 X46.7005 Y-45.0450
G01 X46.7149 Y-44.9480
G01 X46.7197 Y-44.8500
G01 X46.7197 Y-44.0500
G01 X46.7149 Y-43.9520
G01 X46.7005 Y-43.8550
G01 X46.6767 Y-43.7598
G01 X46.6436 Y-43.6674
G01 X46.6017 Y-43.5787
G01 X46.5565 Y-43.5029
G01 X46.5456 Y-43.4866
G01 X46.4928 Y-43.4158
G01 X46.4337 Y-43.3502
G01 X46.4198 Y-43.3363
G01 X46.3542 Y-43.2772
G01 X46.2834 Y-43.2244
G01 X46.2671 Y-43.2135
G01 X46.1913 Y-43.1683
G01 X46.1116 Y-43.1303
G01 X46.0934 Y-43.1228
G01 X46.0102 Y-43.0933
G01 X45.9246 Y-43.0716
G01 X45.9054 Y-43.0678
G01 X45.8180 Y-43.0551
G01 X45.7298 Y-43.0505
G00 Z2.0000
G00 X49.1100 Y-42.8697
G01 F100.00
G01 Z-0.1017
G01 F240.00
G01 X49.1100 Y-43.1438
G01 X49.0675 Y-43.1639
G01 X49.0544 Y-43.1707
G01 X48.9787 Y-43.2161
G01 X48.9666 Y-43.2244
G01 X48.8996 Y-43.2741
G01 X48.8883 Y-43.2836
G01 X48.8231 Y-43.3431
G01 X48.7603 Y-43.4120
G01 X48.7512 Y-43.4235
G01 X48.6987 Y-43.4946
G01 X48.6483 Y-43.5787
G01 X48.6064 Y-43.6674
G01 X48.5764 Y-43.7505
G01 X48.5707 Y-43.7692
G01 X48.5495 Y-43.8550
G01 X48.5363 Y-43.9423
G01 X48.5343 Y-43.9618
G01 X48.5303 Y-44.0451
G01 X48.5303 Y-44.8549
G01 X48.5351 Y-44.9480
G01 X48.5495 Y-45.0450
G01 X48.5733 Y-45.1402
G01 X48.6064 Y-45.2326
G01 X48.6483 Y-45.3213
G01 X48.6987 Y-45.4054
G01 X48.7572 Y-45.4842
G01 X48.8231 Y-45.5569
G01 X48.8958 Y-45.6228
G01 X48.9746 Y-45.6813
G01 X49.0587 Y-45.7317
G01 X49.1474 Y-45.7736
G01 X49.2398 Y-45.8067
G01 X49.3350 Y-45.8305
G01 X49.4320 Y-45.8449
G01 X49.5300 Y-45.8497
G01 X49.6280 Y-45.8449
G01 X49.7250 Y-45.8305
G01 X49.8108 Y-45.8093
G01 X49.8295 Y-45.8036
G01 X49.9126 Y-45.7736
G01 X50.0013 Y-45.7317
G01 X50.0771 Y-45.6865
G01 X50.0934 Y-45.6756
G01 X50.1642 Y-45.6228
G01 X50.2298 Y-45.5637
G01 X50.2437 Y-45.5498
G01 X50.3028 Y-45.4842
G01 X50.3556 Y-45.4134
G01 X50.3665 Y-45.3971
G01 X50.4117 Y-45.3213
G01 X50.4497 Y-45.2416
G01 X50.4572 Y-45.2234
G01 X50.4836 Y-45.1495
G01 X50.4881 Y-45.1355
G01 X50.5105 Y-45.0450
G01 X50.5237 Y-44.9577
G01 X50.5257 Y-44.9382
G01 X50.5297 Y-44.8500
G01 X50.5297 Y-44.0451
G01 X50.5249 Y-43.9520
G01 X50.5122 Y-43.8646
G01 X50.5100 Y-43.8524
G01 X50.5100 Y-42.8697
G01 X50.5245 Y-42.8564
G01 X50.5314 Y-42.8495
G01 X50.5513 Y-42.8277
G01 X50.5607 Y-42.8165
G01 X50.5840 Y-42.7849
G01 X50.6043 Y-42.7513
G01 X50.6111 Y-42.7383
G01 X50.6236 Y-42.7116
G01 X50.6273 Y-42.7026
G01 X50.6373 Y-42.6749
G01 X50.6417 Y-42.6608
G01 X50.6490 Y-42.6323
G01 X50.6511 Y-42.6227
G01 X50.6532 Y-42.6100
G01 X50.9468 Y-42.6100
G01 X50.9489 Y-42.6227
G01 X50.9510 Y-42.6323
G01 X50.9583 Y-42.6608
G01 X50.9611 Y-42.6702
G01 X50.9745 Y-42.7071
G01 X50.9911 Y-42.7427
G01 X50.9957 Y-42.7513
G01 X51.0108 Y-42.7766
G01 X51.0217 Y-42.7929
G01 X51.0423 Y-42.8203
G01 X51.0720 Y-42.8530
G01 X51.1047 Y-42.8827
G01 X51.1321 Y-42.9033
G01 X51.1442 Y-42.9116
G01 X51.1780 Y-42.9316
G01 X51.2179 Y-42.9505
G01 X51.2501 Y-42.9623
G01 X51.2642 Y-42.9667
G01 X51.2927 Y-42.9740
G01 X51.3119 Y-42.9778
G01 X51.3459 Y-42.9826
G01 X51.3900 Y-42.9847
G01 X52.1900 Y-42.9847
G01 X52.2292 Y-42.9830
G01 X52.2390 Y-42.9820
G01 X52.2681 Y-42.9778
G01 X52.2873 Y-42.9740
G01 X52.3206 Y-42.9654
G01 X52.3621 Y-42.9505
G01 X52.3977 Y-42.9339
G01 X52.4105 Y-42.9268
G01 X52.4399 Y-42.9090
G01 X52.4715 Y-42.8857
G01 X52.4827 Y-42.8763
G01 X52.5080 Y-42.8530
G01 X52.5377 Y-42.8203
G01 X52.5640 Y-42.7849
G01 X52.5866 Y-42.7470
G01 X52.6055 Y-42.7071
G01 X52.6204 Y-42.6656
G01 X52.6311 Y-42.6227
G01 X52.6364 Y-42.5888
G01 X52.6380 Y-42.5742
G01 X52.6397 Y-42.5350
G01 X52.6397 Y-41.2801
G01 X52.6383 Y-41.2507
G01 X52.6370 Y-41.2360
G01 X52.6320 Y-41.2021
G01 X52.6290 Y-41.1877
G01 X52.6204 Y-41.1544
G01 X52.6090 Y-41.1220
G01 X52.6036 Y-41.1084
G01 X52.5889 Y-41.0773
G01 X52.5818 Y-41.0645
G01 X52.5640 Y-41.0351
G01 X52.5377 Y-40.9997
G01 X52.5080 Y-40.9670
G01 X52.4791 Y-40.9405
G01 X52.4676 Y-40.9313
G01 X52.4439 Y-40.9138
G01 X52.4316 Y-40.9058
G01 X52.4020 Y-40.8884
G01 X52.3711 Y-40.8735
G01 X52.3576 Y-40.8677
G01 X52.3206 Y-40.8546
G01 X52.2777 Y-40.8439
G01 X52.2341 Y-40.8374
G01 X52.1900 Y-40.8353
G01 X51.3900 Y-40.8353
G01 X51.3508 Y-40.8370
G01 X51.3410 Y-40.8380
G01 X51.3119 Y-40.8422
G01 X51.2927 Y-40.8460
G01 X51.2642 Y-40.8533
G01 X51.2548 Y-40.8561
G01 X51.2270 Y-40.8660
G01 X51.2134 Y-40.8714
G01 X51.1780 Y-40.8884
G01 X51.1401 Y-40.9110
G01 X51.1047 Y-40.9373
G01 X51.0791 Y-40.9602
G01 X51.0652 Y-40.9741
G01 X51.0455 Y-40.9959
G01 X51.0363 Y-41.0074
G01 X51.0160 Y-41.0351
G01 X50.9934 Y-41.0730
G01 X50.9745 Y-41.1129
G01 X50.9611 Y-41.1498
G01 X50.9583 Y-41.1592
G01 X50.9510 Y-41.1877
G01 X50.9489 Y-41.1973
G01 X50.9468 Y-41.2100
G01 X50.6532 Y-41.2100
G01 X50.6511 Y-41.1973
G01 X50.6490 Y-41.1877
G01 X50.6417 Y-41.1592
G01 X50.6389 Y-41.1498
G01 X50.6255 Y-41.1129
G01 X50.6089 Y-41.0773
G01 X50.6043 Y-41.0687
G01 X50.5892 Y-41.0434
G01 X50.5783 Y-41.0271
G01 X50.5577 Y-40.9997
G01 X50.5314 Y-40.9705
G01 X50.5245 Y-40.9636
G01 X50.5027 Y-40.9437
G01 X50.4876 Y-40.9313
G01 X50.4599 Y-40.9110
G01 X50.4220 Y-40.8884
G01 X50.3866 Y-40.8714
G01 X50.3730 Y-40.8660
G01 X50.3406 Y-40.8546
G01 X50.3025 Y-40.8449
G01 X50.2881 Y-40.8422
G01 X50.2541 Y-40.8374
G01 X50.2100 Y-40.8353
G01 X49.4002 Y-40.8355
G01 X49.3708 Y-40.8370
G01 X49.3562 Y-40.8386
G01 X49.3223 Y-40.8439
G01 X49.2889 Y-40.8520
G01 X49.2748 Y-40.8561
G01 X49.2424 Y-40.8677
G01 X49.2289 Y-40.8735
G01 X49.2023 Y-40.8861
G01 X49.1895 Y-40.8932
G01 X49.1642 Y-40.9084
G01 X49.1561 Y-40.9138
G01 X49.1247 Y-40.9373
G01 X49.0991 Y-40.9602
G01 X49.0886 Y-40.9705
G01 X49.0623 Y-40.9997
G01 X49.0417 Y-41.0271
G01 X49.0334 Y-41.0392
G01 X49.0134 Y-41.0730
G01 X48.9985 Y-41.1039
G01 X48.9927 Y-41.1174
G01 X48.9796 Y-41.1544
G01 X48.9699 Y-41.1925
G01 X48.9672 Y-41.2069
G01 X48.9624 Y-41.2409
G01 X48.9605 Y-41.2752
G01 X48.9603 Y-42.5350
G01 X48.9624 Y-42.5791
G01 X48.9689 Y-42.6227
G01 X48.9796 Y-42.6656
G01 X48.9945 Y-42.7071
G01 X49.0111 Y-42.7427
G01 X49.0182 Y-42.7555
G01 X49.0360 Y-42.7849
G01 X49.0593 Y-42.8165
G01 X49.0687 Y-42.8277
G01 X49.0886 Y-42.8495
G01 X49.0955 Y-42.8564
G01 X49.1100 Y-42.8697
G00 Z2.0000
G00 X49.5398 Y-50.6705
G01 F100.00
G01 Z-0.1017
G01 F240.00
G01 X49.5202 Y-50.6705
G01 X49.4320 Y-50.6751
G01 X49.3350 Y-50.6895
G01 X49.2398 Y-50.7133
G01 X49.1474 Y-50.7464
G01 X49.0587 Y-50.7883
G01 X48.9746 Y-50.8387
G01 X48.8958 Y-50.8972
G01 X48.8231 Y-50.9631
G01 X48.7572 Y-51.0358
G01 X48.6987 Y-51.1146
G01 X48.6483 Y-51.1987
G01 X48.6064 Y-51.2874
G01 X48.5733 Y-51.3798
G01 X48.5495 Y-51.4750
G01 X48.5351 Y-51.5720
G01 X48.5303 Y-51.6700
G01 X48.5303 Y-52.4700
G01 X48.5351 Y-52.5680
G01 X48.5495 Y-52.6650
G01 X48.5733 Y-52.7602
G01 X48.6064 Y-52.8526
G01 X48.6439 Y-52.9325
G01 X48.6507 Y-52.9456
G01 X48.6987 Y-53.0254
G01 X48.7512 Y-53.0965
G01 X48.7636 Y-53.1117
G01 X48.8231 Y-53.1769
G01 X48.8883 Y-53.2364
G01 X48.9035 Y-53.2488
G01 X48.9746 Y-53.3013
G01 X49.0502 Y-53.3469
G01 X49.0675 Y-53.3561
G01 X49.1474 Y-53.3936
G01 X49.2305 Y-53.4236
G01 X49.2492 Y-53.4293
G01 X49.3350 Y-53.4505
G01 X49.4223 Y-53.4637
G01 X49.4418 Y-53.4657
G01 X49.5300 Y-53.4697
G01 X49.6280 Y-53.4649
G01 X49.7250 Y-53.4505
G01 X49.8202 Y-53.4267
G01 X49.9126 Y-53.3936
G01 X50.0013 Y-53.3517
G01 X50.0854 Y-53.3013
G01 X50.1642 Y-53.2428
G01 X50.2369 Y-53.1769
G01 X50.3028 Y-53.1042
G01 X50.3613 Y-53.0254
G01 X50.4117 Y-52.9413
G01 X50.4536 Y-52.8526
G01 X50.4867 Y-52.7602
G01 X50.5105 Y-52.6650
G01 X50.5249 Y-52.5680
G01 X50.5297 Y-52.4700
G01 X50.5297 Y-51.6700
G01 X50.5249 Y-51.5720
G01 X50.5105 Y-51.4750
G01 X50.4867 Y-51.3798
G01 X50.4536 Y-51.2874
G01 X50.4117 Y-51.1987
G01 X50.3665 Y-51.1229
G01 X50.3556 Y-51.1066
G01 X50.3028 Y-51.0358
G01 X50.2437 Y-50.9702
G01 X50.2298 Y-50.9563
G01 X50.1642 Y-50.8972
G01 X50.0934 Y-50.8444
G01 X50.0771 Y-50.8335
G01 X50.0013 Y-50.7883
G01 X49.9216 Y-50.7503
G01 X49.9034 Y-50.7428
G01 X49.8202 Y-50.7133
G01 X49.7346 Y-50.6916
G01 X49.7154 Y-50.6878
G01 X49.6280 Y-50.6751
G01 X49.5398 Y-50.6705
G00 Z2.0000
G00 X51.1648 Y-53.5353
G01 F100.00
G01 Z-0.1017
G01 F240.00
G01 X50.6751 Y-53.5353
G01 X50.6359 Y-53.5374
G01 X50.5971 Y-53.5430
G01 X50.5875 Y-53.5449
G01 X50.5589 Y-53.5520
G01 X50.5401 Y-53.5577
G01 X50.5079 Y-53.5695
G01 X50.4767 Y-53.5839
G01 X50.4637 Y-53.5907
G01 X50.4342 Y-53.6084
G01 X50.4221 Y-53.6167
G01 X50.3947 Y-53.6373
G01 X50.3691 Y-53.6602
G01 X50.3586 Y-53.6705
G01 X50.3355 Y-53.6959
G01 X50.3263 Y-53.7074
G01 X50.3060 Y-53.7351
G01 X50.2882 Y-53.7645
G01 X50.2811 Y-53.7773
G01 X50.2645 Y-53.8129
G01 X50.2527 Y-53.8451
G01 X50.2483 Y-53.8592
G01 X50.2389 Y-53.8973
G01 X50.2336 Y-53.9312
G01 X50.2320 Y-53.9458
G01 X50.2303 Y-53.9850
G01 X50.2303 Y-55.2350
G01 X50.2324 Y-55.2791
G01 X50.2380 Y-55.3179
G01 X50.2399 Y-55.3275
G01 X50.2470 Y-55.3561
G01 X50.2527 Y-55.3749
G01 X50.2645 Y-55.4071
G01 X50.2811 Y-55.4427
G01 X50.2882 Y-55.4555
G01 X50.3034 Y-55.4808
G01 X50.3088 Y-55.4889
G01 X50.3323 Y-55.5203
G01 X50.3552 Y-55.5459
G01 X50.3655 Y-55.5564
G01 X50.3947 Y-55.5827
G01 X50.4261 Y-55.6062
G01 X50.4384 Y-55.6142
G01 X50.4680 Y-55.6316
G01 X50.5034 Y-55.6486
G01 X50.5124 Y-55.6523
G01 X50.5401 Y-55.6623
G01 X50.5542 Y-55.6667
G01 X50.5923 Y-55.6761
G01 X50.6262 Y-55.6814
G01 X50.6408 Y-55.6830
G01 X50.6751 Y-55.6847
G01 X51.4800 Y-55.6847
G01 X51.5192 Y-55.6830
G01 X51.5290 Y-55.6820
G01 X51.5581 Y-55.6778
G01 X51.5773 Y-55.6740
G01 X51.6106 Y-55.6654
G01 X51.6521 Y-55.6505
G01 X51.6877 Y-55.6339
G01 X51.7005 Y-55.6268
G01 X51.7299 Y-55.6090
G01 X51.7653 Y-55.5827
G01 X51.7980 Y-55.5530
G01 X51.8277 Y-55.5203
G01 X51.8540 Y-55.4849
G01 X51.8718 Y-55.4555
G01 X51.8811 Y-55.4383
G01 X51.8936 Y-55.4116
G01 X51.8990 Y-55.3980
G01 X51.9104 Y-55.3656
G01 X51.9211 Y-55.3227
G01 X51.9276 Y-55.2791
G01 X51.9297 Y-55.2399
G01 X51.9297 Y-54.7502
G01 X52.5717 Y-54.1079
G01 X52.6111 Y-54.0641
G01 X52.6520 Y-54.0089
G01 X52.6873 Y-53.9500
G01 X52.7167 Y-53.8879
G01 X52.7399 Y-53.8232
G01 X52.7544 Y-53.7661
G01 X52.7582 Y-53.7469
G01 X52.7654 Y-53.6983
G01 X52.7670 Y-53.6837
G01 X52.7700 Y-53.6200
G01 X52.7700 Y-53.1835
G01 X52.7837 Y-53.1698
G01 X52.8364 Y-53.1117
G01 X52.8488 Y-53.0965
G01 X52.9013 Y-53.0254
G01 X52.9517 Y-52.9413
G01 X52.9936 Y-52.8526
G01 X53.0236 Y-52.7695
G01 X53.0293 Y-52.7508
G01 X53.0484 Y-52.6746
G01 X53.0522 Y-52.6554
G01 X53.0649 Y-52.5680
G01 X53.0697 Y-52.4749
G01 X53.0697 Y-51.6700
G01 X53.0657 Y-51.5818
G01 X53.0637 Y-51.5623
G01 X53.0505 Y-51.4750
G01 X53.0293 Y-51.3892
G01 X53.0236 Y-51.3705
G01 X52.9936 Y-51.2874
G01 X52.9561 Y-51.2075
G01 X52.9469 Y-51.1902
G01 X52.9013 Y-51.1146
G01 X52.8488 Y-51.0435
G01 X52.8364 Y-51.0283
G01 X52.7769 Y-50.9631
G01 X52.7117 Y-50.9036
G01 X52.6965 Y-50.8912
G01 X52.6254 Y-50.8387
G01 X52.5498 Y-50.7931
G01 X52.5369 Y-50.7860
G01 X52.4526 Y-50.7464
G01 X52.3602 Y-50.7133
G01 X52.2650 Y-50.6895
G01 X52.1680 Y-50.6751
G01 X52.0700 Y-50.6703
G01 X51.9720 Y-50.6751
G01 X51.8750 Y-50.6895
G01 X51.7798 Y-50.7133
G01 X51.6874 Y-50.7464
G01 X51.5987 Y-50.7883
G01 X51.5146 Y-50.8387
G01 X51.4358 Y-50.8972
G01 X51.3631 Y-50.9631
G01 X51.2972 Y-51.0358
G01 X51.2387 Y-51.1146
G01 X51.1931 Y-51.1902
G01 X51.1860 Y-51.2031
G01 X51.1464 Y-51.2874
G01 X51.1133 Y-51.3798
G01 X51.0895 Y-51.4750
G01 X51.0763 Y-51.5623
G01 X51.0746 Y-51.5769
G01 X51.0703 Y-51.6700
G01 X51.0703 Y-52.4700
G01 X51.0751 Y-52.5680
G01 X51.0895 Y-52.6650
G01 X51.1133 Y-52.7602
G01 X51.1464 Y-52.8526
G01 X51.1839 Y-52.9325
G01 X51.1931 Y-52.9498
G01 X51.2335 Y-53.0171
G01 X51.2444 Y-53.0334
G01 X51.2972 Y-53.1042
G01 X51.3563 Y-53.1698
G01 X51.3700 Y-53.1835
G01 X51.3700 Y-53.3301
G01 X51.1648 Y-53.5353
G00 Z2.0000
G00 X52.0798 Y-58.3955
G01 F100.00
G01 Z-0.1017
G01 F240.00
G01 X52.0602 Y-58.3955
G01 X51.9749 Y-58.3997
G01 X51.9554 Y-58.4016
G01 X51.8613 Y-58.4158
G01 X51.7595 Y-58.4413
G01 X51.6698 Y-58.4732
G01 X51.6517 Y-58.4807
G01 X51.5657 Y-58.5216
G01 X51.4757 Y-58.5755
G01 X51.3991 Y-58.6320
G01 X51.3839 Y-58.6445
G01 X51.3136 Y-58.7086
G01 X51.2431 Y-58.7864
G01 X51.1805 Y-58.8707
G01 X51.1314 Y-58.9522
G01 X51.1222 Y-58.9695
G01 X51.0817 Y-59.0556
G01 X51.0463 Y-59.1545
G01 X51.0230 Y-59.2467
G01 X51.0191 Y-59.2660
G01 X51.0066 Y-59.3504
G01 X51.0050 Y-59.3650
G01 X51.0003 Y-59.4650
G01 X51.0003 Y-59.9150
G01 X51.0050 Y-60.0150
G01 X51.0066 Y-60.0296
G01 X51.0208 Y-60.1237
G01 X51.0437 Y-60.2161
G01 X51.0494 Y-60.2348
G01 X51.0817 Y-60.3244
G01 X51.1222 Y-60.4105
G01 X51.1314 Y-60.4278
G01 X51.1779 Y-60.5052
G01 X51.1862 Y-60.5173
G01 X51.2370 Y-60.5859
G01 X51.2495 Y-60.6011
G01 X51.3136 Y-60.6714
G01 X51.3839 Y-60.7355
G01 X51.3991 Y-60.7480
G01 X51.4757 Y-60.8045
G01 X51.5572 Y-60.8536
G01 X51.5745 Y-60.8628
G01 X51.6606 Y-60.9033
G01 X51.7502 Y-60.9356
G01 X51.7689 Y-60.9413
G01 X51.8613 Y-60.9642
G01 X51.9554 Y-60.9784
G01 X51.9749 Y-60.9803
G01 X52.0700 Y-60.9847
G01 X52.1700 Y-60.9800
G01 X52.1846 Y-60.9784
G01 X52.2787 Y-60.9642
G01 X52.3711 Y-60.9413
G01 X52.3898 Y-60.9356
G01 X52.4794 Y-60.9033
G01 X52.5655 Y-60.8628
G01 X52.5828 Y-60.8536
G01 X52.6643 Y-60.8045
G01 X52.7486 Y-60.7419
G01 X52.8193 Y-60.6782
G01 X52.8299 Y-60.6679
G01 X52.8969 Y-60.5936
G01 X52.9567 Y-60.5134
G01 X52.9647 Y-60.5010
G01 X53.0111 Y-60.4236
G01 X53.0157 Y-60.4149
G01 X53.0275 Y-60.3900
G01 X53.0501 Y-60.3900
G01 X53.9100 Y-61.2499
G01 X53.9100 Y-63.4944
G01 X53.8822 Y-63.5251
G01 X53.8728 Y-63.5363
G01 X53.8260 Y-63.5993
G01 X53.8176 Y-63.6115
G01 X53.7724 Y-63.6873
G01 X53.7365 Y-63.7626
G01 X53.7307 Y-63.7761
G01 X53.7011 Y-63.8593
G01 X53.6785 Y-63.9497
G01 X53.6648 Y-64.0419
G01 X53.6603 Y-64.1350
G01 X53.6648 Y-64.2281
G01 X53.6785 Y-64.3203
G01 X53.7011 Y-64.4107
G01 X53.7307 Y-64.4939
G01 X53.7365 Y-64.5074
G01 X53.7724 Y-64.5827
G01 X53.8176 Y-64.6585
G01 X53.8260 Y-64.6707
G01 X53.8728 Y-64.7337
G01 X53.8822 Y-64.7449
G01 X53.9100 Y-64.7756
G01 X53.9100 Y-66.2603
G01 X53.7600 Y-66.2603
G01 X53.7453 Y-66.2608
G01 X53.7307 Y-66.2624
G01 X53.7115 Y-66.2662
G01 X53.6927 Y-66.2719
G01 X53.6746 Y-66.2794
G01 X53.6658 Y-66.2838
G01 X53.6531 Y-66.2912
G01 X53.6450 Y-66.2967
G01 X53.6333 Y-66.3056
G01 X53.6259 Y-66.3120
G01 X53.6153 Y-66.3223
G01 X53.6087 Y-66.3295
G01 X53.5996 Y-66.3410
G01 X53.5912 Y-66.3531
G01 X53.5862 Y-66.3615
G01 X53.5816 Y-66.3702
G01 X53.5755 Y-66.3836
G01 X53.5703 Y-66.3973
G01 X53.5675 Y-66.4067
G01 X53.5632 Y-66.4259
G01 X53.5612 Y-66.4404
G01 X53.5603 Y-66.4600
G01 X53.5603 Y-68.1600
G01 X53.5608 Y-68.1747
G01 X53.5632 Y-68.1941
G01 X53.5675 Y-68.2133
G01 X53.5719 Y-68.2273
G01 X53.5774 Y-68.2409
G01 X53.5838 Y-68.2542
G01 X53.5912 Y-68.2669
G01 X53.5967 Y-68.2750
G01 X53.6056 Y-68.2867
G01 X53.6153 Y-68.2977
G01 X53.6259 Y-68.3080
G01 X53.6371 Y-68.3175
G01 X53.6490 Y-68.3261
G01 X53.6615 Y-68.3338
G01 X53.6746 Y-68.3406
G01 X53.6881 Y-68.3464
G01 X53.7020 Y-68.3511
G01 X53.7162 Y-68.3549
G01 X53.7307 Y-68.3576
G01 X53.7453 Y-68.3592
G01 X53.7600 Y-68.3597
G01 X55.4600 Y-68.3597
G01 X55.4796 Y-68.3588
G01 X55.4941 Y-68.3568
G01 X55.5085 Y-68.3538
G01 X55.5273 Y-68.3481
G01 X55.5364 Y-68.3445
G01 X55.5498 Y-68.3384
G01 X55.5627 Y-68.3313
G01 X55.5750 Y-68.3233
G01 X55.5867 Y-68.3144
G01 X55.5977 Y-68.3047
G01 X55.6080 Y-68.2941
G01 X55.6175 Y-68.2829
G01 X55.6261 Y-68.2710
G01 X55.6338 Y-68.2585
G01 X55.6406 Y-68.2454
G01 X55.6464 Y-68.2319
G01 X55.6511 Y-68.2180
G01 X55.6549 Y-68.2038
G01 X55.6576 Y-68.1893
G01 X55.6592 Y-68.1747
G01 X55.6597 Y-68.1600
G01 X55.6597 Y-66.4551
G01 X55.6588 Y-66.4404
G01 X55.6576 Y-66.4307
G01 X55.6549 Y-66.4162
G01 X55.6525 Y-66.4067
G01 X55.6481 Y-66.3927
G01 X55.6426 Y-66.3791
G01 X55.6362 Y-66.3658
G01 X55.6313 Y-66.3573
G01 X55.6233 Y-66.3450
G01 X55.6144 Y-66.3333
G01 X55.6080 Y-66.3259
G01 X55.5977 Y-66.3153
G01 X55.5905 Y-66.3087
G01 X55.5790 Y-66.2996
G01 X55.5710 Y-66.2939
G01 X55.5585 Y-66.2862
G01 X55.5409 Y-66.2774
G01 X55.5273 Y-66.2719
G01 X55.5180 Y-66.2689
G01 X55.4990 Y-66.2641
G01 X55.4796 Y-66.2612
G01 X55.4600 Y-66.2603
G01 X55.3100 Y-66.2603
G01 X55.3100 Y-64.7756
G01 X55.3378 Y-64.7449
G01 X55.3472 Y-64.7337
G01 X55.3940 Y-64.6707
G01 X55.4024 Y-64.6585
G01 X55.4476 Y-64.5827
G01 X55.4835 Y-64.5074
G01 X55.4893 Y-64.4939
G01 X55.5189 Y-64.4107
G01 X55.5415 Y-64.3203
G01 X55.5552 Y-64.2281
G01 X55.5597 Y-64.1350
G01 X55.5552 Y-64.0419
G01 X55.5415 Y-63.9497
G01 X55.5189 Y-63.8593
G01 X55.4893 Y-63.7761
G01 X55.4835 Y-63.7626
G01 X55.4476 Y-63.6873
G01 X55.4024 Y-63.6115
G01 X55.3940 Y-63.5993
G01 X55.3472 Y-63.5363
G01 X55.3378 Y-63.5251
G01 X55.3100 Y-63.4944
G01 X55.3100 Y-60.9600
G01 X55.3066 Y-60.8914
G01 X55.2982 Y-60.8331
G01 X55.2944 Y-60.8139
G01 X55.2812 Y-60.7615
G01 X55.2768 Y-60.7475
G01 X55.2567 Y-60.6921
G01 X55.2318 Y-60.6388
G01 X55.2250 Y-60.6257
G01 X55.1973 Y-60.5794
G01 X55.1864 Y-60.5631
G01 X55.1511 Y-60.5159
G01 X55.1084 Y-60.4685
G01 X53.8350 Y-59.1950
G01 X53.7841 Y-59.1489
G01 X53.7369 Y-59.1136
G01 X53.7206 Y-59.1027
G01 X53.6700 Y-59.0727
G01 X53.6079 Y-59.0433
G01 X53.5432 Y-59.0201
G01 X53.4861 Y-59.0056
G01 X53.4717 Y-59.0026
G01 X53.4086 Y-58.9934
G01 X53.3449 Y-58.9901
G01 X53.0275 Y-58.9900
G01 X53.0157 Y-58.9651
G01 X53.0111 Y-58.9564
G01 X52.9621 Y-58.8748
G01 X52.9538 Y-58.8627
G01 X52.9030 Y-58.7941
G01 X52.8938 Y-58.7826
G01 X52.8264 Y-58.7086
G01 X52.7561 Y-58.6445
G01 X52.7409 Y-58.6320
G01 X52.6723 Y-58.5812
G01 X52.6602 Y-58.5729
G01 X52.5743 Y-58.5216
G01 X52.4883 Y-58.4807
G01 X52.4702 Y-58.4732
G01 X52.3805 Y-58.4413
G01 X52.2883 Y-58.4180
G01 X52.2690 Y-58.4141
G01 X52.1749 Y-58.4004
G01 X52.0798 Y-58.3955
G00 Z2.0000
G00 X46.2900 Y-60.7229
G01 F100.00
G01 Z-0.1017
G01 F240.00
G01 X46.2900 Y-66.5291
G01 X46.2548 Y-66.5610
G01 X46.2443 Y-66.5712
G01 X46.1817 Y-66.6403
G01 X46.1725 Y-66.6518
G01 X46.1199 Y-66.7227
G01 X46.1119 Y-66.7351
G01 X46.0642 Y-66.8152
G01 X46.0241 Y-66.8993
G01 X46.0183 Y-66.9128
G01 X45.9885 Y-66.9960
G01 X45.9828 Y-67.0147
G01 X45.9604 Y-67.1052
G01 X45.9465 Y-67.1974
G01 X45.9446 Y-67.2169
G01 X45.9403 Y-67.3100
G01 X45.9453 Y-67.4129
G01 X45.9604 Y-67.5148
G01 X45.9855 Y-67.6147
G01 X46.0202 Y-67.7117
G01 X46.0642 Y-67.8048
G01 X46.1172 Y-67.8932
G01 X46.1785 Y-67.9760
G01 X46.2477 Y-68.0523
G01 X46.3240 Y-68.1215
G01 X46.4068 Y-68.1828
G01 X46.4952 Y-68.2358
G01 X46.5883 Y-68.2798
G01 X46.6853 Y-68.3145
G01 X46.7852 Y-68.3396
G01 X46.8871 Y-68.3547
G01 X46.9900 Y-68.3597
G01 X47.0929 Y-68.3547
G01 X47.1948 Y-68.3396
G01 X47.2947 Y-68.3145
G01 X47.3917 Y-68.2798
G01 X47.4761 Y-68.2402
G01 X47.4934 Y-68.2310
G01 X47.5649 Y-68.1881
G01 X47.5812 Y-68.1772
G01 X47.6560 Y-68.1215
G01 X47.7323 Y-68.0523
G01 X47.8015 Y-67.9760
G01 X47.8572 Y-67.9012
G01 X47.8681 Y-67.8849
G01 X47.9110 Y-67.8134
G01 X47.9202 Y-67.7961
G01 X47.9598 Y-67.7117
G01 X47.9945 Y-67.6147
G01 X48.0196 Y-67.5148
G01 X48.0347 Y-67.4129
G01 X48.0397 Y-67.3100
G01 X48.0354 Y-67.2169
G01 X48.0335 Y-67.1974
G01 X48.0196 Y-67.1052
G01 X47.9972 Y-67.0147
G01 X47.9915 Y-66.9960
G01 X47.9617 Y-66.9128
G01 X47.9559 Y-66.8993
G01 X47.9158 Y-66.8152
G01 X47.8681 Y-66.7351
G01 X47.8601 Y-66.7227
G01 X47.8075 Y-66.6518
G01 X47.7983 Y-66.6403
G01 X47.7357 Y-66.5712
G01 X47.7252 Y-66.5610
G01 X47.6900 Y-66.5291
G01 X47.6900 Y-60.7229
G01 X47.7464 Y-60.6714
G01 X47.8105 Y-60.6011
G01 X47.8230 Y-60.5859
G01 X47.8795 Y-60.5093
G01 X47.9334 Y-60.4193
G01 X47.9743 Y-60.3333
G01 X47.9818 Y-60.3152
G01 X48.0137 Y-60.2255
G01 X48.0392 Y-60.1237
G01 X48.0534 Y-60.0296
G01 X48.0553 Y-60.0101
G01 X48.0597 Y-59.9150
G01 X48.0597 Y-59.4650
G01 X48.0546 Y-59.3601
G01 X48.0392 Y-59.2563
G01 X48.0137 Y-59.1545
G01 X47.9818 Y-59.0648
G01 X47.9764 Y-59.0511
G01 X47.9334 Y-58.9607
G01 X47.8847 Y-58.8790
G01 X47.8738 Y-58.8627
G01 X47.8230 Y-58.7941
G01 X47.8105 Y-58.7789
G01 X47.7464 Y-58.7086
G01 X47.6900 Y-58.6571
G01 X47.6900 Y-56.7649
G01 X48.4750 Y-55.9800
G01 X48.5147 Y-55.9365
G01 X48.5242 Y-55.9252
G01 X48.5620 Y-55.8739
G01 X48.5925 Y-55.8235
G01 X48.6018 Y-55.8062
G01 X48.6267 Y-55.7529
G01 X48.6468 Y-55.6975
G01 X48.6512 Y-55.6835
G01 X48.6665 Y-55.6216
G01 X48.6736 Y-55.5755
G01 X48.6980 Y-55.5530
G01 X48.7245 Y-55.5241
G01 X48.7307 Y-55.5165
G01 X48.7483 Y-55.4929
G01 X48.7566 Y-55.4808
G01 X48.7766 Y-55.4470
G01 X48.7936 Y-55.4116
G01 X48.7973 Y-55.4026
G01 X48.8073 Y-55.3749
G01 X48.8130 Y-55.3561
G01 X48.8211 Y-55.3227
G01 X48.8264 Y-55.2888
G01 X48.8280 Y-55.2742
G01 X48.8297 Y-55.2350
G01 X48.8297 Y-53.9850
G01 X48.8276 Y-53.9409
G01 X48.8220 Y-53.9021
G01 X48.8201 Y-53.8925
G01 X48.8130 Y-53.8639
G01 X48.8089 Y-53.8498
G01 X48.7955 Y-53.8129
G01 X48.7811 Y-53.7817
G01 X48.7743 Y-53.7687
G01 X48.7540 Y-53.7351
G01 X48.7307 Y-53.7035
G01 X48.7213 Y-53.6923
G01 X48.6980 Y-53.6670
G01 X48.6727 Y-53.6437
G01 X48.6615 Y-53.6343
G01 X48.6299 Y-53.6110
G01 X48.5963 Y-53.5907
G01 X48.5833 Y-53.5839
G01 X48.5521 Y-53.5695
G01 X48.5106 Y-53.5546
G01 X48.4725 Y-53.5449
G01 X48.4581 Y-53.5422
G01 X48.4241 Y-53.5374
G01 X48.3849 Y-53.5353
G01 X47.5800 Y-53.5353
G01 X47.5457 Y-53.5367
G01 X47.5310 Y-53.5380
G01 X47.4923 Y-53.5439
G01 X47.4494 Y-53.5546
G01 X47.4079 Y-53.5695
G01 X47.3680 Y-53.5884
G01 X47.3301 Y-53.6110
G01 X47.2947 Y-53.6373
G01 X47.2620 Y-53.6670
G01 X47.2323 Y-53.6997
G01 X47.2060 Y-53.7351
G01 X47.1882 Y-53.7645
G01 X47.1811 Y-53.7773
G01 X47.1645 Y-53.8129
G01 X47.1496 Y-53.8544
G01 X47.1410 Y-53.8877
G01 X47.1380 Y-53.9021
G01 X47.1336 Y-53.9312
G01 X47.1317 Y-53.9507
G01 X47.1303 Y-53.9850
G01 X47.1303 Y-55.2350
G01 X47.1317 Y-55.2693
G01 X47.1330 Y-55.2840
G01 X47.1380 Y-55.3179
G01 X47.1414 Y-55.3337
G01 X46.4950 Y-55.9800
G01 X46.4520 Y-56.0272
G01 X46.4429 Y-56.0387
G01 X46.4080 Y-56.0861
G01 X46.3727 Y-56.1450
G01 X46.3433 Y-56.2071
G01 X46.3201 Y-56.2718
G01 X46.3056 Y-56.3289
G01 X46.3018 Y-56.3481
G01 X46.2934 Y-56.4064
G01 X46.2901 Y-56.4701
G01 X46.2900 Y-58.6571
G01 X46.2336 Y-58.7086
G01 X46.1695 Y-58.7789
G01 X46.1570 Y-58.7941
G01 X46.1062 Y-58.8627
G01 X46.0953 Y-58.8790
G01 X46.0466 Y-58.9607
G01 X46.0036 Y-59.0511
G01 X45.9982 Y-59.0648
G01 X45.9663 Y-59.1545
G01 X45.9408 Y-59.2563
G01 X45.9254 Y-59.3601
G01 X45.9203 Y-59.4650
G01 X45.9203 Y-59.9150
G01 X45.9247 Y-60.0101
G01 X45.9266 Y-60.0296
G01 X45.9408 Y-60.1237
G01 X45.9663 Y-60.2255
G01 X45.9982 Y-60.3152
G01 X46.0057 Y-60.3333
G01 X46.0466 Y-60.4193
G01 X46.1005 Y-60.5093
G01 X46.1570 Y-60.5859
G01 X46.1695 Y-60.6011
G01 X46.2336 Y-60.6714
G01 X46.2900 Y-60.7229
G00 Z2.0000
G00 X43.3805 Y-58.8352
G01 F100.00
G01 Z-0.1017
G01 F240.00
G01 X43.3803 Y-60.5350
G01 X43.3824 Y-60.5791
G01 X43.3880 Y-60.6179
G01 X43.3899 Y-60.6275
G01 X43.3970 Y-60.6561
G01 X43.4027 Y-60.6749
G01 X43.4145 Y-60.7071
G01 X43.4334 Y-60.7470
G01 X43.4534 Y-60.7808
G01 X43.4617 Y-60.7929
G01 X43.4823 Y-60.8203
G01 X43.5120 Y-60.8530
G01 X43.5447 Y-60.8827
G01 X43.5721 Y-60.9033
G01 X43.5842 Y-60.9116
G01 X43.6180 Y-60.9316
G01 X43.6579 Y-60.9505
G01 X43.6901 Y-60.9623
G01 X43.7089 Y-60.9680
G01 X43.7375 Y-60.9751
G01 X43.7500 Y-60.9775
G01 X43.7500 Y-66.5291
G01 X43.7148 Y-66.5610
G01 X43.7043 Y-66.5712
G01 X43.6417 Y-66.6403
G01 X43.6325 Y-66.6518
G01 X43.5799 Y-66.7227
G01 X43.5719 Y-66.7351
G01 X43.5242 Y-66.8152
G01 X43.4841 Y-66.8993
G01 X43.4783 Y-66.9128
G01 X43.4485 Y-66.9960
G01 X43.4428 Y-67.0147
G01 X43.4204 Y-67.1052
G01 X43.4065 Y-67.1974
G01 X43.4046 Y-67.2169
G01 X43.4003 Y-67.3100
G01 X43.4046 Y-67.4031
G01 X43.4058 Y-67.4178
G01 X43.4204 Y-67.5148
G01 X43.4455 Y-67.6147
G01 X43.4802 Y-67.7117
G01 X43.5242 Y-67.8048
G01 X43.5772 Y-67.8932
G01 X43.6385 Y-67.9760
G01 X43.7077 Y-68.0523
G01 X43.7840 Y-68.1215
G01 X43.8668 Y-68.1828
G01 X43.9552 Y-68.2358
G01 X44.0483 Y-68.2798
G01 X44.1453 Y-68.3145
G01 X44.2452 Y-68.3396
G01 X44.3471 Y-68.3547
