(G-CODE GENERATED BY FLATCAM v8.994 - www.flatcam.org - Version Date: 2020/11/7)

(Name: OptoIsolation.drl_mill_cnc)
(Type: G-code from Geometry)
(Units: MM)

(Created on Středa, 17 srpna 2022 at 21:08)

(This preprocessor is the default preprocessor used by FlatCAM.)
(It is made to work with MACH3 compatible motion controllers.)

(TOOL DIAMETER: 1.0 mm)
(Feedrate_XY: 50.0 mm/min)
(Feedrate_Z: 15.0 mm/min)
(Feedrate rapids 1500.0 mm/min)

(Z_Cut: -1.6 mm)
(Z_Move: 2.0 mm)
(Z Start: None mm)
(Z End: 10.0 mm)
(X,Y End: None mm)
(Steps per circle: 64)
(Preprocessor Geometry: default)

(X range:    5.4700 ...   56.3200  mm)
(Y range:  -88.1290 ...   -7.8830  mm)

(Spindle Speed: 10000.0 RPM)
G21
G90
G94

G01 F50.00

M5
G00 Z15.0000
G00 X0.0000 Y0.0000
T1
M6    
(MSG, Change to Tool Dia = 1.0000)
M0
G00 Z15.0000

M03 S10000.0
G4 P1.0
G01 F50.00
G00 X9.7700 Y-10.0330
G01 F15.00
G01 Z-1.6000
G01 F50.00
G01 X9.7596 Y-10.2437
G01 X9.7287 Y-10.4524
G01 X9.6774 Y-10.6571
G01 X9.6063 Y-10.8558
G01 X9.5161 Y-11.0465
G01 X9.4077 Y-11.2275
G01 X9.2820 Y-11.3969
G01 X9.1403 Y-11.5533
G01 X8.9839 Y-11.6950
G01 X8.8145 Y-11.8207
G01 X8.6335 Y-11.9291
G01 X8.4428 Y-12.0193
G01 X8.2441 Y-12.0904
G01 X8.0394 Y-12.1417
G01 X7.8307 Y-12.1726
G01 X7.6200 Y-12.1830
G01 X7.4093 Y-12.1726
G01 X7.2006 Y-12.1417
G01 X6.9959 Y-12.0904
G01 X6.7972 Y-12.0193
G01 X6.6065 Y-11.9291
G01 X6.4255 Y-11.8207
G01 X6.2561 Y-11.6950
G01 X6.0997 Y-11.5533
G01 X5.9580 Y-11.3969
G01 X5.8323 Y-11.2275
G01 X5.7239 Y-11.0465
G01 X5.6337 Y-10.8558
G01 X5.5626 Y-10.6571
G01 X5.5113 Y-10.4524
G01 X5.4804 Y-10.2437
G01 X5.4700 Y-10.0330
G01 X5.4804 Y-9.8223
G01 X5.5113 Y-9.6136
G01 X5.5626 Y-9.4089
G01 X5.6337 Y-9.2102
G01 X5.7239 Y-9.0195
G01 X5.8323 Y-8.8385
G01 X5.9580 Y-8.6691
G01 X6.0997 Y-8.5127
G01 X6.2561 Y-8.3710
G01 X6.4255 Y-8.2453
G01 X6.6065 Y-8.1369
G01 X6.7972 Y-8.0467
G01 X6.9959 Y-7.9756
G01 X7.2006 Y-7.9243
G01 X7.4093 Y-7.8934
G01 X7.6200 Y-7.8830
G01 X7.8307 Y-7.8934
G01 X8.0394 Y-7.9243
G01 X8.2441 Y-7.9756
G01 X8.4428 Y-8.0467
G01 X8.6335 Y-8.1369
G01 X8.8145 Y-8.2453
G01 X8.9839 Y-8.3710
G01 X9.1403 Y-8.5127
G01 X9.2820 Y-8.6691
G01 X9.4077 Y-8.8385
G01 X9.5161 Y-9.0195
G01 X9.6063 Y-9.2102
G01 X9.6774 Y-9.4089
G01 X9.7287 Y-9.6136
G01 X9.7596 Y-9.8223
G01 X9.7700 Y-10.0330
G00 Z2.0000
G00 X22.4700 Y-10.0330
G01 F15.00
G01 Z-1.6000
G01 F50.00
G01 X22.4596 Y-10.2437
G01 X22.4287 Y-10.4524
G01 X22.3774 Y-10.6571
G01 X22.3063 Y-10.8558
G01 X22.2161 Y-11.0465
G01 X22.1077 Y-11.2275
G01 X21.9820 Y-11.3969
G01 X21.8403 Y-11.5533
G01 X21.6839 Y-11.6950
G01 X21.5145 Y-11.8207
G01 X21.3335 Y-11.9291
G01 X21.1428 Y-12.0193
G01 X20.9441 Y-12.0904
G01 X20.7394 Y-12.1417
G01 X20.5307 Y-12.1726
G01 X20.3200 Y-12.1830
G01 X20.1093 Y-12.1726
G01 X19.9006 Y-12.1417
G01 X19.6959 Y-12.0904
G01 X19.4972 Y-12.0193
G01 X19.3065 Y-11.9291
G01 X19.1255 Y-11.8207
G01 X18.9561 Y-11.6950
G01 X18.7997 Y-11.5533
G01 X18.6580 Y-11.3969
G01 X18.5323 Y-11.2275
G01 X18.4239 Y-11.0465
G01 X18.3337 Y-10.8558
G01 X18.2626 Y-10.6571
G01 X18.2113 Y-10.4524
G01 X18.1804 Y-10.2437
G01 X18.1700 Y-10.0330
G01 X18.1804 Y-9.8223
G01 X18.2113 Y-9.6136
G01 X18.2626 Y-9.4089
G01 X18.3337 Y-9.2102
G01 X18.4239 Y-9.0195
G01 X18.5323 Y-8.8385
G01 X18.6580 Y-8.6691
G01 X18.7997 Y-8.5127
G01 X18.9561 Y-8.3710
G01 X19.1255 Y-8.2453
G01 X19.3065 Y-8.1369
G01 X19.4972 Y-8.0467
G01 X19.6959 Y-7.9756
G01 X19.9006 Y-7.9243
G01 X20.1093 Y-7.8934
G01 X20.3200 Y-7.8830
G01 X20.5307 Y-7.8934
G01 X20.7394 Y-7.9243
G01 X20.9441 Y-7.9756
G01 X21.1428 Y-8.0467
G01 X21.3335 Y-8.1369
G01 X21.5145 Y-8.2453
G01 X21.6839 Y-8.3710
G01 X21.8403 Y-8.5127
G01 X21.9820 Y-8.6691
G01 X22.1077 Y-8.8385
G01 X22.2161 Y-9.0195
G01 X22.3063 Y-9.2102
G01 X22.3774 Y-9.4089
G01 X22.4287 Y-9.6136
G01 X22.4596 Y-9.8223
G01 X22.4700 Y-10.0330
G00 Z2.0000
G00 X31.3200 Y-25.2500
G01 F15.00
G01 Z-1.6000
G01 F50.00
G01 X31.3147 Y-25.3578
G01 X31.2989 Y-25.4646
G01 X31.2726 Y-25.5693
G01 X31.2363 Y-25.6710
G01 X31.1901 Y-25.7685
G01 X31.1346 Y-25.8611
G01 X31.0703 Y-25.9478
G01 X30.9978 Y-26.0278
G01 X30.9178 Y-26.1003
G01 X30.8311 Y-26.1646
G01 X30.7385 Y-26.2201
G01 X30.6410 Y-26.2663
G01 X30.5393 Y-26.3026
G01 X30.4346 Y-26.3289
G01 X30.3278 Y-26.3447
G01 X30.2200 Y-26.3500
G01 X30.1122 Y-26.3447
G01 X30.0054 Y-26.3289
G01 X29.9007 Y-26.3026
G01 X29.7990 Y-26.2663
G01 X29.7015 Y-26.2201
G01 X29.6089 Y-26.1646
G01 X29.5222 Y-26.1003
G01 X29.4422 Y-26.0278
G01 X29.3697 Y-25.9478
G01 X29.3054 Y-25.8611
G01 X29.2499 Y-25.7685
G01 X29.2037 Y-25.6710
G01 X29.1674 Y-25.5693
G01 X29.1411 Y-25.4646
G01 X29.1253 Y-25.3578
G01 X29.1200 Y-25.2500
G01 X29.1253 Y-25.1422
G01 X29.1411 Y-25.0354
G01 X29.1674 Y-24.9307
G01 X29.2037 Y-24.8290
G01 X29.2499 Y-24.7315
G01 X29.3054 Y-24.6389
G01 X29.3697 Y-24.5522
G01 X29.4422 Y-24.4722
G01 X29.5222 Y-24.3997
G01 X29.6089 Y-24.3354
G01 X29.7015 Y-24.2799
G01 X29.7990 Y-24.2337
G01 X29.9007 Y-24.1974
G01 X30.0054 Y-24.1711
G01 X30.1122 Y-24.1553
G01 X30.2200 Y-24.1500
G01 X30.3278 Y-24.1553
G01 X30.4346 Y-24.1711
G01 X30.5393 Y-24.1974
G01 X30.6410 Y-24.2337
G01 X30.7385 Y-24.2799
G01 X30.8311 Y-24.3354
G01 X30.9178 Y-24.3997
G01 X30.9978 Y-24.4722
G01 X31.0703 Y-24.5522
G01 X31.1346 Y-24.6389
G01 X31.1901 Y-24.7315
G01 X31.2363 Y-24.8290
G01 X31.2726 Y-24.9307
G01 X31.2989 Y-25.0354
G01 X31.3147 Y-25.1422
G01 X31.3200 Y-25.2500
G00 Z2.0000
G00 X56.3200 Y-25.2500
G01 F15.00
G01 Z-1.6000
G01 F50.00
G01 X56.3147 Y-25.3578
G01 X56.2989 Y-25.4646
G01 X56.2726 Y-25.5693
G01 X56.2363 Y-25.6710
G01 X56.1901 Y-25.7685
G01 X56.1346 Y-25.8611
G01 X56.0703 Y-25.9478
G01 X55.9978 Y-26.0278
G01 X55.9178 Y-26.1003
G01 X55.8311 Y-26.1646
G01 X55.7385 Y-26.2201
G01 X55.6410 Y-26.2663
G01 X55.5393 Y-26.3026
G01 X55.4346 Y-26.3289
G01 X55.3278 Y-26.3447
G01 X55.2200 Y-26.3500
G01 X55.1122 Y-26.3447
G01 X55.0054 Y-26.3289
G01 X54.9007 Y-26.3026
G01 X54.7990 Y-26.2663
G01 X54.7015 Y-26.2201
G01 X54.6089 Y-26.1646
G01 X54.5222 Y-26.1003
G01 X54.4422 Y-26.0278
G01 X54.3697 Y-25.9478
G01 X54.3054 Y-25.8611
G01 X54.2499 Y-25.7685
G01 X54.2037 Y-25.6710
G01 X54.1674 Y-25.5693
G01 X54.1411 Y-25.4646
G01 X54.1253 Y-25.3578
G01 X54.1200 Y-25.2500
G01 X54.1253 Y-25.1422
G01 X54.1411 Y-25.0354
G01 X54.1674 Y-24.9307
G01 X54.2037 Y-24.8290
G01 X54.2499 Y-24.7315
G01 X54.3054 Y-24.6389
G01 X54.3697 Y-24.5522
G01 X54.4422 Y-24.4722
G01 X54.5222 Y-24.3997
G01 X54.6089 Y-24.3354
G01 X54.7015 Y-24.2799
G01 X54.7990 Y-24.2337
G01 X54.9007 Y-24.1974
G01 X55.0054 Y-24.1711
G01 X55.1122 Y-24.1553
G01 X55.2200 Y-24.1500
G01 X55.3278 Y-24.1553
G01 X55.4346 Y-24.1711
G01 X55.5393 Y-24.1974
G01 X55.6410 Y-24.2337
G01 X55.7385 Y-24.2799
G01 X55.8311 Y-24.3354
G01 X55.9178 Y-24.3997
G01 X55.9978 Y-24.4722
G01 X56.0703 Y-24.5522
G01 X56.1346 Y-24.6389
G01 X56.1901 Y-24.7315
G01 X56.2363 Y-24.8290
G01 X56.2726 Y-24.9307
G01 X56.2989 Y-25.0354
G01 X56.3147 Y-25.1422
G01 X56.3200 Y-25.2500
G00 Z2.0000
G00 X54.2200 Y-10.0330
G01 F15.00
G01 Z-1.6000
G01 F50.00
G01 X54.2096 Y-10.2437
G01 X54.1787 Y-10.4524
G01 X54.1274 Y-10.6571
G01 X54.0563 Y-10.8558
G01 X53.9661 Y-11.0465
G01 X53.8577 Y-11.2275
G01 X53.7320 Y-11.3969
G01 X53.5903 Y-11.5533
G01 X53.4339 Y-11.6950
G01 X53.2645 Y-11.8207
G01 X53.0835 Y-11.9291
G01 X52.8928 Y-12.0193
G01 X52.6941 Y-12.0904
G01 X52.4894 Y-12.1417
G01 X52.2807 Y-12.1726
G01 X52.0700 Y-12.1830
G01 X51.8593 Y-12.1726
G01 X51.6506 Y-12.1417
G01 X51.4459 Y-12.0904
G01 X51.2472 Y-12.0193
G01 X51.0565 Y-11.9291
G01 X50.8755 Y-11.8207
G01 X50.7061 Y-11.6950
G01 X50.5497 Y-11.5533
G01 X50.4080 Y-11.3969
G01 X50.2823 Y-11.2275
G01 X50.1739 Y-11.0465
G01 X50.0837 Y-10.8558
G01 X50.0126 Y-10.6571
G01 X49.9613 Y-10.4524
G01 X49.9304 Y-10.2437
G01 X49.9200 Y-10.0330
G01 X49.9304 Y-9.8223
G01 X49.9613 Y-9.6136
G01 X50.0126 Y-9.4089
G01 X50.0837 Y-9.2102
G01 X50.1739 Y-9.0195
G01 X50.2823 Y-8.8385
G01 X50.4080 Y-8.6691
G01 X50.5497 Y-8.5127
G01 X50.7061 Y-8.3710
G01 X50.8755 Y-8.2453
G01 X51.0565 Y-8.1369
G01 X51.2472 Y-8.0467
G01 X51.4459 Y-7.9756
G01 X51.6506 Y-7.9243
G01 X51.8593 Y-7.8934
G01 X52.0700 Y-7.8830
G01 X52.2807 Y-7.8934
G01 X52.4894 Y-7.9243
G01 X52.6941 Y-7.9756
G01 X52.8928 Y-8.0467
G01 X53.0835 Y-8.1369
G01 X53.2645 Y-8.2453
G01 X53.4339 Y-8.3710
G01 X53.5903 Y-8.5127
G01 X53.7320 Y-8.6691
G01 X53.8577 Y-8.8385
G01 X53.9661 Y-9.0195
G01 X54.0563 Y-9.2102
G01 X54.1274 Y-9.4089
G01 X54.1787 Y-9.6136
G01 X54.2096 Y-9.8223
G01 X54.2200 Y-10.0330
G00 Z2.0000
G00 X54.2200 Y-85.9790
G01 F15.00
G01 Z-1.6000
G01 F50.00
G01 X54.2096 Y-86.1897
G01 X54.1787 Y-86.3984
G01 X54.1274 Y-86.6031
G01 X54.0563 Y-86.8018
G01 X53.9661 Y-86.9925
G01 X53.8577 Y-87.1735
G01 X53.7320 Y-87.3429
G01 X53.5903 Y-87.4993
G01 X53.4339 Y-87.6410
G01 X53.2645 Y-87.7667
G01 X53.0835 Y-87.8751
G01 X52.8928 Y-87.9653
G01 X52.6941 Y-88.0364
G01 X52.4894 Y-88.0877
G01 X52.2807 Y-88.1186
G01 X52.0700 Y-88.1290
G01 X51.8593 Y-88.1186
G01 X51.6506 Y-88.0877
G01 X51.4459 Y-88.0364
G01 X51.2472 Y-87.9653
G01 X51.0565 Y-87.8751
G01 X50.8755 Y-87.7667
G01 X50.7061 Y-87.6410
G01 X50.5497 Y-87.4993
G01 X50.4080 Y-87.3429
G01 X50.2823 Y-87.1735
G01 X50.1739 Y-86.9925
G01 X50.0837 Y-86.8018
G01 X50.0126 Y-86.6031
G01 X49.9613 Y-86.3984
G01 X49.9304 Y-86.1897
G01 X49.9200 Y-85.9790
G01 X49.9304 Y-85.7683
G01 X49.9613 Y-85.5596
G01 X50.0126 Y-85.3549
G01 X50.0837 Y-85.1562
G01 X50.1739 Y-84.9655
G01 X50.2823 Y-84.7845
G01 X50.4080 Y-84.6151
G01 X50.5497 Y-84.4587
G01 X50.7061 Y-84.3170
G01 X50.8755 Y-84.1913
G01 X51.0565 Y-84.0829
G01 X51.2472 Y-83.9927
G01 X51.4459 Y-83.9216
G01 X51.6506 Y-83.8703
G01 X51.8593 Y-83.8394
G01 X52.0700 Y-83.8290
G01 X52.2807 Y-83.8394
G01 X52.4894 Y-83.8703
G01 X52.6941 Y-83.9216
G01 X52.8928 Y-83.9927
G01 X53.0835 Y-84.0829
G01 X53.2645 Y-84.1913
G01 X53.4339 Y-84.3170
G01 X53.5903 Y-84.4587
G01 X53.7320 Y-84.6151
G01 X53.8577 Y-84.7845
G01 X53.9661 Y-84.9655
G01 X54.0563 Y-85.1562
G01 X54.1274 Y-85.3549
G01 X54.1787 Y-85.5596
G01 X54.2096 Y-85.7683
G01 X54.2200 Y-85.9790
G00 Z2.0000
G00 X9.7700 Y-85.9790
G01 F15.00
G01 Z-1.6000
G01 F50.00
G01 X9.7596 Y-86.1897
G01 X9.7287 Y-86.3984
G01 X9.6774 Y-86.6031
G01 X9.6063 Y-86.8018
G01 X9.5161 Y-86.9925
G01 X9.4077 Y-87.1735
G01 X9.2820 Y-87.3429
G01 X9.1403 Y-87.4993
G01 X8.9839 Y-87.6410
G01 X8.8145 Y-87.7667
G01 X8.6335 Y-87.8751
G01 X8.4428 Y-87.9653
G01 X8.2441 Y-88.0364
G01 X8.0394 Y-88.0877
G01 X7.8307 Y-88.1186
G01 X7.6200 Y-88.1290
G01 X7.4093 Y-88.1186
G01 X7.2006 Y-88.0877
G01 X6.9959 Y-88.0364
G01 X6.7972 Y-87.9653
G01 X6.6065 Y-87.8751
G01 X6.4255 Y-87.7667
G01 X6.2561 Y-87.6410
G01 X6.0997 Y-87.4993
G01 X5.9580 Y-87.3429
G01 X5.8323 Y-87.1735
G01 X5.7239 Y-86.9925
G01 X5.6337 Y-86.8018
G01 X5.5626 Y-86.6031
G01 X5.5113 Y-86.3984
G01 X5.4804 Y-86.1897
G01 X5.4700 Y-85.9790
G01 X5.4804 Y-85.7683
G01 X5.5113 Y-85.5596
G01 X5.5626 Y-85.3549
G01 X5.6337 Y-85.1562
G01 X5.7239 Y-84.9655
G01 X5.8323 Y-84.7845
G01 X5.9580 Y-84.6151
G01 X6.0997 Y-84.4587
G01 X6.2561 Y-84.3170
G01 X6.4255 Y-84.1913
G01 X6.6065 Y-84.0829
G01 X6.7972 Y-83.9927
G01 X6.9959 Y-83.9216
G01 X7.2006 Y-83.8703
G01 X7.4093 Y-83.8394
G01 X7.6200 Y-83.8290
G01 X7.8307 Y-83.8394
G01 X8.0394 Y-83.8703
G01 X8.2441 Y-83.9216
G01 X8.4428 Y-83.9927
G01 X8.6335 Y-84.0829
G01 X8.8145 Y-84.1913
G01 X8.9839 Y-84.3170
G01 X9.1403 Y-84.4587
G01 X9.2820 Y-84.6151
G01 X9.4077 Y-84.7845
G01 X9.5161 Y-84.9655
G01 X9.6063 Y-85.1562
G01 X9.6774 Y-85.3549
G01 X9.7287 Y-85.5596
G01 X9.7596 Y-85.7683
G01 X9.7700 Y-85.9790
G00 Z2.0000
M05
G00 Z2.0000
G00 Z10.00


