(G-CODE GENERATED BY FLATCAM v8.994 - www.flatcam.org - Version Date: 2020/11/7)

(Name: OptoIsolation-B_Cu.gbr_ncc_cnc)
(Type: G-code from Geometry)
(Units: MM)

(Created on Čtvrtek, 18 srpna 2022 at 12:49)

(This preprocessor is the default preprocessor used by FlatCAM.)
(It is made to work with MACH3 compatible motion controllers.)

(TOOL DIAMETER: 1.0 mm)
(Feedrate_XY: 200.0 mm/min)
(Feedrate_Z: 80.0 mm/min)
(Feedrate rapids 1500.0 mm/min)

(Z_Cut: -0.08 mm)
(Z_Move: 2.0 mm)
(Z Start: None mm)
(Z End: 10.0 mm)
(X,Y End: None mm)
(Steps per circle: 64)
(Preprocessor Geometry: default)

(X range:   38.5000 ...   57.5000  mm)
(Y range:  -69.5000 ...  -48.5000  mm)

(Spindle Speed: 10000.0 RPM)
G21
G90
G94

G01 F200.00

M5
G00 Z15.0000
G00 X0.0000 Y0.0000
T1
M6    
(MSG, Change to Tool Dia = 1.0000)
M0
G00 Z15.0000

M03 S10000.0
G4 P1.0
G01 F200.00
G00 X38.5000 Y-48.5000
G01 F80.00
G01 Z-0.0800
G01 F200.00
G01 X57.5000 Y-48.5000
G01 X57.5000 Y-69.5000
G01 X38.5000 Y-69.5000
G01 X38.5000 Y-48.5000
G01 X38.5000 Y-49.4273
G01 X38.8338 Y-49.1171
G01 X39.1942 Y-48.7985
G01 X39.5490 Y-48.5000
G01 X40.8519 Y-48.5000
G01 X40.7972 Y-48.5395
G01 X40.4300 Y-48.8189
G01 X40.0698 Y-49.1072
G01 X39.7167 Y-49.4043
G01 X39.3711 Y-49.7099
G01 X39.0330 Y-50.0239
G01 X38.7028 Y-50.3462
G01 X38.5000 Y-50.5540
G01 X38.5000 Y-51.7319
G01 X38.6593 Y-51.5517
G01 X38.9599 Y-51.2281
G01 X39.2685 Y-50.9119
G01 X39.5847 Y-50.6033
G01 X39.6818 Y-50.5131
G00 Z2.0000
G00 X39.3400 Y-51.9943
G01 F80.00
G01 Z-0.0800
G01 F200.00
G01 X39.2520 Y-52.0890
G01 X38.9724 Y-52.4052
G01 X38.7006 Y-52.7282
G01 X38.5000 Y-52.9789
G01 X39.3472 Y-53.2022
G01 X39.3190 Y-53.2357
G01 X39.0675 Y-53.5500
G01 X38.8238 Y-53.8703
G01 X38.5880 Y-54.1965
G01 X38.5000 Y-54.3248
G01 X39.1856 Y-53.9355
G01 X39.1850 Y-53.9600
G01 X39.1850 Y-55.2600
G01 X39.1856 Y-55.2845
G01 X39.1876 Y-55.3213
G01 X39.1886 Y-55.3335
G01 X39.1916 Y-55.3579
G01 X39.1972 Y-55.3943
G01 X39.1994 Y-55.4063
G01 X39.2020 Y-55.4183
G01 X39.2107 Y-55.4541
G01 X39.2173 Y-55.4777
G01 X39.2210 Y-55.4894
G01 X39.2333 Y-55.5241
G01 X39.2421 Y-55.5470
G01 X39.2469 Y-55.5583
G01 X39.2679 Y-55.6027
G01 X39.2795 Y-55.6243
G01 X39.2857 Y-55.6349
G01 X39.3047 Y-55.6664
G01 X39.3114 Y-55.6767
G01 X39.3183 Y-55.6868
G01 X39.3401 Y-55.7164
G01 X39.3476 Y-55.7262
G01 X39.3631 Y-55.7452
G01 X39.3961 Y-55.7815
G01 X39.4047 Y-55.7903
G01 X39.4224 Y-55.8073
G01 X39.4498 Y-55.8319
G01 X39.4592 Y-55.8398
G01 X39.4688 Y-55.8474
G01 X39.4983 Y-55.8695
G01 X39.5183 Y-55.8836
G01 X39.5286 Y-55.8903
G01 X39.5601 Y-55.9093
G01 X39.5707 Y-55.9155
G01 X39.5923 Y-55.9271
G01 X39.6367 Y-55.9481
G01 X39.6594 Y-55.9575
G01 X39.7056 Y-55.9740
G01 X39.7291 Y-55.9811
G01 X39.7767 Y-55.9930
G01 X39.8007 Y-55.9978
G01 X39.8493 Y-56.0050
G01 X39.8737 Y-56.0074
G01 X39.9105 Y-56.0094
G01 X39.9350 Y-56.0100
G01 X40.7600 Y-56.0100
G01 X40.7723 Y-56.0098
G01 X40.8090 Y-56.0082
G01 X40.8335 Y-56.0064
G01 X40.8579 Y-56.0034
G01 X40.8943 Y-55.9978
G01 X40.9183 Y-55.9930
G01 X40.9541 Y-55.9843
G01 X40.9777 Y-55.9777
G01 X41.0010 Y-55.9700
G01 X41.0356 Y-55.9575
G01 X41.0583 Y-55.9481
G01 X41.0916 Y-55.9325
G01 X41.1135 Y-55.9214
G01 X41.1349 Y-55.9093
G01 X41.1664 Y-55.8903
G01 X41.1868 Y-55.8767
G01 X41.2164 Y-55.8549
G01 X41.2358 Y-55.8398
G01 X41.2544 Y-55.8237
G01 X41.2815 Y-55.7989
G01 X41.2903 Y-55.7903
G01 X41.3073 Y-55.7726
G01 X41.3319 Y-55.7452
G01 X41.3398 Y-55.7358
G01 X41.3474 Y-55.7262
G01 X41.3695 Y-55.6967
G01 X41.3836 Y-55.6767
G01 X41.3967 Y-55.6559
G01 X41.4155 Y-55.6243
G01 X41.4214 Y-55.6135
G01 X41.4271 Y-55.6027
G01 X41.4430 Y-55.5695
G01 X41.4529 Y-55.5470
G01 X41.4575 Y-55.5356
G01 X41.4700 Y-55.5010
G01 X41.4777 Y-55.4777
G01 X41.4843 Y-55.4541
G01 X41.4930 Y-55.4183
G01 X41.4956 Y-55.4063
G01 X41.4978 Y-55.3943
G01 X41.5034 Y-55.3579
G01 X41.5064 Y-55.3335
G01 X41.5074 Y-55.3213
G01 X41.5094 Y-55.2845
G01 X41.5100 Y-55.2600
G01 X41.5100 Y-53.9600
G01 X41.5094 Y-53.9355
G01 X41.5074 Y-53.8987
G01 X41.5064 Y-53.8865
G01 X41.5034 Y-53.8621
G01 X41.4978 Y-53.8257
G01 X41.4956 Y-53.8137
G01 X41.4902 Y-53.7897
G01 X41.4811 Y-53.7541
G01 X41.4777 Y-53.7423
G01 X41.4700 Y-53.7190
G01 X41.4575 Y-53.6844
G01 X41.4529 Y-53.6730
G01 X41.4430 Y-53.6505
G01 X41.4271 Y-53.6173
G01 X41.4214 Y-53.6065
G01 X41.4093 Y-53.5851
G01 X41.3903 Y-53.5536
G01 X41.3802 Y-53.5383
G01 X41.4454 Y-53.4900
G01 X41.4647 Y-53.4749
G01 X41.4833 Y-53.4589
G01 X41.5415 Y-53.4062
G01 X41.5592 Y-53.3892
G01 X41.5762 Y-53.3715
G01 X41.6289 Y-53.3133
G01 X41.6449 Y-53.2947
G01 X41.6600 Y-53.2754
G01 X41.7068 Y-53.2123
G01 X41.7209 Y-53.1922
G01 X41.7340 Y-53.1715
G01 X41.7744 Y-53.1042
G01 X41.7865 Y-53.0828
G01 X41.7975 Y-53.0609
G01 X41.8311 Y-52.9899
G01 X41.8410 Y-52.9675
G01 X41.8499 Y-52.9446
G01 X41.8763 Y-52.8707
G01 X41.8840 Y-52.8474
G01 X41.8906 Y-52.8237
G01 X41.9100 Y-52.7461
G01 X41.9294 Y-52.8237
G01 X41.9360 Y-52.8474
G01 X41.9437 Y-52.8707
G01 X41.9701 Y-52.9446
G01 X41.9790 Y-52.9675
G01 X41.9889 Y-52.9899
G01 X42.0225 Y-53.0609
G01 X42.0335 Y-53.0828
G01 X42.0456 Y-53.1042
G01 X42.0860 Y-53.1715
G01 X42.0991 Y-53.1922
G01 X42.1132 Y-53.2123
G01 X42.1600 Y-53.2754
G01 X42.1751 Y-53.2947
G01 X42.1911 Y-53.3133
G01 X42.2438 Y-53.3715
G01 X42.2608 Y-53.3892
G01 X42.2785 Y-53.4062
G01 X42.3367 Y-53.4589
G01 X42.3553 Y-53.4749
G01 X42.3746 Y-53.4900
G01 X42.4398 Y-53.5383
G01 X42.4297 Y-53.5536
G01 X42.4107 Y-53.5851
G01 X42.4045 Y-53.5957
G01 X42.3929 Y-53.6173
G01 X42.3770 Y-53.6505
G01 X42.3671 Y-53.6730
G01 X42.3625 Y-53.6844
G01 X42.3500 Y-53.7190
G01 X42.3423 Y-53.7423
G01 X42.3389 Y-53.7541
G01 X42.3298 Y-53.7897
G01 X42.3244 Y-53.8137
G01 X42.3222 Y-53.8257
G01 X42.3166 Y-53.8621
G01 X42.3136 Y-53.8865
G01 X42.3126 Y-53.8987
G01 X42.3106 Y-53.9355
G01 X42.3100 Y-53.9600
G01 X42.3102 Y-55.2723
G01 X42.3118 Y-55.3090
G01 X42.3136 Y-55.3335
G01 X42.3166 Y-55.3579
G01 X42.3222 Y-55.3943
G01 X42.3270 Y-55.4183
G01 X42.3357 Y-55.4541
G01 X42.3423 Y-55.4777
G01 X42.3500 Y-55.5010
G01 X42.3625 Y-55.5356
G01 X42.3719 Y-55.5583
G01 X42.3875 Y-55.5916
G01 X42.3986 Y-55.6135
G01 X42.4045 Y-55.6243
G01 X42.4233 Y-55.6559
G01 X42.4364 Y-55.6767
G01 X42.4505 Y-55.6967
G01 X42.4722 Y-55.7258
G01 X42.4722 Y-55.7333
G01 X41.2027 Y-57.0028
G01 X41.1858 Y-57.0206
G01 X41.1528 Y-57.0570
G01 X41.1368 Y-57.0755
G01 X41.1217 Y-57.0949
G01 X41.0925 Y-57.1343
G01 X41.0783 Y-57.1544
G01 X41.0652 Y-57.1751
G01 X41.0400 Y-57.2172
G01 X41.0338 Y-57.2278
G01 X41.0222 Y-57.2495
G01 X40.9958 Y-57.3049
G01 X40.9859 Y-57.3273
G01 X40.9771 Y-57.3502
G01 X40.9605 Y-57.3964
G01 X40.9528 Y-57.4197
G01 X40.9463 Y-57.4434
G01 X40.9343 Y-57.4910
G01 X40.9290 Y-57.5149
G01 X40.9248 Y-57.5391
G01 X40.9159 Y-57.5998
G01 X40.9135 Y-57.6243
G01 X40.9104 Y-57.6856
G01 X40.9097 Y-57.7101
G01 X40.9097 Y-63.3868
G01 X40.8776 Y-63.4304
G01 X40.8640 Y-63.4508
G01 X40.8197 Y-63.5244
G01 X40.8076 Y-63.5458
G01 X40.8019 Y-63.5566
G01 X40.7651 Y-63.6342
G01 X40.7552 Y-63.6566
G01 X40.7463 Y-63.6795
G01 X40.7215 Y-63.7488
G01 X40.7138 Y-63.7721
G01 X40.7104 Y-63.7839
G01 X40.6894 Y-63.8672
G01 X40.6840 Y-63.8911
G01 X40.6798 Y-63.9153
G01 X40.6690 Y-63.9881
G01 X40.6660 Y-64.0125
G01 X40.6642 Y-64.0370
G01 X40.6606 Y-64.1105
G01 X40.6600 Y-64.1350
G01 X40.6606 Y-64.1595
G01 X40.6642 Y-64.2330
G01 X40.6660 Y-64.2575
G01 X40.6690 Y-64.2819
G01 X40.6798 Y-64.3547
G01 X40.6840 Y-64.3789
G01 X40.6894 Y-64.4028
G01 X40.7073 Y-64.4742
G01 X40.7138 Y-64.4979
G01 X40.7215 Y-64.5212
G01 X40.7463 Y-64.5905
G01 X40.7552 Y-64.6134
G01 X40.7651 Y-64.6358
G01 X40.7966 Y-64.7023
G01 X40.8076 Y-64.7242
G01 X40.8197 Y-64.7456
G01 X40.8575 Y-64.8087
G01 X40.8707 Y-64.8295
G01 X40.8848 Y-64.8495
G01 X40.9361 Y-64.9184
G01 X40.9516 Y-64.9374
G01 X40.9598 Y-64.9466
G01 X41.0092 Y-65.0011
G01 X41.0261 Y-65.0189
G01 X41.0439 Y-65.0358
G01 X41.0984 Y-65.0852
G01 X41.1170 Y-65.1013
G01 X41.1364 Y-65.1164
G01 X41.1955 Y-65.1602
G01 X41.2155 Y-65.1743
G01 X41.2363 Y-65.1875
G01 X41.2994 Y-65.2253
G01 X41.3208 Y-65.2374
G01 X41.3427 Y-65.2484
G01 X41.4204 Y-65.2850
G01 X41.4430 Y-65.2944
G01 X41.5238 Y-65.3235
G01 X41.5471 Y-65.3312
G01 X41.5708 Y-65.3377
G01 X41.6541 Y-65.3584
G01 X41.6782 Y-65.3632
G01 X41.6903 Y-65.3652
G01 X41.7631 Y-65.3760
G01 X41.7875 Y-65.3790
G01 X41.8120 Y-65.3808
G01 X41.8855 Y-65.3844
G01 X41.9100 Y-65.3850
G01 X41.9345 Y-65.3844
G01 X42.0080 Y-65.3808
G01 X42.0325 Y-65.3790
G01 X42.0569 Y-65.3760
G01 X42.1297 Y-65.3652
G01 X42.1539 Y-65.3610
G01 X42.1778 Y-65.3556
G01 X42.2492 Y-65.3377
G01 X42.2729 Y-65.3312
G01 X42.2962 Y-65.3235
G01 X42.3655 Y-65.2987
G01 X42.3884 Y-65.2898
G01 X42.4108 Y-65.2799
G01 X42.4773 Y-65.2484
G01 X42.4992 Y-65.2374
G01 X42.5206 Y-65.2253
G01 X42.5837 Y-65.1875
G01 X42.6045 Y-65.1743
G01 X42.6245 Y-65.1602
G01 X42.6836 Y-65.1164
G01 X42.7030 Y-65.1013
G01 X42.7216 Y-65.0852
G01 X42.7761 Y-65.0358
G01 X42.7939 Y-65.0189
G01 X42.8108 Y-65.0011
G01 X42.8602 Y-64.9466
G01 X42.8763 Y-64.9280
G01 X42.8914 Y-64.9086
G01 X42.9352 Y-64.8495
G01 X42.9493 Y-64.8295
G01 X42.9625 Y-64.8087
G01 X43.0003 Y-64.7456
G01 X43.0124 Y-64.7242
G01 X43.0234 Y-64.7023
G01 X43.0549 Y-64.6358
G01 X43.0648 Y-64.6134
G01 X43.0737 Y-64.5905
G01 X43.0985 Y-64.5212
G01 X43.1062 Y-64.4979
G01 X43.1127 Y-64.4742
G01 X43.1334 Y-64.3909
G01 X43.1382 Y-64.3668
G01 X43.1402 Y-64.3547
G01 X43.1510 Y-64.2819
G01 X43.1540 Y-64.2575
G01 X43.1558 Y-64.2330
G01 X43.1594 Y-64.1595
G01 X43.1600 Y-64.1350
G01 X43.1594 Y-64.1105
G01 X43.1558 Y-64.0370
G01 X43.1540 Y-64.0125
G01 X43.1510 Y-63.9881
G01 X43.1402 Y-63.9153
G01 X43.1360 Y-63.8911
G01 X43.1334 Y-63.8791
G01 X43.1127 Y-63.7958
G01 X43.1062 Y-63.7721
G01 X43.0985 Y-63.7488
G01 X43.0737 Y-63.6795
G01 X43.0694 Y-63.6680
G01 X43.0600 Y-63.6454
G01 X43.0234 Y-63.5677
G01 X43.0181 Y-63.5566
G01 X43.0065 Y-63.5350
G01 X42.9560 Y-63.4508
G01 X42.9424 Y-63.4304
G01 X42.9103 Y-63.3868
G01 X42.9103 Y-58.1244
G01 X43.4497 Y-57.5849
G01 X43.4497 Y-58.1989
G01 X43.4236 Y-58.2147
G01 X43.4133 Y-58.2214
G01 X43.3933 Y-58.2355
G01 X43.3638 Y-58.2576
G01 X43.3448 Y-58.2731
G01 X43.3356 Y-58.2813
G01 X43.3085 Y-58.3061
G01 X43.2997 Y-58.3147
G01 X43.2827 Y-58.3324
G01 X43.2581 Y-58.3598
G01 X43.2502 Y-58.3692
G01 X43.2351 Y-58.3886
G01 X43.2133 Y-58.4182
G01 X43.2064 Y-58.4283
G01 X43.1933 Y-58.4491
G01 X43.1745 Y-58.4807
G01 X43.1629 Y-58.5023
G01 X43.1575 Y-58.5134
G01 X43.1419 Y-58.5467
G01 X43.1371 Y-58.5580
G01 X43.1283 Y-58.5809
G01 X43.1160 Y-58.6156
G01 X43.1123 Y-58.6273
G01 X43.1057 Y-58.6509
G01 X43.0970 Y-58.6867
G01 X43.0944 Y-58.6987
G01 X43.0902 Y-58.7229
G01 X43.0850 Y-58.7593
G01 X43.0836 Y-58.7715
G01 X43.0818 Y-58.7960
G01 X43.0802 Y-58.8327
G01 X43.0800 Y-58.8450
G01 X43.0800 Y-60.5350
G01 X43.0806 Y-60.5595
G01 X43.0826 Y-60.5963
G01 X43.0850 Y-60.6207
G01 X43.0902 Y-60.6571
G01 X43.0922 Y-60.6693
G01 X43.0970 Y-60.6933
G01 X43.1089 Y-60.7409
G01 X43.1123 Y-60.7527
G01 X43.1200 Y-60.7760
G01 X43.1325 Y-60.8106
G01 X43.1371 Y-60.8220
G01 X43.1419 Y-60.8333
G01 X43.1575 Y-60.8666
G01 X43.1686 Y-60.8885
G01 X43.1745 Y-60.8993
G01 X43.1933 Y-60.9309
G01 X43.1997 Y-60.9414
G01 X43.2133 Y-60.9618
G01 X43.2426 Y-61.0012
G01 X43.2581 Y-61.0202
G01 X43.2911 Y-61.0565
G01 X43.3085 Y-61.0739
G01 X43.3174 Y-61.0823
G01 X43.3448 Y-61.1069
G01 X43.3542 Y-61.1148
G01 X43.3736 Y-61.1299
G01 X43.4032 Y-61.1517
G01 X43.4133 Y-61.1586
G01 X43.4236 Y-61.1653
G01 X43.4497 Y-61.1811
G01 X43.4497 Y-66.4049
G01 X43.4143 Y-66.4442
G01 X43.3988 Y-66.4631
G01 X43.3345 Y-66.5499
G01 X43.3275 Y-66.5600
G01 X43.3144 Y-66.5807
G01 X43.2715 Y-66.6523
G01 X43.2594 Y-66.6736
G01 X43.2538 Y-66.6845
G01 X43.2076 Y-66.7821
G01 X43.1982 Y-66.8048
G01 X43.1800 Y-66.8552
G01 X43.1618 Y-66.8048
G01 X43.1524 Y-66.7821
G01 X43.1062 Y-66.6845
G01 X43.0947 Y-66.6629
G01 X43.0885 Y-66.6523
G01 X43.0392 Y-66.5703
G01 X43.0325 Y-66.5600
G01 X43.0184 Y-66.5399
G01 X42.9687 Y-66.4729
G01 X42.9536 Y-66.4536
G01 X42.9375 Y-66.4350
G01 X42.8815 Y-66.3732
G01 X42.8646 Y-66.3554
G01 X42.8558 Y-66.3468
G01 X42.7758 Y-66.2743
G01 X42.7664 Y-66.2664
G01 X42.7471 Y-66.2513
G01 X42.6801 Y-66.2016
G01 X42.6600 Y-66.1875
G01 X42.6393 Y-66.1744
G01 X42.5677 Y-66.1315
G01 X42.5464 Y-66.1194
G01 X42.5245 Y-66.1084
G01 X42.4491 Y-66.0727
G01 X42.4266 Y-66.0628
G01 X42.4037 Y-66.0539
G01 X42.3252 Y-66.0258
G01 X42.3019 Y-66.0181
G01 X42.2901 Y-66.0147
G01 X42.1854 Y-65.9885
G01 X42.1734 Y-65.9859
G01 X42.1492 Y-65.9817
G01 X42.0667 Y-65.9695
G01 X42.0423 Y-65.9665
G01 X42.0178 Y-65.9647
G01 X41.9345 Y-65.9606
G01 X41.9100 Y-65.9600
G01 X41.8855 Y-65.9606
G01 X41.8022 Y-65.9647
G01 X41.7777 Y-65.9665
G01 X41.7533 Y-65.9695
G01 X41.6708 Y-65.9817
G01 X41.6466 Y-65.9859
G01 X41.6227 Y-65.9913
G01 X41.5418 Y-66.0116
G01 X41.5181 Y-66.0181
G01 X41.4948 Y-66.0258
G01 X41.4163 Y-66.0539
G01 X41.3934 Y-66.0628
G01 X41.3709 Y-66.0727
G01 X41.2955 Y-66.1084
G01 X41.2736 Y-66.1194
G01 X41.2523 Y-66.1315
G01 X41.1807 Y-66.1744
G01 X41.1703 Y-66.1808
G01 X41.1499 Y-66.1945
G01 X41.0729 Y-66.2513
G01 X41.0536 Y-66.2664
G01 X41.0350 Y-66.2825
G01 X40.9732 Y-66.3385
G01 X40.9554 Y-66.3554
G01 X40.9385 Y-66.3732
G01 X40.8825 Y-66.4350
G01 X40.8664 Y-66.4536
G01 X40.8513 Y-66.4729
G01 X40.8016 Y-66.5399
G01 X40.7875 Y-66.5600
G01 X40.7744 Y-66.5807
G01 X40.7315 Y-66.6523
G01 X40.7194 Y-66.6736
G01 X40.7084 Y-66.6955
G01 X40.6727 Y-66.7709
G01 X40.6628 Y-66.7934
G01 X40.6539 Y-66.8163
G01 X40.6258 Y-66.8948
G01 X40.6181 Y-66.9181
G01 X40.6116 Y-66.9418
G01 X40.5913 Y-67.0227
G01 X40.5859 Y-67.0466
G01 X40.5817 Y-67.0708
G01 X40.5695 Y-67.1533
G01 X40.5665 Y-67.1777
G01 X40.5647 Y-67.2022
G01 X40.5606 Y-67.2855
G01 X40.5602 Y-67.2977
G01 X40.5602 Y-67.3223
G01 X40.5654 Y-67.4301
G01 X40.5679 Y-67.4545
G01 X40.5695 Y-67.4667
G01 X40.5817 Y-67.5492
G01 X40.5859 Y-67.5734
G01 X40.5913 Y-67.5973
G01 X40.6116 Y-67.6782
G01 X40.6147 Y-67.6901
G01 X40.6218 Y-67.7136
G01 X40.6539 Y-67.8037
G01 X40.6628 Y-67.8266
G01 X40.6727 Y-67.8491
G01 X40.7084 Y-67.9245
G01 X40.7194 Y-67.9464
G01 X40.7315 Y-67.9677
G01 X40.7744 Y-68.0393
G01 X40.7875 Y-68.0600
G01 X40.8016 Y-68.0801
G01 X40.8513 Y-68.1471
G01 X40.8664 Y-68.1664
G01 X40.8825 Y-68.1850
G01 X40.9385 Y-68.2468
G01 X40.9554 Y-68.2646
G01 X40.9732 Y-68.2815
G01 X41.0350 Y-68.3375
G01 X41.0536 Y-68.3536
G01 X41.0729 Y-68.3687
G01 X41.1399 Y-68.4184
G01 X41.1600 Y-68.4325
G01 X41.1807 Y-68.4456
G01 X41.2523 Y-68.4885
G01 X41.2736 Y-68.5006
G01 X41.2955 Y-68.5116
G01 X41.3709 Y-68.5473
G01 X41.3934 Y-68.5572
G01 X41.4163 Y-68.5661
G01 X41.4948 Y-68.5942
G01 X41.5181 Y-68.6019
G01 X41.5418 Y-68.6084
G01 X41.6227 Y-68.6287
G01 X41.6466 Y-68.6341
G01 X41.6708 Y-68.6383
G01 X41.7533 Y-68.6505
G01 X41.7777 Y-68.6535
G01 X41.8022 Y-68.6553
G01 X41.8855 Y-68.6594
G01 X41.9100 Y-68.6600
G01 X41.9345 Y-68.6594
G01 X42.0178 Y-68.6553
G01 X42.0423 Y-68.6535
G01 X42.0667 Y-68.6505
G01 X42.1492 Y-68.6383
G01 X42.1734 Y-68.6341
G01 X42.1854 Y-68.6315
G01 X42.2901 Y-68.6053
G01 X42.3136 Y-68.5982
G01 X42.3252 Y-68.5942
G01 X42.4037 Y-68.5661
G01 X42.4266 Y-68.5572
G01 X42.4491 Y-68.5473
G01 X42.5245 Y-68.5116
G01 X42.5464 Y-68.5006
G01 X42.5677 Y-68.4885
G01 X42.6393 Y-68.4456
G01 X42.6600 Y-68.4325
G01 X42.6801 Y-68.4184
G01 X42.7471 Y-68.3687
G01 X42.7664 Y-68.3536
G01 X42.7758 Y-68.3457
G01 X42.8468 Y-68.2815
G01 X42.8646 Y-68.2646
G01 X42.8815 Y-68.2468
G01 X42.9375 Y-68.1850
G01 X42.9457 Y-68.1758
G01 X42.9612 Y-68.1569
G01 X43.0255 Y-68.0701
G01 X43.0325 Y-68.0600
G01 X43.0456 Y-68.0393
G01 X43.0885 Y-67.9677
G01 X43.1006 Y-67.9464
G01 X43.1062 Y-67.9355
G01 X43.1524 Y-67.8379
G01 X43.1618 Y-67.8152
G01 X43.1800 Y-67.7648
G01 X43.1982 Y-67.8152
G01 X43.2076 Y-67.8379
G01 X43.2484 Y-67.9245
G01 X43.2594 Y-67.9464
G01 X43.2653 Y-67.9571
G01 X43.3144 Y-68.0393
G01 X43.3275 Y-68.0600
G01 X43.3416 Y-68.0801
G01 X43.3988 Y-68.1569
G01 X43.4143 Y-68.1758
G01 X43.4225 Y-68.1850
G01 X43.4868 Y-68.2558
G01 X43.4954 Y-68.2646
G01 X43.5132 Y-68.2815
G01 X43.5750 Y-68.3375
G01 X43.5936 Y-68.3536
G01 X43.6129 Y-68.3687
G01 X43.6799 Y-68.4184
G01 X43.6899 Y-68.4255
G01 X43.7103 Y-68.4392
G01 X43.7923 Y-68.4885
G01 X43.8136 Y-68.5006
G01 X43.8355 Y-68.5116
G01 X43.9109 Y-68.5473
G01 X43.9334 Y-68.5572
G01 X43.9563 Y-68.5661
G01 X44.0348 Y-68.5942
G01 X44.0581 Y-68.6019
G01 X44.0818 Y-68.6084
G01 X44.1627 Y-68.6287
G01 X44.1866 Y-68.6341
G01 X44.1987 Y-68.6363
G01 X44.2933 Y-68.6505
G01 X44.3177 Y-68.6535
G01 X44.3422 Y-68.6553
G01 X44.4255 Y-68.6594
G01 X44.4500 Y-68.6600
G01 X44.4745 Y-68.6594
G01 X44.5578 Y-68.6553
G01 X44.5823 Y-68.6535
G01 X44.6067 Y-68.6505
G01 X44.6892 Y-68.6383
G01 X44.7134 Y-68.6341
G01 X44.7373 Y-68.6287
G01 X44.8182 Y-68.6084
G01 X44.8419 Y-68.6019
G01 X44.8652 Y-68.5942
G01 X44.9437 Y-68.5661
G01 X44.9666 Y-68.5572
G01 X44.9891 Y-68.5473
G01 X45.0645 Y-68.5116
G01 X45.0864 Y-68.5006
G01 X45.1077 Y-68.4885
G01 X45.1793 Y-68.4456
G01 X45.2000 Y-68.4325
G01 X45.2201 Y-68.4184
G01 X45.2969 Y-68.3612
G01 X45.3158 Y-68.3457
G01 X45.3250 Y-68.3375
G01 X45.3868 Y-68.2815
G01 X45.4046 Y-68.2646
G01 X45.4215 Y-68.2468
G01 X45.4775 Y-68.1850
G01 X45.4936 Y-68.1664
G01 X45.5087 Y-68.1471
G01 X45.5655 Y-68.0701
G01 X45.5725 Y-68.0600
G01 X45.5856 Y-68.0393
G01 X45.6285 Y-67.9677
G01 X45.6406 Y-67.9464
G01 X45.6462 Y-67.9355
G01 X45.6924 Y-67.8379
G01 X45.7018 Y-67.8152
G01 X45.7200 Y-67.7648
G01 X45.7382 Y-67.8152
G01 X45.7476 Y-67.8379
G01 X45.7884 Y-67.9245
G01 X45.7994 Y-67.9464
G01 X45.8053 Y-67.9571
G01 X45.8544 Y-68.0393
G01 X45.8675 Y-68.0600
G01 X45.8816 Y-68.0801
G01 X45.9388 Y-68.1569
G01 X45.9543 Y-68.1758
G01 X45.9625 Y-68.1850
G01 X46.0268 Y-68.2558
G01 X46.0354 Y-68.2646
G01 X46.0532 Y-68.2815
G01 X46.1150 Y-68.3375
G01 X46.1336 Y-68.3536
G01 X46.1529 Y-68.3687
G01 X46.2199 Y-68.4184
G01 X46.2400 Y-68.4325
G01 X46.2503 Y-68.4392
G01 X46.3323 Y-68.4885
G01 X46.3536 Y-68.5006
G01 X46.3755 Y-68.5116
G01 X46.4621 Y-68.5524
G01 X46.4848 Y-68.5618
G01 X46.4963 Y-68.5661
G01 X46.5748 Y-68.5942
G01 X46.5981 Y-68.6019
G01 X46.6218 Y-68.6084
G01 X46.7027 Y-68.6287
G01 X46.7266 Y-68.6341
G01 X46.7508 Y-68.6383
G01 X46.8333 Y-68.6505
G01 X46.8577 Y-68.6535
G01 X46.8822 Y-68.6553
G01 X46.9655 Y-68.6594
G01 X46.9900 Y-68.6600
G01 X47.0145 Y-68.6594
G01 X47.1101 Y-68.6546
G01 X47.1345 Y-68.6521
G01 X47.1467 Y-68.6505
G01 X47.2292 Y-68.6383
G01 X47.2534 Y-68.6341
G01 X47.2773 Y-68.6287
G01 X47.3582 Y-68.6084
G01 X47.3819 Y-68.6019
G01 X47.4052 Y-68.5942
G01 X47.4837 Y-68.5661
G01 X47.5066 Y-68.5572
G01 X47.5291 Y-68.5473
G01 X47.6045 Y-68.5116
G01 X47.6264 Y-68.5006
G01 X47.6477 Y-68.4885
G01 X47.7193 Y-68.4456
G01 X47.7400 Y-68.4325
G01 X47.7601 Y-68.4184
G01 X47.8369 Y-68.3612
G01 X47.8558 Y-68.3457
G01 X47.8650 Y-68.3375
G01 X47.9268 Y-68.2815
G01 X47.9446 Y-68.2646
G01 X47.9615 Y-68.2468
G01 X48.0175 Y-68.1850
G01 X48.0336 Y-68.1664
G01 X48.0487 Y-68.1471
G01 X48.1055 Y-68.0701
G01 X48.1125 Y-68.0600
G01 X48.1256 Y-68.0393
G01 X48.1685 Y-67.9677
G01 X48.1747 Y-67.9571
G01 X48.1862 Y-67.9355
G01 X48.2324 Y-67.8379
G01 X48.2418 Y-67.8152
G01 X48.2600 Y-67.7648
G01 X48.2782 Y-67.8152
G01 X48.2876 Y-67.8379
G01 X48.3284 Y-67.9245
G01 X48.3394 Y-67.9464
G01 X48.3453 Y-67.9571
G01 X48.3944 Y-68.0393
G01 X48.4075 Y-68.0600
G01 X48.4216 Y-68.0801
G01 X48.4788 Y-68.1569
G01 X48.4943 Y-68.1758
G01 X48.5025 Y-68.1850
G01 X48.5668 Y-68.2558
G01 X48.5842 Y-68.2732
G01 X48.5932 Y-68.2815
G01 X48.6550 Y-68.3375
G01 X48.6736 Y-68.3536
G01 X48.6929 Y-68.3687
G01 X48.7599 Y-68.4184
G01 X48.7800 Y-68.4325
G01 X48.7903 Y-68.4392
G01 X48.8723 Y-68.4885
G01 X48.8936 Y-68.5006
G01 X48.9155 Y-68.5116
G01 X49.0021 Y-68.5524
G01 X49.0248 Y-68.5618
G01 X49.0363 Y-68.5661
G01 X49.1148 Y-68.5942
G01 X49.1381 Y-68.6019
G01 X49.1618 Y-68.6084
G01 X49.2427 Y-68.6287
G01 X49.2666 Y-68.6341
G01 X49.2908 Y-68.6383
G01 X49.3733 Y-68.6505
G01 X49.3977 Y-68.6535
G01 X49.4222 Y-68.6553
G01 X49.5055 Y-68.6594
G01 X49.5300 Y-68.6600
G01 X49.5545 Y-68.6594
G01 X49.6378 Y-68.6553
G01 X49.6623 Y-68.6535
G01 X49.6867 Y-68.6505
G01 X49.7692 Y-68.6383
G01 X49.7934 Y-68.6341
G01 X49.8054 Y-68.6315
G01 X49.8982 Y-68.6084
G01 X49.9219 Y-68.6019
G01 X49.9452 Y-68.5942
G01 X50.0352 Y-68.5618
G01 X50.0466 Y-68.5572
G01 X50.0691 Y-68.5473
G01 X50.1445 Y-68.5116
G01 X50.1664 Y-68.5006
G01 X50.1877 Y-68.4885
G01 X50.2593 Y-68.4456
G01 X50.2800 Y-68.4325
G01 X50.3001 Y-68.4184
G01 X50.3769 Y-68.3612
G01 X50.3864 Y-68.3536
G01 X50.4050 Y-68.3375
G01 X50.4668 Y-68.2815
G01 X50.4846 Y-68.2646
G01 X50.5015 Y-68.2468
G01 X50.5575 Y-68.1850
G01 X50.5736 Y-68.1664
G01 X50.5887 Y-68.1471
G01 X50.6455 Y-68.0701
G01 X50.6592 Y-68.0497
G01 X50.6656 Y-68.0393
G01 X50.7085 Y-67.9677
G01 X50.7147 Y-67.9571
G01 X50.7262 Y-67.9355
G01 X50.7724 Y-67.8379
G01 X50.7818 Y-67.8152
G01 X50.8000 Y-67.7648
G01 X50.8182 Y-67.8152
G01 X50.8276 Y-67.8379
G01 X50.8738 Y-67.9355
G01 X50.8853 Y-67.9571
G01 X50.8915 Y-67.9677
G01 X50.9344 Y-68.0393
G01 X50.9408 Y-68.0497
G01 X50.9545 Y-68.0701
G01 X51.0113 Y-68.1471
G01 X51.0264 Y-68.1664
G01 X51.0425 Y-68.1850
G01 X51.0985 Y-68.2468
G01 X51.1154 Y-68.2646
G01 X51.1332 Y-68.2815
G01 X51.1950 Y-68.3375
G01 X51.2136 Y-68.3536
G01 X51.2231 Y-68.3612
G01 X51.2999 Y-68.4184
G01 X51.3200 Y-68.4325
G01 X51.3407 Y-68.4456
G01 X51.4123 Y-68.4885
G01 X51.4336 Y-68.5006
G01 X51.4555 Y-68.5116
G01 X51.5309 Y-68.5473
G01 X51.5534 Y-68.5572
G01 X51.5763 Y-68.5661
G01 X51.6548 Y-68.5942
G01 X51.6781 Y-68.6019
G01 X51.7018 Y-68.6084
G01 X51.7827 Y-68.6287
G01 X51.8066 Y-68.6341
G01 X51.8308 Y-68.6383
G01 X51.9133 Y-68.6505
G01 X51.9377 Y-68.6535
G01 X51.9622 Y-68.6553
G01 X52.0577 Y-68.6598
G01 X52.0700 Y-68.6600
G01 X52.0945 Y-68.6594
G01 X52.1778 Y-68.6553
G01 X52.2023 Y-68.6535
G01 X52.2267 Y-68.6505
G01 X52.3092 Y-68.6383
G01 X52.3334 Y-68.6341
G01 X52.3573 Y-68.6287
G01 X52.4382 Y-68.6084
G01 X52.4619 Y-68.6019
G01 X52.4852 Y-68.5942
G01 X52.5637 Y-68.5661
G01 X52.5866 Y-68.5572
G01 X52.6091 Y-68.5473
G01 X52.6845 Y-68.5116
G01 X52.7064 Y-68.5006
G01 X52.7277 Y-68.4885
G01 X52.7993 Y-68.4456
G01 X52.8200 Y-68.4325
G01 X52.8401 Y-68.4184
G01 X52.9071 Y-68.3687
G01 X52.9264 Y-68.3536
G01 X52.9450 Y-68.3375
G01 X53.0068 Y-68.2815
G01 X53.0246 Y-68.2646
G01 X53.0415 Y-68.2468
G01 X53.0975 Y-68.1850
G01 X53.1136 Y-68.1664
G01 X53.1287 Y-68.1471
G01 X53.1784 Y-68.0801
G01 X53.1925 Y-68.0600
G01 X53.2056 Y-68.0393
G01 X53.2485 Y-67.9677
G01 X53.2600 Y-67.9475
G01 X53.2602 Y-68.1723
G01 X53.2606 Y-68.1845
G01 X53.2624 Y-68.2090
G01 X53.2654 Y-68.2334
G01 X53.2696 Y-68.2575
G01 X53.2750 Y-68.2815
G01 X53.2815 Y-68.3051
G01 X53.2852 Y-68.3168
G01 X53.2935 Y-68.3399
G01 X53.3029 Y-68.3626
G01 X53.3134 Y-68.3848
G01 X53.3250 Y-68.4064
G01 X53.3311 Y-68.4171
G01 X53.3443 Y-68.4378
G01 X53.3584 Y-68.4578
G01 X53.3735 Y-68.4772
G01 X53.3895 Y-68.4958
G01 X53.4064 Y-68.5136
G01 X53.4242 Y-68.5305
G01 X53.4428 Y-68.5465
G01 X53.4524 Y-68.5542
G01 X53.4721 Y-68.5688
G01 X53.4925 Y-68.5824
G01 X53.5136 Y-68.5950
G01 X53.5352 Y-68.6066
G01 X53.5574 Y-68.6171
G01 X53.5801 Y-68.6265
G01 X53.6032 Y-68.6348
G01 X53.6149 Y-68.6385
G01 X53.6385 Y-68.6450
G01 X53.6625 Y-68.6504
G01 X53.6866 Y-68.6546
G01 X53.7110 Y-68.6576
G01 X53.7355 Y-68.6594
G01 X53.7600 Y-68.6600
G01 X55.4600 Y-68.6600
G01 X55.4845 Y-68.6594
G01 X55.4968 Y-68.6586
G01 X55.5212 Y-68.6562
G01 X55.5455 Y-68.6526
G01 X55.5696 Y-68.6479
G01 X55.5934 Y-68.6419
G01 X55.6168 Y-68.6348
G01 X55.6399 Y-68.6265
G01 X55.6626 Y-68.6171
G01 X55.6848 Y-68.6066
G01 X55.7064 Y-68.5950
G01 X55.7275 Y-68.5824
G01 X55.7479 Y-68.5688
G01 X55.7676 Y-68.5542
G01 X55.7866 Y-68.5386
G01 X55.8048 Y-68.5221
G01 X55.8221 Y-68.5048
G01 X55.8386 Y-68.4866
G01 X55.8465 Y-68.4772
G01 X55.8616 Y-68.4578
G01 X55.8688 Y-68.4479
G01 X55.8824 Y-68.4275
G01 X55.8950 Y-68.4064
G01 X55.9010 Y-68.3957
G01 X55.9120 Y-68.3738
G01 X55.9219 Y-68.3513
G01 X55.9308 Y-68.3284
G01 X55.9385 Y-68.3051
G01 X55.9450 Y-68.2815
G01 X55.9479 Y-68.2696
G01 X55.9526 Y-68.2455
G01 X55.9562 Y-68.2212
G01 X55.9586 Y-68.1968
G01 X55.9594 Y-68.1845
G01 X55.9600 Y-68.1600
G01 X55.9598 Y-66.4477
G01 X55.9586 Y-66.4232
G01 X55.9562 Y-66.3988
G01 X55.9546 Y-66.3866
G01 X55.9504 Y-66.3625
G01 X55.9450 Y-66.3385
G01 X55.9419 Y-66.3266
G01 X55.9385 Y-66.3149
G01 X55.9308 Y-66.2916
G01 X55.9219 Y-66.2687
G01 X55.9171 Y-66.2574
G01 X55.9120 Y-66.2462
G01 X55.9010 Y-66.2243
G01 X55.8889 Y-66.2029
G01 X55.8824 Y-66.1925
G01 X55.8757 Y-66.1822
G01 X55.8616 Y-66.1622
G01 X55.8465 Y-66.1428
G01 X55.8305 Y-66.1242
G01 X55.8136 Y-66.1064
G01 X55.8048 Y-66.0979
G01 X55.7866 Y-66.0814
G01 X55.7772 Y-66.0735
G01 X55.7578 Y-66.0584
G01 X55.7479 Y-66.0512
G01 X55.7275 Y-66.0376
G01 X55.7171 Y-66.0311
G01 X55.6957 Y-66.0190
G01 X55.6848 Y-66.0134
G01 X55.6738 Y-66.0080
G01 X55.6513 Y-65.9981
G01 X55.6284 Y-65.9892
G01 X55.6103 Y-65.9831
G01 X55.6103 Y-64.8832
G01 X55.6424 Y-64.8396
G01 X55.6560 Y-64.8192
G01 X55.7003 Y-64.7456
G01 X55.7124 Y-64.7242
G01 X55.7181 Y-64.7134
G01 X55.7549 Y-64.6358
G01 X55.7648 Y-64.6134
G01 X55.7737 Y-64.5905
G01 X55.8025 Y-64.5096
G01 X55.8096 Y-64.4861
G01 X55.8306 Y-64.4028
G01 X55.8360 Y-64.3789
G01 X55.8402 Y-64.3547
G01 X55.8510 Y-64.2819
G01 X55.8540 Y-64.2575
G01 X55.8558 Y-64.2330
G01 X55.8594 Y-64.1595
G01 X55.8600 Y-64.1350
G01 X55.8594 Y-64.1105
G01 X55.8558 Y-64.0370
G01 X55.8540 Y-64.0125
G01 X55.8510 Y-63.9881
G01 X55.8402 Y-63.9153
G01 X55.8360 Y-63.8911
G01 X55.8306 Y-63.8672
G01 X55.8096 Y-63.7839
G01 X55.8025 Y-63.7604
G01 X55.7737 Y-63.6795
G01 X55.7648 Y-63.6566
G01 X55.7549 Y-63.6342
G01 X55.7181 Y-63.5566
G01 X55.7065 Y-63.5350
G01 X55.7003 Y-63.5244
G01 X55.6560 Y-63.4508
G01 X55.6424 Y-63.4304
G01 X55.6103 Y-63.3868
G01 X55.6101 Y-60.9477
G01 X55.6072 Y-60.8864
G01 X55.6054 Y-60.8620
G01 X55.6024 Y-60.8376
G01 X55.5952 Y-60.7890
G01 X55.5910 Y-60.7649
G01 X55.5857 Y-60.7409
G01 X55.5706 Y-60.6814
G01 X55.5635 Y-60.6579
G01 X55.5429 Y-60.6001
G01 X55.5341 Y-60.5772
G01 X55.5293 Y-60.5659
G01 X55.4978 Y-60.4994
G01 X55.4921 Y-60.4885
G01 X55.4800 Y-60.4671
G01 X55.4548 Y-60.4250
G01 X55.4417 Y-60.4043
G01 X55.4275 Y-60.3842
G01 X55.3983 Y-60.3448
G01 X55.3909 Y-60.3350
G01 X55.3753 Y-60.3161
G01 X55.3342 Y-60.2705
G01 X55.3173 Y-60.2527
G01 X54.0473 Y-58.9827
G01 X54.0295 Y-58.9658
G01 X53.9931 Y-58.9328
G01 X53.9839 Y-58.9247
G01 X53.9650 Y-58.9091
G01 X53.9158 Y-58.8725
G01 X53.8957 Y-58.8583
G01 X53.8750 Y-58.8452
G01 X53.8329 Y-58.8200
G01 X53.8115 Y-58.8079
G01 X53.7896 Y-58.7968
G01 X53.7452 Y-58.7758
G01 X53.7228 Y-58.7659
G01 X53.6999 Y-58.7571
G01 X53.6537 Y-58.7405
G01 X53.6304 Y-58.7328
G01 X53.6186 Y-58.7294
G01 X53.5591 Y-58.7143
G01 X53.5351 Y-58.7090
G01 X53.5110 Y-58.7048
G01 X53.4624 Y-58.6976
G01 X53.4380 Y-58.6946
G01 X53.4136 Y-58.6928
G01 X53.3523 Y-58.6899
G01 X53.1993 Y-58.6897
G01 X53.1441 Y-58.6152
G01 X53.1290 Y-58.5959
G01 X53.1130 Y-58.5773
G01 X53.0557 Y-58.5140
G01 X53.0387 Y-58.4963
G01 X53.0210 Y-58.4793
G01 X52.9577 Y-58.4220
G01 X52.9391 Y-58.4060
G01 X52.9198 Y-58.3909
G01 X52.8512 Y-58.3400
G01 X52.8311 Y-58.3259
G01 X52.8104 Y-58.3128
G01 X52.7372 Y-58.2689
G01 X52.7158 Y-58.2568
G01 X52.6939 Y-58.2457
G01 X52.6167 Y-58.2092
G01 X52.5943 Y-58.1993
G01 X52.5714 Y-58.1905
G01 X52.4910 Y-58.1617
G01 X52.4677 Y-58.1540
G01 X52.4440 Y-58.1474
G01 X52.3612 Y-58.1267
G01 X52.3493 Y-58.1239
G01 X52.3270 Y-58.1194
G01 X55.3173 Y-55.1291
G01 X55.3342 Y-55.1113
G01 X55.3753 Y-55.0658
G01 X55.3909 Y-55.0468
G01 X55.3983 Y-55.0370
G01 X55.4275 Y-54.9976
G01 X55.4417 Y-54.9775
G01 X55.4548 Y-54.9568
G01 X55.4800 Y-54.9147
G01 X55.4921 Y-54.8933
G01 X55.4978 Y-54.8824
G01 X55.5293 Y-54.8159
G01 X55.5341 Y-54.8046
G01 X55.5429 Y-54.7817
G01 X55.5595 Y-54.7355
G01 X55.5672 Y-54.7122
G01 X55.5737 Y-54.6885
G01 X55.5857 Y-54.6409
G01 X55.5910 Y-54.6170
G01 X55.5933 Y-54.6049
G01 X55.6024 Y-54.5442
G01 X55.6054 Y-54.5199
G01 X55.6072 Y-54.4954
G01 X55.6101 Y-54.4341
G01 X55.6103 Y-53.7281
G01 X55.6348 Y-53.7166
G01 X55.6564 Y-53.7050
G01 X55.6775 Y-53.6924
G01 X55.6878 Y-53.6857
G01 X55.7078 Y-53.6716
G01 X55.7176 Y-53.6642
G01 X55.7366 Y-53.6486
G01 X55.7548 Y-53.6321
G01 X55.7636 Y-53.6236
G01 X55.7805 Y-53.6058
G01 X55.7965 Y-53.5872
G01 X55.8042 Y-53.5776
G01 X55.8188 Y-53.5579
G01 X55.8324 Y-53.5375
G01 X55.8389 Y-53.5271
G01 X55.8510 Y-53.5057
G01 X55.8620 Y-53.4838
G01 X55.8719 Y-53.4613
G01 X55.8808 Y-53.4384
G01 X55.8885 Y-53.4151
G01 X55.8919 Y-53.4034
G01 X55.8979 Y-53.3796
G01 X55.9026 Y-53.3555
G01 X55.9062 Y-53.3312
G01 X55.9076 Y-53.3190
G01 X55.9094 Y-53.2945
G01 X55.9100 Y-53.2700
G01 X55.9100 Y-50.8700
G01 X55.9094 Y-50.8455
G01 X55.9076 Y-50.8210
G01 X55.9046 Y-50.7966
G01 X55.9026 Y-50.7845
G01 X55.9004 Y-50.7725
G01 X55.8950 Y-50.7485
G01 X55.8885 Y-50.7249
G01 X55.8808 Y-50.7016
G01 X55.8719 Y-50.6787
G01 X55.8620 Y-50.6562
G01 X55.8566 Y-50.6452
G01 X55.8450 Y-50.6236
G01 X55.8324 Y-50.6025
G01 X55.8188 Y-50.5821
G01 X55.8042 Y-50.5624
G01 X55.7886 Y-50.5434
G01 X55.7721 Y-50.5252
G01 X55.7548 Y-50.5079
G01 X55.7458 Y-50.4995
G01 X55.7272 Y-50.4835
G01 X55.7176 Y-50.4758
G01 X55.6979 Y-50.4612
G01 X55.6878 Y-50.4543
G01 X55.6671 Y-50.4411
G01 X55.6564 Y-50.4350
G01 X55.6348 Y-50.4234
G01 X55.6238 Y-50.4180
G01 X55.6013 Y-50.4081
G01 X55.5899 Y-50.4035
G01 X55.5784 Y-50.3992
G01 X55.5551 Y-50.3915
G01 X55.5315 Y-50.3850
G01 X55.5180 Y-50.3818
G01 X55.4978 Y-50.3394
G01 X55.4862 Y-50.3177
G01 X55.4548 Y-50.2650
G01 X55.4417 Y-50.2443
G01 X55.4275 Y-50.2242
G01 X55.3983 Y-50.1848
G01 X55.3832 Y-50.1654
G01 X55.3672 Y-50.1469
G01 X55.3259 Y-50.1015
G01 X54.4873 Y-49.2627
G01 X54.4695 Y-49.2458
G01 X54.4239 Y-49.2047
G01 X54.4145 Y-49.1968
G01 X54.3952 Y-49.1817
G01 X54.3458 Y-49.1453
G01 X54.3254 Y-49.1316
G01 X54.2729 Y-49.0999
G01 X54.2515 Y-49.0878
G01 X54.2296 Y-49.0768
G01 X54.1740 Y-49.0507
G01 X54.1628 Y-49.0459
G01 X54.1399 Y-49.0370
G01 X54.0936 Y-49.0205
G01 X54.0703 Y-49.0128
G01 X54.0467 Y-49.0063
G01 X53.9991 Y-48.9943
G01 X53.9751 Y-48.9890
G01 X53.9509 Y-48.9848
G01 X53.9024 Y-48.9776
G01 X53.8780 Y-48.9746
G01 X53.8536 Y-48.9728
G01 X53.7923 Y-48.9699
G01 X41.4700 Y-48.9697
G01 X41.4455 Y-48.9703
G01 X41.3842 Y-48.9735
G01 X41.3720 Y-48.9746
G01 X41.3476 Y-48.9776
G01 X41.2991 Y-48.9848
G01 X41.2749 Y-48.9890
G01 X41.2509 Y-48.9943
G01 X41.2033 Y-49.0063
G01 X41.1797 Y-49.0128
G01 X41.1564 Y-49.0205
G01 X41.1101 Y-49.0370
G01 X41.0872 Y-49.0459
G01 X41.0760 Y-49.0507
G01 X41.0094 Y-49.0822
G01 X40.9877 Y-49.0938
G01 X40.9771 Y-49.0999
G01 X40.9350 Y-49.1252
G01 X40.9143 Y-49.1383
G01 X40.8942 Y-49.1524
G01 X40.8548 Y-49.1817
G01 X40.8450 Y-49.1891
G01 X40.8261 Y-49.2047
G01 X40.7715 Y-49.2541
G01 X39.9327 Y-50.0927
G01 X39.9158 Y-50.1105
G01 X39.8828 Y-50.1469
G01 X39.8668 Y-50.1654
G01 X39.8517 Y-50.1848
G01 X39.8225 Y-50.2242
G01 X39.8083 Y-50.2443
G01 X39.7952 Y-50.2650
G01 X39.7700 Y-50.3071
G01 X39.7579 Y-50.3285
G01 X39.7468 Y-50.3504
G01 X39.7258 Y-50.3948
G01 X39.7159 Y-50.4172
G01 X39.7071 Y-50.4401
G01 X39.6905 Y-50.4863
G01 X39.6828 Y-50.5096
G01 X39.6763 Y-50.5333
G01 X39.6643 Y-50.5809
G01 X39.6590 Y-50.6049
G01 X39.6567 Y-50.6169
G01 X39.6476 Y-50.6776
G01 X39.6446 Y-50.7020
G01 X39.6435 Y-50.7142
G01 X39.6399 Y-50.7877
G01 X39.6397 Y-50.8397
G01 X39.6274 Y-50.8549
G01 X39.6200 Y-50.8646
G01 X39.5732 Y-50.9277
G01 X39.5591 Y-50.9478
G01 X39.5460 Y-50.9685
G01 X39.5056 Y-51.0358
G01 X39.4935 Y-51.0572
G01 X39.4825 Y-51.0791
G01 X39.4489 Y-51.1501
G01 X39.4390 Y-51.1725
G01 X39.4301 Y-51.1954
G01 X39.4037 Y-51.2693
G01 X39.3960 Y-51.2926
G01 X39.3894 Y-51.3163
G01 X39.3704 Y-51.3924
G01 X39.3650 Y-51.4164
G01 X39.3608 Y-51.4406
G01 X39.3493 Y-51.5182
G01 X39.3463 Y-51.5426
G01 X39.3445 Y-51.5671
G01 X39.3406 Y-51.6455
G01 X39.3400 Y-51.6700
G01 X39.3400 Y-52.4700
G01 X39.3406 Y-52.4945
G01 X39.3445 Y-52.5729
G01 X39.3452 Y-52.5852
G01 X39.3472 Y-52.6063
G01 X39.3472 Y-53.4942
G01 X39.3255 Y-53.5233
G01 X39.3114 Y-53.5433
G01 X39.2983 Y-53.5641
G01 X39.2795 Y-53.5957
G01 X39.2679 Y-53.6173
G01 X39.2520 Y-53.6505
G01 X39.2421 Y-53.6730
G01 X39.2333 Y-53.6959
G01 X39.2210 Y-53.7306
G01 X39.2139 Y-53.7541
G01 X39.2048 Y-53.7897
G01 X39.1994 Y-53.8137
G01 X39.1952 Y-53.8379
G01 X39.1900 Y-53.8743
G01 X39.1876 Y-53.8987
G01 X39.1856 Y-53.9355
G00 Z2.0000
G00 X39.1850 Y-54.7404
G01 F80.00
G01 Z-0.0800
G01 F200.00
G01 X39.0255 Y-54.9729
G01 X38.8167 Y-55.2938
G01 X38.6158 Y-55.6198
G01 X38.5000 Y-55.8185
G01 X39.4337 Y-55.8174
G01 X39.3020 Y-56.0311
G01 X39.1191 Y-56.3449
G01 X38.9440 Y-56.6631
G01 X38.7767 Y-56.9855
G01 X38.6174 Y-57.3120
G01 X38.5000 Y-57.5682
G01 X40.2594 Y-56.0100
G01 X40.1684 Y-56.1498
G01 X39.9882 Y-56.4423
G01 X39.8152 Y-56.7392
G01 X39.6495 Y-57.0402
G01 X39.4913 Y-57.3452
G01 X39.3405 Y-57.6540
G01 X39.1975 Y-57.9664
G01 X39.0621 Y-58.2822
G01 X38.9345 Y-58.6013
G01 X38.8148 Y-58.9233
G01 X38.7030 Y-59.2482
G01 X38.5992 Y-59.5758
G01 X38.5035 Y-59.9058
G01 X38.5000 Y-59.9192
G01 X40.9097 Y-60.2287
G01 X40.8959 Y-60.2725
G01 X40.8166 Y-60.5459
G01 X40.7440 Y-60.8212
G01 X40.6783 Y-61.0982
G01 X40.6193 Y-61.3767
G01 X40.5672 Y-61.6566
G01 X40.5219 Y-61.9377
G01 X40.4836 Y-62.2198
G01 X40.4523 Y-62.5028
G01 X40.4278 Y-62.7864
G01 X40.4104 Y-63.0706
G01 X40.3999 Y-63.3551
G01 X40.3964 Y-63.6398
G01 X40.3999 Y-63.9245
G01 X40.4104 Y-64.2090
G01 X40.4278 Y-64.4931
G01 X40.4523 Y-64.7768
G01 X40.4836 Y-65.0598
G01 X40.5219 Y-65.3419
G01 X40.5672 Y-65.6229
G01 X40.6193 Y-65.9028
G01 X40.6783 Y-66.1814
G01 X40.7440 Y-66.4584
G01 X40.7757 Y-66.5786
G00 Z2.0000
G00 X41.4660 Y-66.0362
G01 F80.00
G01 Z-0.0800
G01 F200.00
G01 X41.4588 Y-66.0061
G01 X41.4039 Y-65.7468
G01 X41.3554 Y-65.4862
G01 X41.3148 Y-65.2341
G00 Z2.0000
G00 X42.1460 Y-65.3624
G01 F80.00
G01 Z-0.0800
G01 F200.00
G01 X42.1885 Y-65.5907
G01 X42.2394 Y-65.8308
G01 X42.2826 Y-66.0127
G00 Z2.0000
G00 X43.2923 Y-66.6175
G01 F80.00
G01 Z-0.0800
G01 F200.00
G01 X43.2607 Y-66.5257
G01 X43.1925 Y-66.3104
G01 X43.1297 Y-66.0935
G01 X43.0721 Y-65.8752
G01 X43.0199 Y-65.6555
G01 X42.9732 Y-65.4346
G01 X42.9318 Y-65.2126
G01 X42.8960 Y-64.9897
G01 X42.8859 Y-64.9158
G00 Z2.0000
G00 X42.9103 Y-62.2011
G01 F80.00
G01 Z-0.0800
G01 F200.00
G01 X42.9318 Y-62.0669
G01 X42.9732 Y-61.8450
G01 X43.0199 Y-61.6241
G01 X43.0721 Y-61.4044
G01 X43.1297 Y-61.1860
G01 X43.1925 Y-60.9692
G01 X43.2008 Y-60.9431
G00 Z2.0000
G00 X42.9103 Y-59.4652
G01 F80.00
G01 Z-0.0800
G01 F200.00
G01 X42.9565 Y-59.3642
G01 X43.0642 Y-59.1437
G01 X43.0800 Y-59.1131
G00 Z2.0000
G00 X40.9097 Y-58.0865
G01 F80.00
G01 Z-0.0800
G01 F200.00
G01 X40.7869 Y-58.3381
G01 X40.6602 Y-58.6148
G01 X40.5403 Y-58.8945
G01 X40.4273 Y-59.1771
G01 X40.3212 Y-59.4624
G01 X40.2222 Y-59.7501
G01 X40.1303 Y-60.0403
G01 X40.0456 Y-60.3326
G01 X39.9680 Y-60.6268
G01 X39.8977 Y-60.9229
G01 X39.8347 Y-61.2207
G01 X39.7790 Y-61.5199
G01 X39.7306 Y-61.8203
G01 X39.6896 Y-62.1219
G01 X39.6561 Y-62.4244
G01 X39.6300 Y-62.7276
G01 X39.6113 Y-63.0313
G01 X39.6001 Y-63.3355
G01 X39.5964 Y-63.6398
G01 X39.6001 Y-63.9441
G01 X39.6113 Y-64.2482
G01 X39.6300 Y-64.5520
G01 X39.6561 Y-64.8552
G01 X39.6896 Y-65.1577
G01 X39.7306 Y-65.4592
G01 X39.7790 Y-65.7597
G01 X39.8347 Y-66.0589
G01 X39.8977 Y-66.3566
G01 X39.9680 Y-66.6527
G01 X40.0456 Y-66.9470
G01 X40.1303 Y-67.2393
G01 X40.2222 Y-67.5294
G01 X40.3212 Y-67.8172
G01 X40.4273 Y-68.1025
G01 X40.5403 Y-68.3851
G01 X40.6602 Y-68.6648
G01 X40.7869 Y-68.9415
G01 X40.9204 Y-69.2150
G01 X41.0606 Y-69.4851
G01 X41.0688 Y-69.5000
G01 X40.1694 Y-69.5000
G01 X40.0637 Y-69.2835
G01 X39.9288 Y-68.9890
G01 X39.8012 Y-68.6912
G01 X39.6809 Y-68.3904
G01 X39.5680 Y-68.0867
G01 X39.4626 Y-67.7804
G01 X39.3648 Y-67.4715
G01 X39.2746 Y-67.1604
G01 X39.1920 Y-66.8471
G01 X39.1171 Y-66.5319
G01 X39.0500 Y-66.2150
G01 X38.9907 Y-65.8965
G01 X38.9393 Y-65.5766
G01 X38.8957 Y-65.2556
G01 X38.8600 Y-64.9336
G01 X38.8322 Y-64.6108
G01 X38.8123 Y-64.2875
G01 X38.8004 Y-63.9637
G01 X38.7964 Y-63.6398
G01 X38.8004 Y-63.3158
G01 X38.8123 Y-62.9921
G01 X38.8322 Y-62.6687
G01 X38.8600 Y-62.3460
G01 X38.8957 Y-62.0240
G01 X38.9393 Y-61.7029
G01 X38.9907 Y-61.3831
G01 X39.0500 Y-61.0646
G01 X39.1171 Y-60.7477
G01 X39.1920 Y-60.4324
G01 X39.2746 Y-60.1192
G01 X39.3648 Y-59.8080
G01 X39.4626 Y-59.4992
G01 X39.5680 Y-59.1928
G01 X39.6809 Y-58.8892
G01 X39.8012 Y-58.5884
G01 X39.9288 Y-58.2906
G01 X40.0637 Y-57.9961
G01 X40.2058 Y-57.7049
G01 X40.3550 Y-57.4174
G01 X40.5112 Y-57.1335
G01 X40.6744 Y-56.8536
G01 X40.8443 Y-56.5778
G01 X41.0210 Y-56.3063
G01 X41.2043 Y-56.0391
G01 X41.3941 Y-55.7766
G01 X41.5902 Y-55.5187
G01 X41.7927 Y-55.2658
G01 X42.0012 Y-55.0179
G01 X42.2158 Y-54.7752
G01 X42.3100 Y-54.6738
G01 X41.5100 Y-54.3658
G01 X41.6231 Y-54.2380
G01 X41.8569 Y-53.9862
G01 X42.0969 Y-53.7403
G01 X42.3428 Y-53.5003
G01 X42.3633 Y-53.4813
G00 Z2.0000
G00 X41.8889 Y-52.8302
G01 F80.00
G01 Z-0.0800
G01 F200.00
G01 X41.9231 Y-52.7984
G00 Z2.0000
G00 X42.0849 Y-50.9702
G01 F80.00
G01 Z-0.0800
G01 F200.00
G01 X42.0456 Y-51.0358
G01 X42.0335 Y-51.0572
G01 X42.0225 Y-51.0791
G01 X41.9889 Y-51.1501
G01 X41.9790 Y-51.1725
G01 X41.9701 Y-51.1954
G01 X41.9437 Y-51.2693
G01 X41.9360 Y-51.2926
G01 X41.9294 Y-51.3163
G01 X41.9100 Y-51.3939
G01 X41.8906 Y-51.3163
G01 X41.8840 Y-51.2926
G01 X41.8763 Y-51.2693
G01 X41.8499 Y-51.1954
G01 X41.8456 Y-51.1839
G01 X41.8362 Y-51.1612
G01 X41.7975 Y-51.0791
G01 X41.7902 Y-51.0644
G01 X41.8843 Y-50.9702
G01 X42.0849 Y-50.9702
G00 Z2.0000
G00 X41.5675 Y-48.9697
G01 F80.00
G01 Z-0.0800
G01 F200.00
G01 X41.6318 Y-48.9233
G01 X41.9961 Y-48.6733
G01 X42.2626 Y-48.5000
G01 X43.0193 Y-48.9697
G01 X43.1538 Y-48.8869
G01 X43.5185 Y-48.6743
G01 X43.8352 Y-48.5000
G01 X44.6661 Y-48.9697
G01 X44.9845 Y-48.8144
G01 X45.3504 Y-48.6467
G01 X45.6928 Y-48.5000
G01 X46.6924 Y-48.9697
G01 X46.7409 Y-48.9517
G01 X47.1030 Y-48.8271
G01 X47.4680 Y-48.7115
G01 X47.8357 Y-48.6049
G01 X48.2059 Y-48.5073
G01 X48.2366 Y-48.5000
G01 X50.0474 Y-48.9697
G01 X50.1847 Y-48.9511
G01 X50.5457 Y-48.9111
G01 X50.9076 Y-48.8799
G01 X51.2702 Y-48.8576
G01 X51.6332 Y-48.8442
G01 X51.9964 Y-48.8398
G01 X52.3596 Y-48.8442
G01 X52.7226 Y-48.8576
G01 X53.0852 Y-48.8799
G01 X53.4470 Y-48.9111
G01 X53.8081 Y-48.9511
G01 X54.1680 Y-49.0000
G01 X54.5266 Y-49.0577
G01 X54.8837 Y-49.1242
G01 X55.2391 Y-49.1994
G01 X55.5925 Y-49.2833
G01 X55.9437 Y-49.3759
G01 X56.2926 Y-49.4771
G01 X56.6389 Y-49.5868
G01 X56.9824 Y-49.7049
G01 X57.3228 Y-49.8315
G01 X57.5000 Y-49.9023
G01 X57.5000 Y-49.0439
G01 X57.2519 Y-48.9517
G01 X56.8898 Y-48.8271
G01 X56.5248 Y-48.7115
G01 X56.1571 Y-48.6049
G01 X55.7869 Y-48.5073
G01 X55.7561 Y-48.5000
G01 X55.2484 Y-50.0238
G01 X55.3981 Y-50.0594
G01 X55.7304 Y-50.1469
G01 X56.0604 Y-50.2426
G01 X56.3879 Y-50.3464
G01 X56.7129 Y-50.4582
G01 X57.0349 Y-50.5779
G01 X57.3540 Y-50.7055
G01 X57.5000 Y-50.7681
G01 X57.5000 Y-51.6429
G01 X57.3456 Y-51.5722
G01 X57.0478 Y-51.4446
G01 X56.7470 Y-51.3243
G01 X56.4433 Y-51.2114
G01 X56.1370 Y-51.1060
G01 X55.9100 Y-51.0341
G00 Z2.0000
G00 X55.9100 Y-51.8739
G01 F80.00
G01 Z-0.0800
G01 F200.00
G01 X56.1738 Y-51.9646
G01 X56.4591 Y-52.0707
G01 X56.7417 Y-52.1837
G01 X57.0214 Y-52.3036
G01 X57.2981 Y-52.4303
G01 X57.5000 Y-52.5289
G01 X57.5000 Y-53.4290
G01 X57.4646 Y-53.4095
G01 X57.2119 Y-53.2784
G01 X56.9560 Y-53.1535
G01 X56.6972 Y-53.0350
G01 X56.4355 Y-52.9228
G01 X56.1712 Y-52.8171
G01 X55.9100 Y-52.7200
G00 Z2.0000
G00 X55.8287 Y-53.5432
G01 F80.00
G01 Z-0.0800
G01 F200.00
G01 X55.8833 Y-53.5635
G01 X56.1294 Y-53.6619
G01 X56.3730 Y-53.7663
G01 X56.6140 Y-53.8767
G01 X56.8522 Y-53.9930
G01 X57.0875 Y-54.1150
G01 X57.3197 Y-54.2428
G01 X57.5000 Y-54.3479
G01 X57.5000 Y-55.2912
G01 X57.3464 Y-55.1913
G01 X57.1374 Y-55.0625
G01 X56.9254 Y-54.9389
G01 X56.7104 Y-54.8206
G01 X56.4925 Y-54.7075
G01 X56.2719 Y-54.5999
G01 X56.0488 Y-54.4977
G01 X55.8232 Y-54.4010
G01 X55.6103 Y-54.3158
G00 Z2.0000
G00 X55.3637 Y-55.0788
G01 F80.00
G01 Z-0.0800
G01 F200.00
G01 X55.5171 Y-55.1401
G01 X55.7246 Y-55.2291
G01 X55.9299 Y-55.3231
G01 X56.1328 Y-55.4221
G01 X56.3332 Y-55.5261
G01 X56.5311 Y-55.6350
G01 X56.7261 Y-55.7487
G01 X56.9184 Y-55.8671
G01 X57.1076 Y-55.9903
G01 X57.2938 Y-56.1180
G01 X57.4768 Y-56.2503
G01 X57.5000 Y-56.2679
G01 X57.5000 Y-57.2942
G01 X57.4830 Y-57.2792
G01 X57.3253 Y-57.1465
G01 X57.1643 Y-57.0177
G01 X57.0003 Y-56.8928
G01 X56.8332 Y-56.7721
G01 X56.6632 Y-56.6554
G01 X56.4904 Y-56.5430
G01 X56.3149 Y-56.4349
G01 X56.1367 Y-56.3311
G01 X55.9561 Y-56.2316
G01 X55.7731 Y-56.1367
G01 X55.5879 Y-56.0463
G01 X55.4004 Y-55.9604
G01 X55.2109 Y-55.8792
G01 X55.0195 Y-55.8026
G01 X54.8263 Y-55.7308
G01 X54.7439 Y-55.7025
G01 X54.1071 Y-56.3393
G01 X54.2026 Y-56.3670
G01 X54.3804 Y-56.4234
G01 X54.5568 Y-56.4841
G01 X54.7316 Y-56.5490
G01 X54.9048 Y-56.6183
G01 X55.0762 Y-56.6918
G01 X55.2458 Y-56.7695
G01 X55.4134 Y-56.8513
G01 X55.5790 Y-56.9372
G01 X55.7424 Y-57.0271
G01 X55.9036 Y-57.1211
G01 X56.0624 Y-57.2189
G01 X56.2187 Y-57.3206
G01 X56.3725 Y-57.4261
G01 X56.5237 Y-57.5354
G01 X56.6722 Y-57.6484
G01 X56.8178 Y-57.7649
G01 X56.9605 Y-57.8850
G01 X57.1002 Y-58.0086
G01 X57.2369 Y-58.1355
G01 X57.3704 Y-58.2658
G01 X57.5000 Y-58.3986
G01 X57.5000 Y-59.6469
G01 X57.4582 Y-59.5890
G01 X57.3572 Y-59.4562
G01 X57.2529 Y-59.3259
G01 X57.1454 Y-59.1982
G01 X57.0349 Y-59.0732
G01 X56.9213 Y-58.9509
G01 X56.8047 Y-58.8315
G01 X56.6853 Y-58.7149
G01 X56.5630 Y-58.6013
G01 X56.4380 Y-58.4908
G01 X56.3103 Y-58.3833
G01 X56.1800 Y-58.2790
G01 X56.0472 Y-58.1780
G01 X55.9119 Y-58.0802
G01 X55.7743 Y-57.9858
G01 X55.6344 Y-57.8948
G01 X55.4923 Y-57.8072
G01 X55.3481 Y-57.7232
G01 X55.2019 Y-57.6427
G01 X55.0538 Y-57.5659
G01 X54.9038 Y-57.4927
G01 X54.7520 Y-57.4232
G01 X54.5986 Y-57.3574
G01 X54.4437 Y-57.2954
G01 X54.2872 Y-57.2373
G01 X54.1294 Y-57.1830
G01 X53.9703 Y-57.1326
G01 X53.8100 Y-57.0861
G01 X53.6487 Y-57.0436
G01 X53.4863 Y-57.0050
G01 X53.4492 Y-56.9972
G01 X52.7578 Y-57.6886
G01 X52.8768 Y-57.7047
G01 X53.0222 Y-57.7281
G01 X53.1669 Y-57.7551
G01 X53.3110 Y-57.7856
G01 X53.4543 Y-57.8196
G01 X53.5967 Y-57.8571
G01 X53.7381 Y-57.8981
G01 X53.8785 Y-57.9426
G01 X54.0177 Y-57.9905
G01 X54.1558 Y-58.0418
G01 X54.2925 Y-58.0965
G01 X54.4278 Y-58.1545
G01 X54.5617 Y-58.2159
G01 X54.6941 Y-58.2804
G01 X54.8248 Y-58.3483
G01 X54.9538 Y-58.4193
G01 X55.0810 Y-58.4934
G01 X55.2064 Y-58.5707
G01 X55.3298 Y-58.6510
G01 X55.4512 Y-58.7343
G01 X55.5706 Y-58.8205
G01 X55.6878 Y-58.9097
G01 X55.8028 Y-59.0017
G01 X55.9154 Y-59.0965
G01 X56.0257 Y-59.1941
G01 X56.1336 Y-59.2943
G01 X56.2390 Y-59.3971
G01 X56.3419 Y-59.5025
G01 X56.4421 Y-59.6104
G01 X56.5396 Y-59.7208
G01 X56.6345 Y-59.8334
G01 X56.7265 Y-59.9484
G01 X56.8156 Y-60.0656
G01 X56.9019 Y-60.1849
G01 X56.9852 Y-60.3064
G01 X57.0655 Y-60.4298
G01 X57.1428 Y-60.5552
G01 X57.2169 Y-60.6824
G01 X57.2879 Y-60.8114
G01 X57.3557 Y-60.9421
G01 X57.4203 Y-61.0745
G01 X57.4817 Y-61.2083
G01 X57.5000 Y-61.2511
G01 X55.6103 Y-61.1303
G01 X55.6549 Y-61.1953
G01 X55.7138 Y-61.2858
G01 X55.7704 Y-61.3777
G01 X55.8248 Y-61.4710
G01 X55.8768 Y-61.5656
G01 X55.9266 Y-61.6615
G01 X55.9739 Y-61.7585
G01 X56.0189 Y-61.8567
G01 X56.0615 Y-61.9560
G01 X56.1016 Y-62.0563
G01 X56.1392 Y-62.1575
G01 X56.1743 Y-62.2596
G01 X56.2069 Y-62.3625
G01 X56.2370 Y-62.4663
G01 X56.2645 Y-62.5707
G01 X56.2895 Y-62.6757
G01 X56.3119 Y-62.7814
G01 X56.3316 Y-62.8876
G01 X56.3488 Y-62.9942
G01 X56.3633 Y-63.1012
G01 X56.3752 Y-63.2085
G01 X56.3845 Y-63.3161
G01 X56.3911 Y-63.4239
G01 X56.3951 Y-63.5318
G01 X56.3964 Y-63.6398
G01 X56.3951 Y-63.7478
G01 X56.3911 Y-63.8557
G01 X56.3845 Y-63.9635
G01 X56.3752 Y-64.0711
G01 X56.3633 Y-64.1784
G01 X56.3488 Y-64.2854
G01 X56.3316 Y-64.3920
G01 X56.3119 Y-64.4982
G01 X56.2895 Y-64.6038
G01 X56.2645 Y-64.7089
G01 X56.2370 Y-64.8133
G01 X56.2069 Y-64.9170
G01 X56.1743 Y-65.0200
G01 X56.1392 Y-65.1221
G01 X56.1016 Y-65.2233
G01 X56.0615 Y-65.3236
G01 X56.0189 Y-65.4229
G01 X55.9739 Y-65.5210
G01 X55.9266 Y-65.6181
G01 X55.8768 Y-65.7139
G01 X55.8248 Y-65.8085
G01 X55.7704 Y-65.9018
G01 X55.7138 Y-65.9938
G01 X55.6969 Y-66.0197
G00 Z2.0000
G00 X55.9600 Y-67.0052
G01 F80.00
G01 Z-0.0800
G01 F200.00
G01 X56.0160 Y-66.9386
G01 X56.0958 Y-66.8390
G01 X56.1731 Y-66.7374
G01 X56.2478 Y-66.6340
G01 X56.3200 Y-66.5288
G01 X56.3896 Y-66.4218
G01 X56.4566 Y-66.3131
G01 X56.5208 Y-66.2029
G01 X56.5824 Y-66.0911
G01 X56.6412 Y-65.9778
G01 X56.6971 Y-65.8631
G01 X56.7503 Y-65.7470
G01 X56.8006 Y-65.6297
G01 X56.8480 Y-65.5112
G01 X56.8924 Y-65.3916
G01 X56.9339 Y-65.2709
G01 X56.9725 Y-65.1493
G01 X57.0080 Y-65.0267
G01 X57.0406 Y-64.9033
G01 X57.0700 Y-64.7791
G01 X57.0965 Y-64.6543
G01 X57.1198 Y-64.5288
G01 X57.1401 Y-64.4028
G01 X57.1573 Y-64.2763
G01 X57.1714 Y-64.1495
G01 X57.1823 Y-64.0223
G01 X57.1901 Y-63.8949
G01 X57.1948 Y-63.7674
G01 X57.1964 Y-63.6398
G01 X57.1948 Y-63.5122
G01 X57.1901 Y-63.3846
G01 X57.1823 Y-63.2573
G01 X57.1714 Y-63.1301
G01 X57.1573 Y-63.0033
G01 X57.1401 Y-62.8768
G01 X57.1198 Y-62.7508
G01 X57.0965 Y-62.6253
G01 X57.0700 Y-62.5005
G01 X57.0406 Y-62.3763
G01 X57.0080 Y-62.2529
G01 X56.9725 Y-62.1303
G01 X56.9339 Y-62.0086
G01 X56.8924 Y-61.8880
G01 X56.8480 Y-61.7683
G01 X56.8006 Y-61.6498
G01 X56.7503 Y-61.5325
G01 X56.6971 Y-61.4165
G01 X56.6412 Y-61.3018
G01 X56.5824 Y-61.1885
G01 X56.5208 Y-61.0767
G01 X56.4566 Y-60.9665
G01 X56.3896 Y-60.8578
G01 X56.3200 Y-60.7508
G01 X56.2478 Y-60.6456
G01 X56.1731 Y-60.5422
G01 X56.0958 Y-60.4406
G01 X56.0160 Y-60.3409
G01 X55.9339 Y-60.2433
G01 X55.8493 Y-60.1477
G01 X55.7625 Y-60.0542
G01 X55.6734 Y-59.9628
G01 X55.5820 Y-59.8737
G01 X55.4885 Y-59.7868
G01 X55.3929 Y-59.7023
G01 X55.2952 Y-59.6201
G01 X55.1956 Y-59.5404
G01 X55.0940 Y-59.4631
G01 X54.9906 Y-59.3883
G01 X54.8854 Y-59.3161
G01 X54.7784 Y-59.2465
G01 X54.6697 Y-59.1796
G01 X54.5595 Y-59.1153
G01 X54.4477 Y-59.0538
G01 X54.3344 Y-58.9950
G01 X54.2197 Y-58.9390
G01 X54.1037 Y-58.8859
G01 X53.9863 Y-58.8356
G01 X53.8678 Y-58.7882
G01 X53.7482 Y-58.7438
G01 X53.6275 Y-58.7022
G01 X53.5059 Y-58.6637
G01 X53.3833 Y-58.6282
G01 X53.2599 Y-58.5956
G01 X53.1357 Y-58.5661
G01 X53.0951 Y-58.5575
G00 Z2.0000
G00 X52.9129 Y-60.9942
G01 F80.00
G01 Z-0.0800
G01 F200.00
G01 X52.9397 Y-61.0035
G01 X53.0041 Y-61.0274
G01 X53.0679 Y-61.0529
G01 X53.1311 Y-61.0800
G01 X53.1935 Y-61.1086
G01 X53.2553 Y-61.1388
G01 X53.3163 Y-61.1704
G01 X53.3765 Y-61.2035
G01 X53.4359 Y-61.2381
G01 X53.4944 Y-61.2742
G01 X53.5380 Y-61.3026
G01 X53.6097 Y-62.4580
G01 X53.5731 Y-62.4093
G01 X53.5424 Y-62.3710
G01 X53.5108 Y-62.3334
G01 X53.4783 Y-62.2967
G01 X53.4449 Y-62.2607
G01 X53.4106 Y-62.2256
G01 X53.3755 Y-62.1913
G01 X53.3395 Y-62.1579
G01 X53.3027 Y-62.1254
G01 X53.2652 Y-62.0938
G01 X53.2269 Y-62.0631
G01 X53.1878 Y-62.0334
G01 X53.1480 Y-62.0046
G01 X53.1075 Y-61.9768
G01 X53.0664 Y-61.9501
G01 X53.0246 Y-61.9243
G01 X52.9822 Y-61.8996
G01 X52.9392 Y-61.8759
G01 X52.8956 Y-61.8533
G01 X52.8515 Y-61.8318
G01 X52.8069 Y-61.8114
G01 X52.7618 Y-61.7920
G01 X52.7162 Y-61.7738
G01 X52.6702 Y-61.7567
G01 X52.6238 Y-61.7407
G01 X52.5770 Y-61.7259
G01 X52.5298 Y-61.7122
G01 X52.4824 Y-61.6997
G01 X52.4346 Y-61.6884
G01 X52.3866 Y-61.6782
G01 X52.3383 Y-61.6692
G01 X52.2899 Y-61.6614
G01 X52.2412 Y-61.6548
G01 X52.1924 Y-61.6494
G01 X52.1435 Y-61.6452
G01 X52.0945 Y-61.6422
G01 X52.0455 Y-61.6404
G01 X51.9964 Y-61.6398
G01 X51.9473 Y-61.6404
G01 X51.8983 Y-61.6422
G01 X51.8493 Y-61.6452
G01 X51.8004 Y-61.6494
G01 X51.7516 Y-61.6548
G01 X51.7029 Y-61.6614
G01 X51.6545 Y-61.6692
G01 X51.6062 Y-61.6782
G01 X51.5582 Y-61.6884
G01 X51.5104 Y-61.6997
G01 X51.4630 Y-61.7122
G01 X51.4158 Y-61.7259
G01 X51.3690 Y-61.7407
G01 X51.3226 Y-61.7567
G01 X51.2766 Y-61.7738
G01 X51.2310 Y-61.7920
G01 X51.1859 Y-61.8114
G01 X51.1413 Y-61.8318
G01 X51.0972 Y-61.8533
G01 X51.0536 Y-61.8759
G01 X51.0106 Y-61.8996
G01 X50.9682 Y-61.9243
G01 X50.9264 Y-61.9501
G01 X50.8853 Y-61.9768
G01 X50.8448 Y-62.0046
G01 X50.8050 Y-62.0334
G01 X50.7659 Y-62.0631
G01 X50.7276 Y-62.0938
G01 X50.6900 Y-62.1254
G01 X50.6533 Y-62.1579
G01 X50.6173 Y-62.1913
G01 X50.5822 Y-62.2256
G01 X50.5479 Y-62.2607
G01 X50.5303 Y-62.2797
G01 X50.5303 Y-61.2546
G01 X50.5569 Y-61.2381
G01 X50.6163 Y-61.2035
G01 X50.6765 Y-61.1704
G01 X50.7375 Y-61.1388
G01 X50.7992 Y-61.1086
G01 X50.8617 Y-61.0800
G01 X50.9249 Y-61.0529
G01 X50.9887 Y-61.0274
G01 X51.0531 Y-61.0035
G01 X51.1181 Y-60.9811
G01 X51.1846 Y-60.9601
G00 Z2.0000
G00 X50.8000 Y-60.4286
G01 F80.00
G01 Z-0.0800
G01 F200.00
G01 X50.8091 Y-60.4506
G01 X50.8142 Y-60.4617
G01 X50.8507 Y-60.5389
G01 X50.8618 Y-60.5608
G01 X50.8739 Y-60.5822
G01 X50.9178 Y-60.6554
G01 X50.9309 Y-60.6761
G01 X50.9450 Y-60.6962
G01 X50.9959 Y-60.7648
G01 X51.0110 Y-60.7841
G01 X51.0270 Y-60.8027
G01 X51.0843 Y-60.8660
G01 X51.1013 Y-60.8837
G01 X51.1190 Y-60.9007
G01 X51.1823 Y-60.9580
G01 X51.2009 Y-60.9740
G01 X51.2202 Y-60.9891
G01 X51.2888 Y-61.0400
G01 X51.3089 Y-61.0541
G01 X51.3192 Y-61.0608
G01 X51.4028 Y-61.1111
G01 X51.4134 Y-61.1173
G01 X51.4351 Y-61.1289
G01 X51.5344 Y-61.1759
G01 X51.5571 Y-61.1853
G01 X51.5686 Y-61.1895
G01 X51.6606 Y-61.2223
G01 X51.6841 Y-61.2294
G01 X51.6960 Y-61.2326
G01 X51.7788 Y-61.2533
G01 X51.8027 Y-61.2587
G01 X51.8269 Y-61.2629
G01 X51.9114 Y-61.2754
G01 X51.9357 Y-61.2784
G01 X51.9602 Y-61.2802
G01 X52.0455 Y-61.2844
G01 X52.0700 Y-61.2850
G01 X52.0945 Y-61.2844
G01 X52.1798 Y-61.2802
G01 X52.2043 Y-61.2784
G01 X52.2286 Y-61.2754
G01 X52.3131 Y-61.2629
G01 X52.3373 Y-61.2587
G01 X52.3612 Y-61.2533
G01 X52.4559 Y-61.2294
G01 X52.4794 Y-61.2223
G01 X52.4910 Y-61.2183
G01 X52.5714 Y-61.1895
G01 X52.5943 Y-61.1807
G01 X52.6167 Y-61.1708
G01 X52.6939 Y-61.1343
G01 X52.7158 Y-61.1232
G01 X52.7372 Y-61.1111
G01 X52.8208 Y-61.0608
G01 X52.8311 Y-61.0541
G01 X52.8512 Y-61.0400
G01 X52.9198 Y-60.9891
G01 X52.9295 Y-60.9817
G01 X52.9485 Y-60.9661
G01 X53.0300 Y-60.8923
G01 X53.0473 Y-60.8750
G01 X53.0774 Y-60.8420
G01 X53.6097 Y-61.3743
G01 X53.6097 Y-63.3868
G01 X53.5776 Y-63.4304
G01 X53.5640 Y-63.4508
G01 X53.5197 Y-63.5244
G01 X53.5076 Y-63.5458
G01 X53.5019 Y-63.5566
G01 X53.4651 Y-63.6342
G01 X53.4552 Y-63.6566
G01 X53.4463 Y-63.6795
G01 X53.4175 Y-63.7604
G01 X53.4104 Y-63.7839
G01 X53.3894 Y-63.8672
G01 X53.3840 Y-63.8911
G01 X53.3798 Y-63.9153
G01 X53.3690 Y-63.9881
G01 X53.3660 Y-64.0125
G01 X53.3642 Y-64.0370
G01 X53.3606 Y-64.1105
G01 X53.3600 Y-64.1350
G01 X53.3606 Y-64.1595
G01 X53.3642 Y-64.2330
G01 X53.3660 Y-64.2575
G01 X53.3690 Y-64.2819
G01 X53.3798 Y-64.3547
G01 X53.3840 Y-64.3789
G01 X53.3894 Y-64.4028
G01 X53.4104 Y-64.4861
G01 X53.4175 Y-64.5096
G01 X53.4463 Y-64.5905
G01 X53.4552 Y-64.6134
G01 X53.4651 Y-64.6358
G01 X53.5019 Y-64.7134
G01 X53.5076 Y-64.7242
G01 X53.5197 Y-64.7456
G01 X53.5640 Y-64.8192
G01 X53.5776 Y-64.8396
G01 X53.6097 Y-64.8832
G01 X53.6097 Y-65.9831
G01 X53.5801 Y-65.9935
G01 X53.5574 Y-66.0029
G01 X53.5352 Y-66.0134
G01 X53.5136 Y-66.0250
G01 X53.4925 Y-66.0376
G01 X53.4721 Y-66.0512
G01 X53.4524 Y-66.0658
G01 X53.4334 Y-66.0814
G01 X53.4152 Y-66.0979
G01 X53.3979 Y-66.1152
G01 X53.3814 Y-66.1334
G01 X53.3658 Y-66.1524
G01 X53.3512 Y-66.1721
G01 X53.3376 Y-66.1925
G01 X53.3250 Y-66.2136
G01 X53.3134 Y-66.2352
G01 X53.3029 Y-66.2574
G01 X53.2935 Y-66.2801
G01 X53.2852 Y-66.3032
G01 X53.2815 Y-66.3149
G01 X53.2750 Y-66.3385
G01 X53.2696 Y-66.3625
G01 X53.2674 Y-66.3745
G01 X53.2638 Y-66.3988
G01 X53.2614 Y-66.4232
G01 X53.2602 Y-66.4477
G01 X53.2600 Y-66.6725
G01 X53.2485 Y-66.6523
G01 X53.2056 Y-66.5807
G01 X53.1925 Y-66.5600
G01 X53.1784 Y-66.5399
G01 X53.1287 Y-66.4729
G01 X53.1136 Y-66.4536
G01 X53.0975 Y-66.4350
G01 X53.0415 Y-66.3732
G01 X53.0246 Y-66.3554
G01 X53.0068 Y-66.3385
G01 X52.9450 Y-66.2825
G01 X52.9264 Y-66.2664
G01 X52.9071 Y-66.2513
G01 X52.8401 Y-66.2016
G01 X52.8200 Y-66.1875
G01 X52.7993 Y-66.1744
G01 X52.7277 Y-66.1315
G01 X52.7064 Y-66.1194
G01 X52.6845 Y-66.1084
G01 X52.6091 Y-66.0727
G01 X52.5866 Y-66.0628
G01 X52.5637 Y-66.0539
G01 X52.4852 Y-66.0258
G01 X52.4619 Y-66.0181
G01 X52.4382 Y-66.0116
G01 X52.3573 Y-65.9913
G01 X52.3334 Y-65.9859
G01 X52.3092 Y-65.9817
G01 X52.2267 Y-65.9695
G01 X52.2023 Y-65.9665
G01 X52.1778 Y-65.9647
G01 X52.0945 Y-65.9606
G01 X52.0700 Y-65.9600
G01 X52.0455 Y-65.9606
G01 X51.9622 Y-65.9647
G01 X51.9377 Y-65.9665
G01 X51.9133 Y-65.9695
G01 X51.8187 Y-65.9837
G01 X51.8066 Y-65.9859
G01 X51.7827 Y-65.9913
G01 X51.7018 Y-66.0116
G01 X51.6781 Y-66.0181
G01 X51.6548 Y-66.0258
G01 X51.5763 Y-66.0539
G01 X51.5534 Y-66.0628
G01 X51.5309 Y-66.0727
G01 X51.4555 Y-66.1084
G01 X51.4336 Y-66.1194
G01 X51.4123 Y-66.1315
G01 X51.3303 Y-66.1808
G01 X51.3200 Y-66.1875
G01 X51.2999 Y-66.2016
G01 X51.2329 Y-66.2513
G01 X51.2136 Y-66.2664
G01 X51.1950 Y-66.2825
G01 X51.1332 Y-66.3385
G01 X51.1242 Y-66.3468
G01 X51.1068 Y-66.3642
G01 X51.0425 Y-66.4350
G01 X51.0343 Y-66.4442
G01 X51.0188 Y-66.4631
G01 X50.9616 Y-66.5399
G01 X50.9475 Y-66.5600
G01 X50.9344 Y-66.5807
G01 X50.8853 Y-66.6629
G01 X50.8738 Y-66.6845
G01 X50.8684 Y-66.6955
G01 X50.8276 Y-66.7821
G01 X50.8182 Y-66.8048
G01 X50.8000 Y-66.8552
G01 X50.7818 Y-66.8048
G01 X50.7724 Y-66.7821
G01 X50.7262 Y-66.6845
G01 X50.7147 Y-66.6629
G01 X50.7085 Y-66.6523
G01 X50.6656 Y-66.5807
G01 X50.6592 Y-66.5703
G01 X50.6455 Y-66.5499
G01 X50.5812 Y-66.4631
G01 X50.5657 Y-66.4442
G01 X50.5303 Y-66.4049
G01 X50.5303 Y-60.8499
G01 X50.5811 Y-60.7935
G01 X50.5967 Y-60.7745
G01 X50.6550 Y-60.6962
G01 X50.6691 Y-60.6761
G01 X50.6758 Y-60.6658
G01 X50.7261 Y-60.5822
G01 X50.7382 Y-60.5608
G01 X50.7493 Y-60.5389
G01 X50.7858 Y-60.4617
G01 X50.7909 Y-60.4506
G01 X50.8000 Y-60.4286
G00 Z2.0000
G00 X48.5297 Y-60.9302
G01 F80.00
G01 Z-0.0800
G01 F200.00
G01 X48.4623 Y-61.0187
G01 X48.3990 Y-61.1062
G01 X48.3379 Y-61.1953
G01 X48.2790 Y-61.2858
G01 X48.2224 Y-61.3777
G01 X48.1680 Y-61.4710
G01 X48.1159 Y-61.5656
G01 X48.0662 Y-61.6615
G01 X48.0188 Y-61.7585
G01 X47.9903 Y-61.8210
G01 X48.5297 Y-62.6695
G01 X48.5043 Y-62.7651
G01 X48.4839 Y-62.8510
G01 X48.4656 Y-62.9375
G01 X48.4494 Y-63.0243
G01 X48.4354 Y-63.1116
G01 X48.4235 Y-63.1991
G01 X48.4137 Y-63.2869
G01 X48.4061 Y-63.3750
G01 X48.4049 Y-63.3950
G00 Z2.0000
G00 X47.9903 Y-63.4101
G01 F80.00
G01 Z-0.0800
G01 F200.00
G01 X47.9903 Y-60.8499
G01 X48.0411 Y-60.7935
G01 X48.0567 Y-60.7745
G01 X48.1150 Y-60.6962
G01 X48.1291 Y-60.6761
G01 X48.1358 Y-60.6658
G01 X48.1861 Y-60.5822
G01 X48.1982 Y-60.5608
G01 X48.2093 Y-60.5389
G01 X48.2458 Y-60.4617
G01 X48.2509 Y-60.4506
G01 X48.2600 Y-60.4286
G01 X48.2691 Y-60.4506
G01 X48.2742 Y-60.4617
G01 X48.3107 Y-60.5389
G01 X48.3218 Y-60.5608
G01 X48.3339 Y-60.5822
G01 X48.3842 Y-60.6658
G01 X48.3909 Y-60.6761
G01 X48.4050 Y-60.6962
G01 X48.4633 Y-60.7745
G01 X48.4789 Y-60.7935
G01 X48.5297 Y-60.8499
G01 X48.5297 Y-63.3950
G01 X48.1277 Y-63.3952
G01 X48.0910 Y-63.3968
G01 X48.0665 Y-63.3986
G01 X48.0543 Y-63.4000
G01 X48.0179 Y-63.4052
G01 X47.9903 Y-63.4101
G00 Z2.0000
G00 X48.3796 Y-66.1450
G01 F80.00
G01 Z-0.0800
G01 F200.00
G01 X48.3990 Y-66.1733
G01 X48.4623 Y-66.2609
G01 X48.5297 Y-66.3494
G00 Z2.0000
G00 X48.2600 Y-66.8552
G01 F80.00
G01 Z-0.0800
G01 F200.00
G01 X48.2418 Y-66.8048
G01 X48.2324 Y-66.7821
G01 X48.1862 Y-66.6845
G01 X48.1747 Y-66.6629
G01 X48.1685 Y-66.6523
G01 X48.1256 Y-66.5807
G01 X48.1192 Y-66.5703
G01 X48.1055 Y-66.5499
G01 X48.0412 Y-66.4631
G01 X48.0257 Y-66.4442
G01 X47.9903 Y-66.4049
G01 X47.9903 Y-66.1299
G01 X48.0179 Y-66.1348
G01 X48.0543 Y-66.1400
G01 X48.0665 Y-66.1414
G01 X48.0910 Y-66.1432
G01 X48.1277 Y-66.1448
G01 X48.5297 Y-66.1450
G01 X48.5297 Y-66.4049
G01 X48.4943 Y-66.4442
G01 X48.4788 Y-66.4631
G01 X48.4145 Y-66.5499
G01 X48.4075 Y-66.5600
G01 X48.3944 Y-66.5807
G01 X48.3515 Y-66.6523
G01 X48.3394 Y-66.6736
G01 X48.3338 Y-66.6845
G01 X48.2876 Y-66.7821
G01 X48.2782 Y-66.8048
G01 X48.2600 Y-66.8552
G00 Z2.0000
G00 X48.0438 Y-68.1534
G01 F80.00
G01 Z-0.0800
G01 F200.00
G01 X48.0774 Y-68.1830
G01 X48.1900 Y-68.2779
G01 X48.3050 Y-68.3699
G01 X48.4222 Y-68.4590
G01 X48.5415 Y-68.5453
G01 X48.6630 Y-68.6286
G01 X48.7864 Y-68.7089
G01 X48.9118 Y-68.7862
G01 X49.0390 Y-68.8603
G01 X49.1680 Y-68.9313
G01 X49.2987 Y-68.9991
G01 X49.4311 Y-69.0637
G01 X49.5649 Y-69.1250
G01 X49.7003 Y-69.1831
G01 X49.8370 Y-69.2377
G01 X49.9751 Y-69.2891
G01 X50.1143 Y-69.3370
G01 X50.2547 Y-69.3814
G01 X50.3961 Y-69.4224
G01 X50.5385 Y-69.4600
G01 X50.6818 Y-69.4940
G01 X50.7101 Y-69.5000
G00 Z2.0000
G00 X50.1595 Y-68.5042
G01 F80.00
G01 Z-0.0800
G01 F200.00
G01 X50.2446 Y-68.5358
G01 X50.3653 Y-68.5773
G01 X50.4869 Y-68.6159
G01 X50.6095 Y-68.6514
G01 X50.7329 Y-68.6840
G01 X50.8571 Y-68.7134
G01 X50.9819 Y-68.7399
G01 X51.1074 Y-68.7632
G01 X51.2334 Y-68.7835
G01 X51.3599 Y-68.8007
G01 X51.4867 Y-68.8147
G01 X51.6139 Y-68.8257
G01 X51.7412 Y-68.8335
G01 X51.8688 Y-68.8382
G01 X51.9964 Y-68.8398
G01 X52.1240 Y-68.8382
G01 X52.2515 Y-68.8335
G01 X52.3789 Y-68.8257
G01 X52.5061 Y-68.8147
G01 X52.6329 Y-68.8007
G01 X52.7594 Y-68.7835
G01 X52.8854 Y-68.7632
G01 X53.0109 Y-68.7399
G01 X53.1357 Y-68.7134
G01 X53.2599 Y-68.6840
G01 X53.3833 Y-68.6514
G01 X53.5059 Y-68.6159
G01 X53.5352 Y-68.6066
G01 X53.2827 Y-69.5000
G01 X53.3110 Y-69.4940
G01 X53.4543 Y-69.4600
G01 X53.5967 Y-69.4224
G01 X53.7381 Y-69.3814
G01 X53.8785 Y-69.3370
G01 X54.0177 Y-69.2891
G01 X54.1558 Y-69.2377
G01 X54.2925 Y-69.1831
G01 X54.4278 Y-69.1250
G01 X54.5617 Y-69.0637
G01 X54.6941 Y-68.9991
G01 X54.8248 Y-68.9313
G01 X54.9538 Y-68.8603
G01 X55.0810 Y-68.7862
G01 X55.2064 Y-68.7089
G01 X55.2816 Y-68.6600
G00 Z2.0000
G00 X55.9600 Y-68.1436
G01 F80.00
G01 Z-0.0800
G01 F200.00
G01 X56.0257 Y-68.0855
G01 X56.1336 Y-67.9853
G01 X56.2390 Y-67.8824
G01 X56.3419 Y-67.7770
G01 X56.4421 Y-67.6691
G01 X56.5396 Y-67.5588
G01 X56.6345 Y-67.4461
G01 X56.7265 Y-67.3312
G01 X56.8156 Y-67.2140
G01 X56.9019 Y-67.0946
G01 X56.9852 Y-66.9732
G01 X57.0655 Y-66.8498
G01 X57.1428 Y-66.7244
G01 X57.2169 Y-66.5972
G01 X57.2879 Y-66.4682
G01 X57.3557 Y-66.3375
G01 X57.4203 Y-66.2051
G01 X57.4817 Y-66.0712
G01 X57.5000 Y-66.0284
G01 X57.5000 Y-67.6327
G01 X57.4582 Y-67.6905
G01 X57.3572 Y-67.8234
G01 X57.2529 Y-67.9537
G01 X57.1454 Y-68.0814
G01 X57.0349 Y-68.2064
G01 X56.9213 Y-68.3287
G01 X56.8047 Y-68.4481
G01 X56.6853 Y-68.5647
G01 X56.5630 Y-68.6783
G01 X56.4380 Y-68.7888
G01 X56.3103 Y-68.8963
G01 X56.1800 Y-69.0005
G01 X56.0472 Y-69.1016
G01 X55.9119 Y-69.1994
G01 X55.7743 Y-69.2938
G01 X55.6344 Y-69.3848
G01 X55.4923 Y-69.4723
G01 X55.4448 Y-69.5000
G01 X56.8352 Y-69.5000
G01 X56.9605 Y-69.3946
G01 X57.1002 Y-69.2710
G01 X57.2369 Y-69.1441
G01 X57.3704 Y-69.0138
G01 X57.5000 Y-68.8810
G00 Z2.0000
G00 X53.6097 Y-65.9282
G01 F80.00
G01 Z-0.0800
G01 F200.00
G01 X53.5520 Y-65.9679
G01 X53.4944 Y-66.0054
G01 X53.4359 Y-66.0414
G01 X53.3765 Y-66.0760
G01 X53.3163 Y-66.1092
G01 X53.2553 Y-66.1408
G01 X53.1935 Y-66.1710
G01 X53.1311 Y-66.1996
G01 X53.0679 Y-66.2267
G01 X53.0041 Y-66.2522
G01 X52.9383 Y-66.2766
G00 Z2.0000
G00 X53.5868 Y-64.8522
G01 F80.00
G01 Z-0.0800
G01 F200.00
G01 X53.5731 Y-64.8703
G01 X53.5424 Y-64.9086
G01 X53.5108 Y-64.9461
G01 X53.4783 Y-64.9829
G01 X53.4449 Y-65.0189
G01 X53.4106 Y-65.0540
G01 X53.3755 Y-65.0883
G01 X53.3395 Y-65.1217
G01 X53.3027 Y-65.1542
G01 X53.2652 Y-65.1858
G01 X53.2269 Y-65.2165
G01 X53.1878 Y-65.2462
G01 X53.1480 Y-65.2750
G01 X53.1075 Y-65.3027
G01 X53.0664 Y-65.3295
G01 X53.0246 Y-65.3552
G01 X52.9822 Y-65.3800
G01 X52.9392 Y-65.4036
G01 X52.8956 Y-65.4262
G01 X52.8515 Y-65.4478
G01 X52.8069 Y-65.4682
G01 X52.7618 Y-65.4875
G01 X52.7162 Y-65.5058
G01 X52.6702 Y-65.5229
G01 X52.6238 Y-65.5388
G01 X52.5770 Y-65.5537
G01 X52.5298 Y-65.5673
G01 X52.4824 Y-65.5799
G01 X52.4346 Y-65.5912
G01 X52.3866 Y-65.6014
G01 X52.3383 Y-65.6103
G01 X52.2899 Y-65.6181
G01 X52.2412 Y-65.6247
G01 X52.1924 Y-65.6302
G01 X52.1435 Y-65.6344
G01 X52.0945 Y-65.6374
G01 X52.0455 Y-65.6392
G01 X51.9964 Y-65.6398
G01 X51.9473 Y-65.6392
G01 X51.8983 Y-65.6374
G01 X51.8493 Y-65.6344
G01 X51.8004 Y-65.6302
G01 X51.7516 Y-65.6247
G01 X51.7029 Y-65.6181
G01 X51.6545 Y-65.6103
G01 X51.6062 Y-65.6014
G01 X51.5582 Y-65.5912
G01 X51.5104 Y-65.5799
G01 X51.4630 Y-65.5673
G01 X51.4158 Y-65.5537
G01 X51.3690 Y-65.5388
G01 X51.3226 Y-65.5229
G01 X51.2766 Y-65.5058
G01 X51.2310 Y-65.4875
G01 X51.1859 Y-65.4682
G01 X51.1413 Y-65.4478
G01 X51.0972 Y-65.4262
G01 X51.0536 Y-65.4036
G01 X51.0106 Y-65.3800
G01 X50.9682 Y-65.3552
G01 X50.9264 Y-65.3295
G01 X50.8853 Y-65.3027
G01 X50.8448 Y-65.2750
G01 X50.8050 Y-65.2462
G01 X50.7659 Y-65.2165
G01 X50.7276 Y-65.1858
G01 X50.6900 Y-65.1542
G01 X50.6533 Y-65.1217
G01 X50.6173 Y-65.0883
G01 X50.5822 Y-65.0540
G01 X50.5479 Y-65.0189
G01 X50.5303 Y-64.9999
G01 X50.5303 Y-66.0250
G01 X50.5569 Y-66.0414
G01 X50.6163 Y-66.0760
G01 X50.6765 Y-66.1092
G01 X50.7375 Y-66.1408
G01 X50.7992 Y-66.1710
G01 X50.8617 Y-66.1996
G01 X50.9249 Y-66.2267
G01 X50.9887 Y-66.2522
G01 X51.0531 Y-66.2761
G01 X51.1181 Y-66.2985
G01 X51.1620 Y-66.3124
G00 Z2.0000
G00 X50.7610 Y-67.8625
G01 F80.00
G01 Z-0.0800
G01 F200.00
G01 X50.8229 Y-67.8804
G01 X50.8510 Y-67.8878
G00 Z2.0000
G00 X48.5480 Y-69.5000
G01 F80.00
G01 Z-0.0800
G01 F200.00
G01 X48.5005 Y-69.4723
G01 X48.3584 Y-69.3848
G01 X48.2185 Y-69.2938
G01 X48.0809 Y-69.1994
G01 X47.9456 Y-69.1016
G01 X47.8128 Y-69.0005
G01 X47.6825 Y-68.8963
G01 X47.5548 Y-68.7888
G01 X47.4298 Y-68.6783
G01 X47.3554 Y-68.6091
G01 X47.1576 Y-69.5000
G01 X47.0323 Y-69.3946
G01 X46.8925 Y-69.2710
G01 X46.7559 Y-69.1441
G01 X46.6224 Y-69.0138
G01 X46.4921 Y-68.8803
G01 X46.3652 Y-68.7436
G01 X46.2416 Y-68.6039
G01 X46.1215 Y-68.4612
G01 X46.0050 Y-68.3155
G01 X45.8920 Y-68.1671
G01 X45.7828 Y-68.0159
G01 X45.6795 Y-67.8655
G00 Z2.0000
G00 X45.1284 Y-68.4761
G01 F80.00
G01 Z-0.0800
G01 F200.00
G01 X45.2495 Y-68.6437
G01 X45.3743 Y-68.8077
G01 X45.5031 Y-68.9687
G01 X45.6358 Y-69.1264
G01 X45.7724 Y-69.2809
G01 X45.9127 Y-69.4319
G01 X45.9791 Y-69.5000
G01 X44.9047 Y-69.5000
G01 X44.8847 Y-69.4762
G01 X44.7436 Y-69.2999
G01 X44.6069 Y-69.1202
G01 X44.4746 Y-68.9372
G01 X44.3469 Y-68.7510
G01 X44.2802 Y-68.6485
G01 X43.8944 Y-69.5000
G01 X43.8205 Y-69.3979
G01 X43.6817 Y-69.1955
G01 X43.5479 Y-68.9898
G01 X43.4191 Y-68.7808
G01 X43.2955 Y-68.5688
G01 X43.1772 Y-68.3538
G01 X43.0642 Y-68.1359
G01 X43.0293 Y-68.0646
G00 Z2.0000
G00 X42.3889 Y-68.5714
G01 F80.00
G01 Z-0.0800
G01 F200.00
G01 X42.4716 Y-68.7309
G01 X42.5995 Y-68.9631
G01 X42.7329 Y-69.1921
G01 X42.8720 Y-69.4178
G01 X42.9255 Y-69.5000
G01 X41.9865 Y-69.5000
G01 X41.9034 Y-69.3574
G01 X41.7661 Y-69.1080
G01 X41.6350 Y-68.8553
G01 X41.5101 Y-68.5993
G01 X39.2830 Y-69.5000
G01 X39.1975 Y-69.3132
G01 X39.0621 Y-68.9974
G01 X38.9345 Y-68.6783
G01 X38.8148 Y-68.3562
G01 X38.7030 Y-68.0313
G01 X38.5992 Y-67.7038
G01 X38.5035 Y-67.3738
G01 X38.5000 Y-67.3604
G00 Z2.0000
G00 X45.6752 Y-66.1450
G01 F80.00
G01 Z-0.0800
G01 F200.00
G01 X45.7140 Y-66.2420
G01 X45.7798 Y-66.3954
G01 X45.8493 Y-66.5472
G01 X45.8607 Y-66.5705
G00 Z2.0000
G00 X45.9897 Y-66.1299
G01 F80.00
G01 Z-0.0800
G01 F200.00
G01 X45.9897 Y-66.4049
G01 X45.9543 Y-66.4442
G01 X45.9388 Y-66.4631
G01 X45.8745 Y-66.5499
G01 X45.8675 Y-66.5600
G01 X45.8544 Y-66.5807
G01 X45.8115 Y-66.6523
G01 X45.7994 Y-66.6736
G01 X45.7938 Y-66.6845
G01 X45.7476 Y-66.7821
G01 X45.7382 Y-66.8048
G01 X45.7200 Y-66.8552
G01 X45.7018 Y-66.8048
G01 X45.6924 Y-66.7821
G01 X45.6462 Y-66.6845
G01 X45.6347 Y-66.6629
G01 X45.6285 Y-66.6523
G01 X45.5856 Y-66.5807
G01 X45.5792 Y-66.5703
G01 X45.5655 Y-66.5499
G01 X45.5012 Y-66.4631
G01 X45.4857 Y-66.4442
G01 X45.4503 Y-66.4049
G01 X45.4503 Y-66.1450
G01 X45.8523 Y-66.1448
G01 X45.8890 Y-66.1432
G01 X45.9135 Y-66.1414
G01 X45.9257 Y-66.1400
G01 X45.9621 Y-66.1348
G01 X45.9897 Y-66.1299
G00 Z2.0000
G00 X45.4503 Y-61.8002
G01 F80.00
G01 Z-0.0800
G01 F200.00
G01 X45.4892 Y-61.6659
G01 X45.5396 Y-61.5068
G01 X45.5939 Y-61.3489
G01 X45.6520 Y-61.1925
G01 X45.7140 Y-61.0375
G01 X45.7798 Y-60.8841
G01 X45.8493 Y-60.7324
G01 X45.8662 Y-60.6978
G00 Z2.0000
G00 X45.8153 Y-60.6180
G01 F80.00
G01 Z-0.0800
G01 F200.00
G01 X45.8378 Y-60.6554
G01 X45.8509 Y-60.6761
G01 X45.8650 Y-60.6962
G01 X45.9159 Y-60.7648
G01 X45.9233 Y-60.7745
G01 X45.9389 Y-60.7935
G01 X45.9897 Y-60.8499
G01 X45.9897 Y-63.4101
G01 X45.9621 Y-63.4052
G01 X45.9257 Y-63.4000
G01 X45.9135 Y-63.3986
G01 X45.8890 Y-63.3968
G01 X45.8523 Y-63.3952
G01 X45.4503 Y-63.3950
G01 X45.4503 Y-61.1811
G01 X45.4764 Y-61.1653
G01 X45.4867 Y-61.1586
G01 X45.4968 Y-61.1517
G01 X45.5264 Y-61.1299
G01 X45.5458 Y-61.1148
G01 X45.5552 Y-61.1069
G01 X45.5915 Y-61.0739
G01 X45.6089 Y-61.0565
G01 X45.6173 Y-61.0476
G01 X45.6419 Y-61.0202
G01 X45.6498 Y-61.0108
G01 X45.6574 Y-61.0012
G01 X45.6795 Y-60.9717
G01 X45.6936 Y-60.9517
G01 X45.7003 Y-60.9414
G01 X45.7255 Y-60.8993
G01 X45.7371 Y-60.8777
G01 X45.7425 Y-60.8666
G01 X45.7581 Y-60.8333
G01 X45.7629 Y-60.8220
G01 X45.7675 Y-60.8106
G01 X45.7800 Y-60.7760
G01 X45.7877 Y-60.7527
G01 X45.7911 Y-60.7409
G01 X45.8030 Y-60.6933
G01 X45.8078 Y-60.6693
G01 X45.8153 Y-60.6180
G00 Z2.0000
G00 X45.5432 Y-58.2632
G01 F80.00
G01 Z-0.0800
G01 F200.00
G01 X45.6358 Y-58.1531
G01 X45.7724 Y-57.9987
G01 X45.9127 Y-57.8476
G01 X45.9897 Y-57.7687
G01 X45.9897 Y-57.0248
G01 X45.9897 Y-58.5301
G01 X45.9389 Y-58.5865
G01 X45.9233 Y-58.6055
G01 X45.9159 Y-58.6152
G01 X45.8650 Y-58.6838
G01 X45.8509 Y-58.7039
G01 X45.8378 Y-58.7246
G01 X45.8153 Y-58.7620
G01 X45.8078 Y-58.7107
G01 X45.8030 Y-58.6867
G01 X45.7911 Y-58.6391
G01 X45.7877 Y-58.6273
G01 X45.7800 Y-58.6040
G01 X45.7675 Y-58.5694
G01 X45.7629 Y-58.5580
G01 X45.7581 Y-58.5467
G01 X45.7425 Y-58.5134
G01 X45.7371 Y-58.5023
G01 X45.7255 Y-58.4807
G01 X45.7003 Y-58.4386
G01 X45.6936 Y-58.4283
G01 X45.6795 Y-58.4083
G01 X45.6574 Y-58.3788
G01 X45.6498 Y-58.3692
G01 X45.6419 Y-58.3598
G01 X45.6173 Y-58.3324
G01 X45.6089 Y-58.3235
G01 X45.5915 Y-58.3061
G01 X45.5552 Y-58.2731
G01 X45.5362 Y-58.2576
G01 X45.5264 Y-58.2501
G01 X45.4968 Y-58.2283
G01 X45.4867 Y-58.2214
G01 X45.4764 Y-58.2147
G01 X45.4503 Y-58.1989
G01 X45.4503 Y-57.5643
G01 X45.9897 Y-57.0248
G00 Z2.0000
G00 X47.9903 Y-57.1820
G01 F80.00
G01 Z-0.0800
G01 F200.00
G01 X48.0892 Y-57.1211
G01 X48.2504 Y-57.0271
G01 X48.4138 Y-56.9372
G01 X48.5793 Y-56.8513
G01 X48.7470 Y-56.7695
G01 X48.9166 Y-56.6918
G01 X49.0880 Y-56.6183
G01 X49.2612 Y-56.5490
G01 X49.4360 Y-56.4841
G01 X49.6124 Y-56.4234
G01 X49.7902 Y-56.3670
G01 X49.9694 Y-56.3151
G01 X50.1497 Y-56.2676
G01 X50.3312 Y-56.2245
G01 X50.5137 Y-56.1858
G01 X50.6971 Y-56.1517
G01 X50.8812 Y-56.1220
G01 X51.0661 Y-56.0969
G01 X51.2515 Y-56.0764
G01 X51.4373 Y-56.0604
G01 X51.5647 Y-56.0526
G00 Z2.0000
G00 X52.2096 Y-55.4076
G01 F80.00
G01 Z-0.0800
G01 F200.00
G01 X52.2130 Y-55.3933
G01 X52.2178 Y-55.3693
G01 X52.2250 Y-55.3207
G01 X52.2274 Y-55.2963
G01 X52.2294 Y-55.2595
G01 X52.2300 Y-55.2350
G01 X52.2300 Y-54.8746
G01 X52.7773 Y-54.3273
G01 X52.7942 Y-54.3095
G01 X52.8272 Y-54.2731
G01 X52.8432 Y-54.2546
G01 X52.8583 Y-54.2352
G01 X52.8875 Y-54.1958
G01 X52.9017 Y-54.1757
G01 X52.9084 Y-54.1654
G01 X52.9400 Y-54.1129
G01 X52.9521 Y-54.0915
G01 X52.9632 Y-54.0696
G01 X52.9842 Y-54.0252
G01 X52.9941 Y-54.0028
G01 X53.0029 Y-53.9799
G01 X53.0235 Y-53.9221
G01 X53.0306 Y-53.8986
G01 X53.0457 Y-53.8391
G01 X53.0510 Y-53.8151
G01 X53.0552 Y-53.7910
G01 X53.0624 Y-53.7424
G01 X53.0654 Y-53.7180
G01 X53.0672 Y-53.6936
G01 X53.0701 Y-53.6323
G01 X53.0703 Y-53.3003
G01 X53.0826 Y-53.2851
G01 X53.0900 Y-53.2754
G01 X53.1368 Y-53.2123
G01 X53.1509 Y-53.1922
G01 X53.1640 Y-53.1715
G01 X53.2044 Y-53.1042
G01 X53.2165 Y-53.0828
G01 X53.2275 Y-53.0609
G01 X53.2611 Y-52.9899
G01 X53.2710 Y-52.9675
G01 X53.2799 Y-52.9446
G01 X53.3100 Y-52.8600
G01 X53.3102 Y-53.2823
G01 X53.3106 Y-53.2945
G01 X53.3124 Y-53.3190
G01 X53.3154 Y-53.3434
G01 X53.3196 Y-53.3675
G01 X53.3250 Y-53.3915
G01 X53.3315 Y-53.4151
G01 X53.3352 Y-53.4268
G01 X53.3435 Y-53.4499
G01 X53.3529 Y-53.4726
G01 X53.3634 Y-53.4948
G01 X53.3690 Y-53.5057
G01 X53.3811 Y-53.5271
G01 X53.3876 Y-53.5375
G01 X53.4012 Y-53.5579
G01 X53.4158 Y-53.5776
G01 X53.4314 Y-53.5966
G01 X53.4479 Y-53.6148
G01 X53.4652 Y-53.6321
G01 X53.4742 Y-53.6405
G01 X53.4928 Y-53.6565
G01 X53.5122 Y-53.6716
G01 X53.5322 Y-53.6857
G01 X53.5529 Y-53.6989
G01 X53.5636 Y-53.7050
G01 X53.5852 Y-53.7166
G01 X53.6097 Y-53.7281
G01 X53.6097 Y-54.0075
G01 X52.2096 Y-55.4076
G00 Z2.0000
G00 X52.2299 Y-55.2433
G01 F80.00
G01 Z-0.0800
G01 F200.00
G01 X52.3688 Y-55.2484
G01 X52.6418 Y-54.4628
G01 X52.6732 Y-54.4647
G01 X52.8982 Y-54.4841
G01 X53.1097 Y-54.5076
G01 X53.0670 Y-53.6980
G01 X53.2205 Y-53.7150
G01 X53.4637 Y-53.7480
G01 X53.6097 Y-53.7715
G00 Z2.0000
G00 X53.3100 Y-52.9201
G01 F80.00
G01 Z-0.0800
G01 F200.00
G01 X53.2895 Y-52.9178
G00 Z2.0000
G00 X53.3100 Y-51.2800
G01 F80.00
G01 Z-0.0800
G01 F200.00
G01 X53.2756 Y-51.1839
G01 X53.2710 Y-51.1725
G01 X53.2611 Y-51.1501
G01 X53.2275 Y-51.0791
G01 X53.2165 Y-51.0572
G01 X53.2044 Y-51.0358
G01 X53.1651 Y-50.9702
G01 X53.3100 Y-50.9702
G01 X53.3100 Y-51.2800
G00 Z2.0000
G00 X50.9749 Y-50.9702
G01 F80.00
G01 Z-0.0800
G01 F200.00
G01 X50.9356 Y-51.0358
G01 X50.9235 Y-51.0572
G01 X50.9125 Y-51.0791
G01 X50.8789 Y-51.1501
G01 X50.8690 Y-51.1725
G01 X50.8601 Y-51.1954
G01 X50.8337 Y-51.2693
G01 X50.8260 Y-51.2926
G01 X50.8194 Y-51.3163
G01 X50.8000 Y-51.3939
G01 X50.7806 Y-51.3163
G01 X50.7740 Y-51.2926
G01 X50.7663 Y-51.2693
G01 X50.7399 Y-51.1954
G01 X50.7310 Y-51.1725
G01 X50.7211 Y-51.1501
G01 X50.6875 Y-51.0791
G01 X50.6765 Y-51.0572
G01 X50.6644 Y-51.0358
G01 X50.6251 Y-50.9702
G01 X50.9749 Y-50.9702
G00 Z2.0000
G00 X50.8251 Y-51.2957
G01 F80.00
G01 Z-0.0800
G01 F200.00
G01 X50.7762 Y-51.3000
G00 Z2.0000
G00 X50.8000 Y-52.7461
G01 F80.00
G01 Z-0.0800
G01 F200.00
G01 X50.8194 Y-52.8237
G01 X50.8260 Y-52.8474
G01 X50.8297 Y-52.8591
G01 X50.8601 Y-52.9446
G01 X50.8644 Y-52.9561
G01 X50.8738 Y-52.9788
G01 X50.9125 Y-53.0609
G01 X50.9179 Y-53.0719
G01 X50.9294 Y-53.0936
G01 X50.9824 Y-53.1820
G01 X50.9960 Y-53.2024
G01 X51.0201 Y-53.2350
G01 X50.6677 Y-53.2352
G01 X50.6187 Y-53.2376
G01 X50.5943 Y-53.2400
G01 X50.5742 Y-53.2428
G01 X50.6040 Y-53.2024
G01 X50.6176 Y-53.1820
G01 X50.6706 Y-53.0936
G01 X50.6821 Y-53.0719
G01 X50.6875 Y-53.0609
G01 X50.7262 Y-52.9788
G01 X50.7356 Y-52.9561
G01 X50.7399 Y-52.9446
G01 X50.7703 Y-52.8591
G01 X50.7774 Y-52.8356
G01 X50.7806 Y-52.8237
G01 X50.8000 Y-52.7461
G00 Z2.0000
G00 X50.8449 Y-52.9021
G01 F80.00
G01 Z-0.0800
G01 F200.00
G01 X50.7514 Y-52.9125
G00 Z2.0000
G00 X49.9417 Y-53.8539
G01 F80.00
G01 Z-0.0800
G01 F200.00
G01 X49.8054 Y-53.8828
G01 X49.5666 Y-53.9395
G01 X49.3293 Y-54.0020
G01 X49.1300 Y-54.0598
G01 X49.1300 Y-54.8980
G01 X49.3258 Y-54.8359
G01 X49.5426 Y-54.7730
G01 X49.7610 Y-54.7155
G01 X49.9300 Y-54.6754
G00 Z2.0000
G00 X49.9740 Y-55.4871
G01 F80.00
G01 Z-0.0800
G01 F200.00
G01 X49.9554 Y-55.4915
G01 X49.7560 Y-55.5441
G01 X49.5580 Y-55.6015
G01 X49.3615 Y-55.6638
G01 X49.1665 Y-55.7308
G01 X48.9733 Y-55.8026
G01 X48.9205 Y-55.8238
G01 X50.6406 Y-56.9766
G01 X50.5065 Y-57.0050
G01 X50.3441 Y-57.0436
G01 X50.1827 Y-57.0861
G01 X50.0225 Y-57.1326
G01 X49.8634 Y-57.1830
G01 X49.7055 Y-57.2373
G01 X49.5491 Y-57.2954
G01 X49.3941 Y-57.3574
G01 X49.2408 Y-57.4232
G01 X49.0890 Y-57.4927
G01 X48.9390 Y-57.5659
G01 X48.7909 Y-57.6427
G01 X48.6447 Y-57.7232
G01 X48.5005 Y-57.8072
G01 X48.3584 Y-57.8948
G01 X48.2185 Y-57.9858
G01 X48.0809 Y-58.0802
G01 X47.9903 Y-58.1457
G01 X48.2634 Y-58.9430
G01 X48.2583 Y-58.9471
G00 Z2.0000
G00 X48.2600 Y-58.9514
G01 F80.00
G01 Z-0.0800
G01 F200.00
G01 X48.2509 Y-58.9294
G01 X48.2458 Y-58.9183
G01 X48.2093 Y-58.8411
G01 X48.1982 Y-58.8192
G01 X48.1861 Y-58.7978
G01 X48.1358 Y-58.7142
G01 X48.1291 Y-58.7039
G01 X48.1150 Y-58.6838
G01 X48.0567 Y-58.6055
G01 X48.0411 Y-58.5865
G01 X47.9903 Y-58.5301
G01 X47.9903 Y-56.8893
G01 X48.6873 Y-56.1923
G01 X48.7042 Y-56.1745
G01 X48.7372 Y-56.1381
G01 X48.7453 Y-56.1289
G01 X48.7609 Y-56.1100
G01 X48.7975 Y-56.0608
G01 X48.8117 Y-56.0407
G01 X48.8248 Y-56.0200
G01 X48.8500 Y-55.9779
G01 X48.8562 Y-55.9673
G01 X48.8678 Y-55.9456
G01 X48.8942 Y-55.8902
G01 X48.8993 Y-55.8791
G01 X48.9087 Y-55.8564
G01 X48.9295 Y-55.7987
G01 X48.9372 Y-55.7754
G01 X48.9437 Y-55.7517
G01 X48.9515 Y-55.7206
G01 X48.9674 Y-55.7012
G01 X48.9967 Y-55.6618
G01 X49.0103 Y-55.6414
G01 X49.0355 Y-55.5993
G01 X49.0471 Y-55.5777
G01 X49.0681 Y-55.5333
G01 X49.0775 Y-55.5106
G01 X49.0940 Y-55.4644
G01 X49.0977 Y-55.4527
G01 X49.1043 Y-55.4291
G01 X49.1130 Y-55.3933
G01 X49.1178 Y-55.3693
G01 X49.1234 Y-55.3329
G01 X49.1264 Y-55.3085
G01 X49.1282 Y-55.2840
G01 X49.1298 Y-55.2473
G01 X49.1298 Y-53.9727
G01 X49.1274 Y-53.9237
G01 X49.1250 Y-53.8993
G01 X49.1178 Y-53.8507
G01 X49.1130 Y-53.8267
G01 X49.1011 Y-53.7791
G01 X49.0940 Y-53.7556
G01 X49.0775 Y-53.7094
G01 X49.0668 Y-53.6840
G01 X49.1409 Y-53.7103
G01 X49.1644 Y-53.7174
G01 X49.2524 Y-53.7396
G01 X49.2644 Y-53.7425
G01 X49.2884 Y-53.7473
G01 X49.3782 Y-53.7607
G01 X49.4026 Y-53.7637
G01 X49.4271 Y-53.7655
G01 X49.5055 Y-53.7694
G01 X49.5300 Y-53.7700
G01 X49.5545 Y-53.7694
G01 X49.6329 Y-53.7655
G01 X49.6574 Y-53.7637
G01 X49.6818 Y-53.7607
G01 X49.7716 Y-53.7473
G01 X49.7836 Y-53.7450
G01 X49.8076 Y-53.7396
G01 X49.8956 Y-53.7174
G01 X49.9191 Y-53.7103
G01 X49.9932 Y-53.6840
G01 X49.9825 Y-53.7094
G01 X49.9660 Y-53.7556
G01 X49.9589 Y-53.7791
G01 X49.9470 Y-53.8267
G01 X49.9422 Y-53.8507
G01 X49.9350 Y-53.8993
G01 X49.9326 Y-53.9237
G01 X49.9306 Y-53.9605
G01 X49.9300 Y-53.9850
G01 X49.9300 Y-55.2350
G01 X49.9306 Y-55.2595
G01 X49.9326 Y-55.2963
G01 X49.9336 Y-55.3085
G01 X49.9366 Y-55.3329
G01 X49.9422 Y-55.3693
G01 X49.9470 Y-55.3933
G01 X49.9557 Y-55.4291
G01 X49.9589 Y-55.4409
G01 X49.9660 Y-55.4644
G01 X49.9783 Y-55.4991
G01 X49.9871 Y-55.5220
G01 X49.9970 Y-55.5444
G01 X50.0129 Y-55.5777
G01 X50.0245 Y-55.5993
G01 X50.0433 Y-55.6309
G01 X50.0564 Y-55.6517
G01 X50.0705 Y-55.6717
G01 X50.0926 Y-55.7012
G01 X50.1081 Y-55.7202
G01 X50.1411 Y-55.7565
G01 X50.1585 Y-55.7739
G01 X50.1948 Y-55.8069
G01 X50.2138 Y-55.8224
G01 X50.2532 Y-55.8517
G01 X50.2736 Y-55.8653
G01 X50.3157 Y-55.8905
G01 X50.3373 Y-55.9021
G01 X50.3817 Y-55.9231
G01 X50.4044 Y-55.9325
G01 X50.4506 Y-55.9490
G01 X50.4741 Y-55.9561
G01 X50.5217 Y-55.9680
G01 X50.5457 Y-55.9728
G01 X50.5821 Y-55.9784
G01 X50.6065 Y-55.9814
G01 X50.6310 Y-55.9832
G01 X50.6677 Y-55.9848
G01 X51.4800 Y-55.9850
G01 X51.4923 Y-55.9848
G01 X51.5290 Y-55.9832
G01 X51.5413 Y-55.9824
G01 X51.5657 Y-55.9800
G01 X51.6143 Y-55.9728
G01 X51.6383 Y-55.9680
G01 X51.6526 Y-55.9646
G01 X49.5222 Y-58.0951
G01 X49.5055 Y-58.0956
G01 X49.4202 Y-58.0998
G01 X49.3957 Y-58.1016
G01 X49.3714 Y-58.1046
G01 X49.2869 Y-58.1171
G01 X49.2627 Y-58.1213
G01 X49.2388 Y-58.1267
G01 X49.1560 Y-58.1474
G01 X49.1323 Y-58.1540
G01 X49.1090 Y-58.1617
G01 X49.0286 Y-58.1905
G01 X49.0057 Y-58.1993
G01 X48.9833 Y-58.2092
G01 X48.9061 Y-58.2457
G01 X48.8842 Y-58.2568
G01 X48.8628 Y-58.2689
G01 X48.7896 Y-58.3128
G01 X48.7689 Y-58.3259
G01 X48.7488 Y-58.3400
G01 X48.6802 Y-58.3909
G01 X48.6609 Y-58.4060
G01 X48.6423 Y-58.4220
G01 X48.5790 Y-58.4793
G01 X48.5613 Y-58.4963
G01 X48.5443 Y-58.5140
G01 X48.4870 Y-58.5773
G01 X48.4710 Y-58.5959
G01 X48.4559 Y-58.6152
G01 X48.4050 Y-58.6838
G01 X48.3909 Y-58.7039
G01 X48.3778 Y-58.7246
G01 X48.3339 Y-58.7978
G01 X48.3218 Y-58.8192
G01 X48.3107 Y-58.8411
G01 X48.2742 Y-58.9183
G01 X48.2691 Y-58.9294
G01 X48.2600 Y-58.9514
G00 Z2.0000
G00 X46.7203 Y-55.1458
G01 F80.00
G01 Z-0.0800
G01 F200.00
G01 X46.8300 Y-55.0781
G01 X46.7203 Y-54.2169
G01 X46.8300 Y-54.1565
G01 X46.7203 Y-53.3099
G01 X46.7809 Y-53.2784
G01 X47.0368 Y-53.1535
G01 X47.2956 Y-53.0350
G01 X47.5573 Y-52.9228
G01 X47.8216 Y-52.8171
G01 X48.0885 Y-52.7179
G01 X48.2455 Y-52.6639
G00 Z2.0000
G00 X48.2300 Y-51.8266
G01 F80.00
G01 Z-0.0800
G01 F200.00
G01 X48.1067 Y-51.8656
G01 X47.8190 Y-51.9646
G01 X47.5337 Y-52.0707
G01 X47.2511 Y-52.1837
G01 X47.0200 Y-52.2828
G00 Z2.0000
G00 X46.9964 Y-51.4240
G01 F80.00
G01 Z-0.0800
G01 F200.00
G01 X47.2458 Y-51.3243
G01 X47.5494 Y-51.2114
G01 X47.8558 Y-51.1060
G01 X48.1646 Y-51.0082
G01 X48.2955 Y-50.9702
G01 X48.4349 Y-50.9702
G01 X48.3956 Y-51.0358
G01 X48.3835 Y-51.0572
G01 X48.3725 Y-51.0791
G01 X48.3389 Y-51.1501
G01 X48.3290 Y-51.1725
G01 X48.3244 Y-51.1839
G01 X48.2937 Y-51.2693
G01 X48.2897 Y-51.2809
G01 X48.2826 Y-51.3044
G01 X48.2575 Y-51.4044
G01 X48.2550 Y-51.4164
G01 X48.2508 Y-51.4406
G01 X48.2376 Y-51.5304
G01 X48.2352 Y-51.5548
G01 X48.2345 Y-51.5671
G01 X48.2306 Y-51.6455
G01 X48.2300 Y-51.6700
G01 X48.2302 Y-52.4823
G01 X48.2345 Y-52.5729
G01 X48.2363 Y-52.5974
G01 X48.2393 Y-52.6218
G01 X48.2508 Y-52.6994
G01 X48.2550 Y-52.7236
G01 X48.2604 Y-52.7476
G01 X48.2794 Y-52.8237
G01 X48.2860 Y-52.8474
G01 X48.2897 Y-52.8591
G01 X48.3201 Y-52.9446
G01 X48.3290 Y-52.9675
G01 X48.3389 Y-52.9899
G01 X48.3779 Y-53.0719
G01 X48.3894 Y-53.0936
G01 X48.3956 Y-53.1042
G01 X48.4424 Y-53.1820
G01 X48.4560 Y-53.2024
G01 X48.4858 Y-53.2428
G01 X48.4657 Y-53.2400
G01 X48.4413 Y-53.2376
G01 X48.4045 Y-53.2356
G01 X48.3800 Y-53.2350
G01 X47.5800 Y-53.2350
G01 X47.5677 Y-53.2352
G01 X47.5310 Y-53.2368
G01 X47.5065 Y-53.2386
G01 X47.4821 Y-53.2416
G01 X47.4457 Y-53.2472
G01 X47.4217 Y-53.2520
G01 X47.3859 Y-53.2607
G01 X47.3623 Y-53.2673
G01 X47.3390 Y-53.2750
G01 X47.3044 Y-53.2875
G01 X47.2817 Y-53.2969
G01 X47.2373 Y-53.3179
G01 X47.2157 Y-53.3295
G01 X47.1841 Y-53.3483
G01 X47.1633 Y-53.3614
G01 X47.1433 Y-53.3755
G01 X47.1138 Y-53.3976
G01 X47.1042 Y-53.4052
G01 X47.0948 Y-53.4131
G01 X47.0674 Y-53.4377
G01 X47.0497 Y-53.4547
G01 X47.0327 Y-53.4724
G01 X47.0081 Y-53.4998
G01 X46.9926 Y-53.5188
G01 X46.9705 Y-53.5483
G01 X46.9633 Y-53.5582
G01 X46.9497 Y-53.5786
G01 X46.9307 Y-53.6101
G01 X46.9186 Y-53.6315
G01 X46.9129 Y-53.6423
G01 X46.8970 Y-53.6756
G01 X46.8871 Y-53.6980
G01 X46.8825 Y-53.7094
G01 X46.8700 Y-53.7440
G01 X46.8623 Y-53.7673
G01 X46.8557 Y-53.7909
G01 X46.8470 Y-53.8267
G01 X46.8422 Y-53.8507
G01 X46.8402 Y-53.8629
G01 X46.8350 Y-53.8993
G01 X46.8326 Y-53.9237
G01 X46.8306 Y-53.9605
G01 X46.8300 Y-53.9850
G01 X46.8300 Y-55.2204
G01 X46.7203 Y-55.3302
G01 X46.7203 Y-53.3003
G01 X46.7326 Y-53.2851
G01 X46.7400 Y-53.2754
G01 X46.7868 Y-53.2123
G01 X46.8009 Y-53.1922
G01 X46.8140 Y-53.1715
G01 X46.8544 Y-53.1042
G01 X46.8665 Y-53.0828
G01 X46.8775 Y-53.0609
G01 X46.9162 Y-52.9788
G01 X46.9256 Y-52.9561
G01 X46.9299 Y-52.9446
G01 X46.9563 Y-52.8707
G01 X46.9640 Y-52.8474
G01 X46.9706 Y-52.8237
G01 X46.9896 Y-52.7476
G01 X46.9950 Y-52.7236
G01 X46.9992 Y-52.6994
G01 X47.0107 Y-52.6218
G01 X47.0137 Y-52.5974
G01 X47.0155 Y-52.5729
G01 X47.0198 Y-52.4823
G01 X47.0200 Y-51.6700
G01 X47.0194 Y-51.6455
G01 X47.0155 Y-51.5671
G01 X47.0148 Y-51.5548
G01 X47.0124 Y-51.5304
G01 X46.9992 Y-51.4406
G01 X46.9950 Y-51.4164
G01 X46.9925 Y-51.4044
G01 X46.9674 Y-51.3044
G01 X46.9640 Y-51.2926
G01 X46.9563 Y-51.2693
G01 X46.9256 Y-51.1839
G01 X46.9210 Y-51.1725
G01 X46.9111 Y-51.1501
G01 X46.8775 Y-51.0791
G01 X46.8665 Y-51.0572
G01 X46.8544 Y-51.0358
G01 X46.8151 Y-50.9702
G01 X48.4349 Y-50.9702
G00 Z2.0000
G00 X44.6249 Y-50.9702
G01 F80.00
G01 Z-0.0800
G01 F200.00
G01 X44.5856 Y-51.0358
G01 X44.5735 Y-51.0572
G01 X44.5625 Y-51.0791
G01 X44.5289 Y-51.1501
G01 X44.5190 Y-51.1725
G01 X44.5101 Y-51.1954
G01 X44.4837 Y-51.2693
G01 X44.4760 Y-51.2926
G01 X44.4694 Y-51.3163
G01 X44.4500 Y-51.3939
G01 X44.4306 Y-51.3163
G01 X44.4240 Y-51.2926
G01 X44.4163 Y-51.2693
G01 X44.3899 Y-51.1954
G01 X44.3810 Y-51.1725
G01 X44.3711 Y-51.1501
G01 X44.3375 Y-51.0791
G01 X44.3265 Y-51.0572
G01 X44.3144 Y-51.0358
G01 X44.2751 Y-50.9702
G01 X44.6249 Y-50.9702
G00 Z2.0000
G00 X44.3474 Y-50.9702
G01 F80.00
G01 Z-0.0800
G01 F200.00
G01 X44.2946 Y-51.0028
G00 Z2.0000
G00 X44.4728 Y-52.8362
G01 F80.00
G01 Z-0.0800
G01 F200.00
G01 X44.4797 Y-52.8591
G01 X44.4837 Y-52.8707
G01 X44.5101 Y-52.9446
G01 X44.5190 Y-52.9675
G01 X44.5289 Y-52.9899
G01 X44.5625 Y-53.0609
G01 X44.5735 Y-53.0828
G01 X44.5856 Y-53.1042
G01 X44.6260 Y-53.1715
G01 X44.6391 Y-53.1922
G01 X44.6532 Y-53.2123
G01 X44.7000 Y-53.2754
G01 X44.7074 Y-53.2851
G01 X44.7197 Y-53.3003
G01 X44.7197 Y-55.4657
G01 X44.5083 Y-55.6772
G01 X44.5153 Y-55.6664
G01 X44.5343 Y-55.6349
G01 X44.5405 Y-55.6243
G01 X44.5521 Y-55.6027
G01 X44.5680 Y-55.5695
G01 X44.5779 Y-55.5470
G01 X44.5825 Y-55.5356
G01 X44.5950 Y-55.5010
G01 X44.6027 Y-55.4777
G01 X44.6061 Y-55.4659
G01 X44.6152 Y-55.4303
G01 X44.6206 Y-55.4063
G01 X44.6228 Y-55.3943
G01 X44.6284 Y-55.3579
G01 X44.6314 Y-55.3335
G01 X44.6324 Y-55.3213
G01 X44.6344 Y-55.2845
G01 X44.6350 Y-55.2600
G01 X44.6348 Y-53.9477
G01 X44.6332 Y-53.9110
G01 X44.6314 Y-53.8865
G01 X44.6284 Y-53.8621
G01 X44.6228 Y-53.8257
G01 X44.6180 Y-53.8017
G01 X44.6093 Y-53.7659
G01 X44.6027 Y-53.7423
G01 X44.5950 Y-53.7190
G01 X44.5825 Y-53.6844
G01 X44.5731 Y-53.6617
G01 X44.5575 Y-53.6284
G01 X44.5464 Y-53.6065
G01 X44.5405 Y-53.5957
G01 X44.5217 Y-53.5641
G01 X44.5086 Y-53.5433
G01 X44.4945 Y-53.5233
G01 X44.4728 Y-53.4942
G01 X44.4728 Y-52.8362
G00 Z2.0000
G00 X44.7197 Y-53.6005
G01 F80.00
G01 Z-0.0800
G01 F200.00
G01 X44.6097 Y-53.6800
G01 X44.5872 Y-53.6972
G00 Z2.0000
G00 X44.7197 Y-54.6070
G01 F80.00
G01 Z-0.0800
G01 F200.00
G01 X44.6350 Y-54.6749
G00 Z2.0000
G00 X42.4622 Y-55.7125
G01 F80.00
G01 Z-0.0800
G01 F200.00
G01 X42.4111 Y-55.7733
G01 X42.3263 Y-55.8792
G00 Z2.0000
G00 X52.3964 Y-63.6398
G01 F80.00
G01 Z-0.0800
G01 F200.00
G01 X52.3959 Y-63.6594
G01 X52.3945 Y-63.6790
G01 X52.3921 Y-63.6985
G01 X52.3887 Y-63.7178
G01 X52.3844 Y-63.7370
G01 X52.3792 Y-63.7559
G01 X52.3730 Y-63.7745
G01 X52.3659 Y-63.7929
G01 X52.3580 Y-63.8108
G01 X52.3492 Y-63.8283
G01 X52.3395 Y-63.8454
G01 X52.3290 Y-63.8620
G01 X52.3177 Y-63.8781
G01 X52.3056 Y-63.8935
G01 X52.2928 Y-63.9084
G01 X52.2792 Y-63.9226
G01 X52.2650 Y-63.9362
G01 X52.2502 Y-63.9490
G01 X52.2347 Y-63.9611
G01 X52.2186 Y-63.9724
G01 X52.2020 Y-63.9829
G01 X52.1850 Y-63.9926
G01 X52.1674 Y-64.0014
G01 X52.1495 Y-64.0093
G01 X52.1312 Y-64.0164
G01 X52.1125 Y-64.0226
G01 X52.0936 Y-64.0278
G01 X52.0744 Y-64.0321
G01 X52.0551 Y-64.0355
G01 X52.0356 Y-64.0379
G01 X52.0160 Y-64.0393
G01 X51.9964 Y-64.0398
G01 X51.9768 Y-64.0393
G01 X51.9572 Y-64.0379
G01 X51.9377 Y-64.0355
G01 X51.9184 Y-64.0321
G01 X51.8992 Y-64.0278
G01 X51.8803 Y-64.0226
G01 X51.8616 Y-64.0164
G01 X51.8433 Y-64.0093
G01 X51.8254 Y-64.0014
G01 X51.8078 Y-63.9926
G01 X51.7908 Y-63.9829
G01 X51.7742 Y-63.9724
G01 X51.7581 Y-63.9611
G01 X51.7426 Y-63.9490
G01 X51.7278 Y-63.9362
G01 X51.7136 Y-63.9226
G01 X51.7000 Y-63.9084
G01 X51.6872 Y-63.8935
G01 X51.6751 Y-63.8781
G01 X51.6638 Y-63.8620
G01 X51.6533 Y-63.8454
G01 X51.6436 Y-63.8283
G01 X51.6348 Y-63.8108
G01 X51.6268 Y-63.7929
G01 X51.6198 Y-63.7745
G01 X51.6136 Y-63.7559
G01 X51.6084 Y-63.7370
G01 X51.6041 Y-63.7178
G01 X51.6007 Y-63.6985
G01 X51.5983 Y-63.6790
G01 X51.5969 Y-63.6594
G01 X51.5964 Y-63.6398
G01 X51.5975 Y-63.6104
G01 X51.5994 Y-63.5908
G01 X51.6023 Y-63.5714
G01 X51.6061 Y-63.5521
G01 X51.6109 Y-63.5331
G01 X51.6198 Y-63.5050
G01 X51.6268 Y-63.4867
G01 X51.6348 Y-63.4688
G01 X51.6436 Y-63.4512
G01 X51.6533 Y-63.4341
G01 X51.6638 Y-63.4176
G01 X51.6811 Y-63.3937
G01 X51.7000 Y-63.3712
G01 X51.7136 Y-63.3569
G01 X51.7351 Y-63.3369
G01 X51.7503 Y-63.3244
G01 X51.7742 Y-63.3072
G01 X51.7908 Y-63.2967
G01 X51.8166 Y-63.2825
G01 X51.8343 Y-63.2741
G01 X51.8616 Y-63.2632
G01 X51.8803 Y-63.2570
G01 X51.8992 Y-63.2518
G01 X51.9184 Y-63.2475
G01 X51.9474 Y-63.2428
G01 X51.9670 Y-63.2409
G01 X51.9866 Y-63.2399
G01 X52.0062 Y-63.2399
G01 X52.0356 Y-63.2417
G01 X52.0551 Y-63.2441
G01 X52.0744 Y-63.2475
G01 X52.0936 Y-63.2518
G01 X52.1219 Y-63.2600
G01 X52.1495 Y-63.2702
G01 X52.1762 Y-63.2825
G01 X52.1936 Y-63.2918
G01 X52.2104 Y-63.3018
G01 X52.2267 Y-63.3128
G01 X52.2425 Y-63.3244
G01 X52.2650 Y-63.3434
G01 X52.2792 Y-63.3569
G01 X52.2928 Y-63.3712
G01 X52.3117 Y-63.3937
G01 X52.3234 Y-63.4095
G01 X52.3343 Y-63.4258
G01 X52.3492 Y-63.4512
G01 X52.3621 Y-63.4777
G01 X52.3696 Y-63.4958
G01 X52.3762 Y-63.5143
G01 X52.3819 Y-63.5331
G01 X52.3867 Y-63.5521
G01 X52.3921 Y-63.5811
G01 X52.3953 Y-63.6104
G01 X52.3964 Y-63.6398
G01 X53.1964 Y-63.6398
G01 X53.1960 Y-63.6692
G01 X53.1949 Y-63.6987
G01 X53.1931 Y-63.7281
G01 X53.1906 Y-63.7574
G01 X53.1874 Y-63.7867
G01 X53.1834 Y-63.8159
G01 X53.1787 Y-63.8449
G01 X53.1733 Y-63.8739
G01 X53.1672 Y-63.9027
G01 X53.1604 Y-63.9314
G01 X53.1529 Y-63.9598
G01 X53.1447 Y-63.9881
G01 X53.1358 Y-64.0162
G01 X53.1262 Y-64.0441
G01 X53.1160 Y-64.0717
G01 X53.1051 Y-64.0990
G01 X53.0934 Y-64.1261
G01 X53.0812 Y-64.1529
G01 X53.0683 Y-64.1793
G01 X53.0547 Y-64.2055
G01 X53.0405 Y-64.2313
G01 X53.0257 Y-64.2567
G01 X53.0102 Y-64.2818
G01 X52.9942 Y-64.3065
G01 X52.9775 Y-64.3308
G01 X52.9602 Y-64.3546
G01 X52.9424 Y-64.3781
G01 X52.9240 Y-64.4011
G01 X52.9050 Y-64.4236
G01 X52.8855 Y-64.4457
G01 X52.8655 Y-64.4672
G01 X52.8449 Y-64.4883
G01 X52.8238 Y-64.5089
G01 X52.8023 Y-64.5289
G01 X52.7802 Y-64.5484
G01 X52.7577 Y-64.5674
G01 X52.7347 Y-64.5858
G01 X52.7112 Y-64.6036
G01 X52.6874 Y-64.6209
G01 X52.6631 Y-64.6376
G01 X52.6384 Y-64.6536
G01 X52.6133 Y-64.6691
G01 X52.5879 Y-64.6839
G01 X52.5621 Y-64.6981
G01 X52.5359 Y-64.7117
G01 X52.5095 Y-64.7246
G01 X52.4827 Y-64.7368
G01 X52.4556 Y-64.7484
G01 X52.4283 Y-64.7594
G01 X52.4007 Y-64.7696
G01 X52.3728 Y-64.7792
G01 X52.3447 Y-64.7881
G01 X52.3165 Y-64.7963
G01 X52.2880 Y-64.8038
G01 X52.2593 Y-64.8106
G01 X52.2305 Y-64.8167
G01 X52.2015 Y-64.8221
G01 X52.1725 Y-64.8268
G01 X52.1433 Y-64.8308
G01 X52.1140 Y-64.8340
G01 X52.0847 Y-64.8365
G01 X52.0553 Y-64.8383
G01 X52.0258 Y-64.8394
G01 X51.9964 Y-64.8398
G01 X51.9669 Y-64.8394
G01 X51.9375 Y-64.8383
G01 X51.9081 Y-64.8365
G01 X51.8788 Y-64.8340
G01 X51.8495 Y-64.8308
G01 X51.8203 Y-64.8268
G01 X51.7912 Y-64.8221
G01 X51.7623 Y-64.8167
G01 X51.7335 Y-64.8106
G01 X51.7048 Y-64.8038
G01 X51.6763 Y-64.7963
G01 X51.6481 Y-64.7881
G01 X51.6200 Y-64.7792
G01 X51.5921 Y-64.7696
G01 X51.5645 Y-64.7594
G01 X51.5372 Y-64.7484
G01 X51.5101 Y-64.7368
G01 X51.4833 Y-64.7246
G01 X51.4569 Y-64.7117
G01 X51.4307 Y-64.6981
G01 X51.4049 Y-64.6839
G01 X51.3795 Y-64.6691
G01 X51.3544 Y-64.6536
G01 X51.3297 Y-64.6376
G01 X51.3054 Y-64.6209
G01 X51.2816 Y-64.6036
G01 X51.2581 Y-64.5858
G01 X51.2351 Y-64.5674
G01 X51.2126 Y-64.5484
G01 X51.1905 Y-64.5289
G01 X51.1689 Y-64.5089
G01 X51.1479 Y-64.4883
G01 X51.1273 Y-64.4672
G01 X51.1073 Y-64.4457
G01 X51.0877 Y-64.4236
G01 X51.0688 Y-64.4011
G01 X51.0504 Y-64.3781
G01 X51.0325 Y-64.3546
G01 X51.0153 Y-64.3308
G01 X50.9986 Y-64.3065
G01 X50.9826 Y-64.2818
G01 X50.9671 Y-64.2567
G01 X50.9523 Y-64.2313
G01 X50.9381 Y-64.2055
G01 X50.9245 Y-64.1793
G01 X50.9116 Y-64.1529
G01 X50.8993 Y-64.1261
G01 X50.8877 Y-64.0990
G01 X50.8768 Y-64.0717
G01 X50.8665 Y-64.0441
G01 X50.8570 Y-64.0162
G01 X50.8481 Y-63.9881
G01 X50.8399 Y-63.9598
G01 X50.8324 Y-63.9314
G01 X50.8256 Y-63.9027
G01 X50.8195 Y-63.8739
G01 X50.8141 Y-63.8449
G01 X50.8094 Y-63.8159
G01 X50.8054 Y-63.7867
G01 X50.8022 Y-63.7574
G01 X50.7996 Y-63.7281
G01 X50.7978 Y-63.6987
G01 X50.7968 Y-63.6692
G01 X50.7964 Y-63.6398
G01 X50.7968 Y-63.6103
G01 X50.7978 Y-63.5809
G01 X50.7996 Y-63.5515
G01 X50.8022 Y-63.5222
G01 X50.8054 Y-63.4929
G01 X50.8094 Y-63.4637
G01 X50.8141 Y-63.4346
G01 X50.8195 Y-63.4057
G01 X50.8256 Y-63.3769
G01 X50.8324 Y-63.3482
G01 X50.8399 Y-63.3197
G01 X50.8481 Y-63.2914
G01 X50.8570 Y-63.2634
G01 X50.8665 Y-63.2355
G01 X50.8768 Y-63.2079
G01 X50.8877 Y-63.1806
G01 X50.8993 Y-63.1535
G01 X50.9116 Y-63.1267
G01 X50.9245 Y-63.1003
G01 X50.9381 Y-63.0741
G01 X50.9523 Y-63.0483
G01 X50.9671 Y-63.0229
G01 X50.9826 Y-62.9978
G01 X50.9986 Y-62.9731
G01 X51.0153 Y-62.9488
G01 X51.0325 Y-62.9249
G01 X51.0504 Y-62.9015
G01 X51.0688 Y-62.8785
G01 X51.0877 Y-62.8560
G01 X51.1073 Y-62.8339
G01 X51.1273 Y-62.8123
G01 X51.1479 Y-62.7913
G01 X51.1689 Y-62.7707
G01 X51.1905 Y-62.7506
G01 X51.2126 Y-62.7311
G01 X51.2351 Y-62.7122
G01 X51.2581 Y-62.6938
G01 X51.2816 Y-62.6759
G01 X51.3054 Y-62.6587
G01 X51.3297 Y-62.6420
G01 X51.3544 Y-62.6260
G01 X51.3795 Y-62.6105
G01 X51.4049 Y-62.5957
G01 X51.4307 Y-62.5815
G01 X51.4569 Y-62.5679
G01 X51.4833 Y-62.5550
G01 X51.5101 Y-62.5427
G01 X51.5372 Y-62.5311
G01 X51.5645 Y-62.5202
G01 X51.5921 Y-62.5099
G01 X51.6200 Y-62.5004
G01 X51.6481 Y-62.4915
G01 X51.6763 Y-62.4833
G01 X51.7048 Y-62.4758
G01 X51.7335 Y-62.4689
G01 X51.7623 Y-62.4628
G01 X51.7912 Y-62.4575
G01 X51.8203 Y-62.4528
G01 X51.8495 Y-62.4488
G01 X51.8788 Y-62.4456
G01 X51.9081 Y-62.4430
G01 X51.9375 Y-62.4412
G01 X51.9669 Y-62.4401
G01 X51.9964 Y-62.4398
G01 X52.0258 Y-62.4401
G01 X52.0553 Y-62.4412
G01 X52.0847 Y-62.4430
G01 X52.1140 Y-62.4456
G01 X52.1433 Y-62.4488
G01 X52.1725 Y-62.4528
G01 X52.2015 Y-62.4575
G01 X52.2305 Y-62.4628
G01 X52.2593 Y-62.4689
G01 X52.2880 Y-62.4758
G01 X52.3165 Y-62.4833
G01 X52.3447 Y-62.4915
G01 X52.3728 Y-62.5004
G01 X52.4007 Y-62.5099
G01 X52.4283 Y-62.5202
G01 X52.4556 Y-62.5311
G01 X52.4827 Y-62.5427
G01 X52.5095 Y-62.5550
G01 X52.5359 Y-62.5679
G01 X52.5621 Y-62.5815
G01 X52.5879 Y-62.5957
G01 X52.6133 Y-62.6105
G01 X52.6384 Y-62.6260
G01 X52.6631 Y-62.6420
G01 X52.6874 Y-62.6587
G01 X52.7112 Y-62.6759
G01 X52.7347 Y-62.6938
G01 X52.7577 Y-62.7122
G01 X52.7802 Y-62.7311
G01 X52.8023 Y-62.7506
G01 X52.8238 Y-62.7707
G01 X52.8449 Y-62.7913
G01 X52.8655 Y-62.8123
G01 X52.8855 Y-62.8339
G01 X52.9050 Y-62.8560
G01 X52.9240 Y-62.8785
G01 X52.9424 Y-62.9015
G01 X52.9602 Y-62.9249
G01 X52.9775 Y-62.9488
G01 X52.9942 Y-62.9731
G01 X53.0102 Y-62.9978
G01 X53.0257 Y-63.0229
G01 X53.0405 Y-63.0483
G01 X53.0547 Y-63.0741
G01 X53.0683 Y-63.1003
G01 X53.0812 Y-63.1267
G01 X53.0934 Y-63.1535
G01 X53.1051 Y-63.1806
G01 X53.1160 Y-63.2079
G01 X53.1262 Y-63.2355
G01 X53.1358 Y-63.2634
G01 X53.1447 Y-63.2914
G01 X53.1529 Y-63.3197
G01 X53.1604 Y-63.3482
G01 X53.1672 Y-63.3769
G01 X53.1733 Y-63.4057
G01 X53.1787 Y-63.4346
G01 X53.1834 Y-63.4637
G01 X53.1874 Y-63.4929
G01 X53.1906 Y-63.5222
G01 X53.1931 Y-63.5515
G01 X53.1949 Y-63.5809
G01 X53.1960 Y-63.6103
G01 X53.1964 Y-63.6398
G00 Z2.0000
M05
G00 Z2.0000
G00 Z10.00


